;FLAVOR:Marlin
;TIME:3427
;Filament used: 2.08969m
;Layer height: 0.2
;MINX:85.778
;MINY:85.772
;MINZ:0.2
;MAXX:149.22
;MAXY:149.229
;MAXZ:9.6
;Generated with Cura_SteamEngine main
M140 S50
M105
M190 S50
M104 S200
M105
M109 S200
M82 ;absolute extrusion mode
; Ender 3 Custom Start G-code
G92 E0 ; Reset Extruder
G28 ; Home all axes
G1 Z2.0 F3000 ; Move Z Axis up little to prevent scratching of Heat Bed
G1 X0.1 Y20 Z0.3 F5000.0 ; Move to start position
G1 X0.1 Y200.0 Z0.3 F1500.0 E15 ; Draw the first line
G1 X0.4 Y200.0 Z0.3 F5000.0 ; Move to side a little
G1 X0.4 Y20 Z0.3 F1500.0 E30 ; Draw the second line
G92 E0 ; Reset Extruder
G1 Z2.0 F3000 ; Move Z Axis up little to prevent scratching of Heat Bed
G1 X5 Y20 Z0.3 F5000.0 ; Move over to prevent blob squish
G92 E0
G92 E0
G1 F2700 E-5
;LAYER_COUNT:48
;LAYER:0
M107
G0 F6000 X96.066 Y95.678 Z0.2
G0 X89.547 Y105.08
;TYPE:SKIRT
G1 F2700 E0
G1 F1200 X89.821 Y104.487 E0.02173
G1 X90.201 Y103.708 E0.05055
G1 X90.524 Y103.082 E0.07398
G1 X91.133 Y101.999 E0.11531
G1 X91.32 Y101.683 E0.12752
G1 X91.688 Y101.093 E0.15065
G1 X92.331 Y100.119 E0.18947
G1 X92.732 Y99.555 E0.21248
G1 X93.301 Y98.794 E0.24409
G1 X93.721 Y98.259 E0.26671
G1 X94.48 Y97.36 E0.30584
G1 X94.955 Y96.828 E0.32956
G1 X95.82 Y95.925 E0.37115
G1 X96.066 Y95.678 E0.38275
G1 X96.567 Y95.199 E0.4058
G1 X97.485 Y94.369 E0.44696
G1 X98.008 Y93.929 E0.4697
G1 X98.952 Y93.177 E0.50984
G1 X99.478 Y92.788 E0.5316
G1 X100.229 Y92.258 E0.56217
G1 X100.85 Y91.842 E0.58703
G1 X101.155 Y91.648 E0.59905
G1 X102.145 Y91.046 E0.63759
G1 X102.762 Y90.7 E0.66112
G1 X103.524 Y90.295 E0.68982
G1 X104.173 Y89.969 E0.71398
G1 X105.26 Y89.47 E0.75376
G1 X105.592 Y89.325 E0.76581
G1 X106.203 Y89.077 E0.78774
G1 X107.392 Y88.631 E0.82998
G1 X108.047 Y88.411 E0.85296
G1 X108.886 Y88.152 E0.88216
G1 X109.604 Y87.95 E0.90697
G1 X110.693 Y87.681 E0.94428
G1 X111.406 Y87.527 E0.96854
G1 X112.636 Y87.304 E1.01012
G1 X113.007 Y87.245 E1.02261
G1 X113.687 Y87.153 E1.04544
G1 X114.5 Y87.061 E1.07265
G1 X115.177 Y87 E1.09526
G1 X115.54 Y86.977 E1.10735
G1 X116.827 Y86.92 E1.1502
G1 X117.524 Y86.914 E1.17339
G1 X118.349 Y86.925 E1.20083
G1 X119.056 Y86.952 E1.22436
G1 X120.289 Y87.042 E1.26548
G1 X120.655 Y87.076 E1.2777
G1 X121.373 Y87.16 E1.30175
G1 X122.169 Y87.272 E1.32848
G1 X122.84 Y87.382 E1.3511
G1 X124.089 Y87.633 E1.39347
G1 X124.802 Y87.797 E1.41781
G1 X125.928 Y88.098 E1.45657
G1 X126.612 Y88.301 E1.4803
G1 X127.768 Y88.689 E1.52086
G1 X128.096 Y88.806 E1.53244
G1 X128.754 Y89.059 E1.55589
G1 X129.92 Y89.547 E1.59793
G1 X130.512 Y89.82 E1.61961
G1 X131.289 Y90.199 E1.64837
G1 X131.929 Y90.53 E1.67233
G1 X132.997 Y91.131 E1.71309
G1 X133.318 Y91.321 E1.7255
G1 X133.9 Y91.683 E1.74829
G1 X134.586 Y92.131 E1.77554
G1 X135.168 Y92.532 E1.79905
G1 X136.191 Y93.29 E1.8414
G1 X136.733 Y93.715 E1.86431
G1 X137.64 Y94.48 E1.90377
G1 X138.172 Y94.955 E1.92749
G1 X139.075 Y95.82 E1.96908
G1 X139.541 Y96.291 E1.99112
G1 X139.791 Y96.556 E2.00324
G1 X140.624 Y97.478 E2.04457
G1 X141.071 Y98.008 E2.06763
G1 X141.823 Y98.952 E2.10777
G1 X142.212 Y99.478 E2.12953
G1 X142.742 Y100.229 E2.1601
G1 X143.158 Y100.85 E2.18496
G1 X143.352 Y101.155 E2.19698
G1 X143.954 Y102.145 E2.23552
G1 X144.3 Y102.762 E2.25905
G1 X144.705 Y103.524 E2.28775
G1 X145.025 Y104.161 E2.31146
G1 X145.182 Y104.491 E2.32361
G1 X145.671 Y105.583 E2.36341
G1 X145.923 Y106.203 E2.38567
G1 X146.246 Y107.051 E2.41585
G1 X146.478 Y107.707 E2.43899
G1 X146.849 Y108.89 E2.48023
G1 X147.048 Y109.596 E2.50463
G1 X147.32 Y110.696 E2.54231
G1 X147.471 Y111.392 E2.566
G1 X147.697 Y112.64 E2.60819
G1 X147.808 Y113.376 E2.63294
G1 X147.939 Y114.502 E2.67064
G1 X147.974 Y114.86 E2.68261
G1 X148.022 Y115.525 E2.70478
G1 X148.08 Y116.827 E2.74813
G1 X148.086 Y117.522 E2.77125
G1 X148.065 Y118.701 E2.81047
G1 X148.029 Y119.375 E2.83292
G1 X147.924 Y120.655 E2.87563
G1 X147.84 Y121.373 E2.89968
G1 X147.728 Y122.169 E2.92641
G1 X147.619 Y122.83 E2.9487
G1 X147.368 Y124.084 E2.99123
G1 X147.203 Y124.802 E3.01573
G1 X146.902 Y125.928 E3.0545
G1 X146.707 Y126.585 E3.07729
G1 X146.312 Y127.767 E3.11874
G1 X146.076 Y128.412 E3.14159
G1 X145.598 Y129.584 E3.18369
G1 X145.452 Y129.922 E3.19593
G1 X145.185 Y130.5 E3.21711
G1 X144.801 Y131.288 E3.24626
G1 X144.476 Y131.918 E3.26984
G1 X143.872 Y132.992 E3.31082
G1 X143.499 Y133.612 E3.33489
G1 X142.868 Y134.587 E3.37352
G1 X142.468 Y135.168 E3.39698
G1 X141.71 Y136.191 E3.43933
G1 X141.285 Y136.733 E3.46223
G1 X140.52 Y137.64 E3.5017
G1 X140.047 Y138.169 E3.5253
G1 X139.18 Y139.075 E3.56701
G1 X138.709 Y139.541 E3.58905
G1 X138.444 Y139.791 E3.60116
G1 X137.522 Y140.624 E3.64249
G1 X136.992 Y141.071 E3.66555
G1 X136.048 Y141.823 E3.70569
G1 X135.522 Y142.212 E3.72745
G1 X134.771 Y142.742 E3.75803
G1 X134.15 Y143.158 E3.78289
G1 X133.845 Y143.352 E3.79491
G1 X132.855 Y143.954 E3.83345
G1 X132.238 Y144.3 E3.85697
G1 X131.476 Y144.705 E3.88568
G1 X130.828 Y145.03 E3.90979
G1 X130.516 Y145.178 E3.92127
G1 X129.417 Y145.671 E3.96133
G1 X128.799 Y145.922 E3.98352
G1 X127.61 Y146.368 E4.02576
G1 X126.953 Y146.589 E4.04881
G1 X126.114 Y146.848 E4.07802
G1 X125.396 Y147.05 E4.10282
G1 X124.307 Y147.319 E4.14013
G1 X123.594 Y147.473 E4.16439
G1 X122.364 Y147.696 E4.20597
G1 X121.993 Y147.755 E4.21847
G1 X121.313 Y147.847 E4.24129
G1 X120.5 Y147.939 E4.2685
G1 X119.823 Y148 E4.29111
G1 X119.46 Y148.023 E4.30321
G1 X118.173 Y148.08 E4.34606
G1 X117.476 Y148.086 E4.36924
G1 X116.651 Y148.075 E4.39668
G1 X115.944 Y148.048 E4.42021
G1 X114.711 Y147.958 E4.46133
G1 X114.345 Y147.924 E4.47356
G1 X113.627 Y147.84 E4.4976
G1 X112.831 Y147.728 E4.52434
G1 X112.16 Y147.618 E4.54695
G1 X110.911 Y147.367 E4.58933
G1 X110.198 Y147.203 E4.61366
G1 X109.072 Y146.902 E4.65242
G1 X108.388 Y146.699 E4.67616
G1 X107.232 Y146.311 E4.71671
G1 X106.904 Y146.194 E4.72829
G1 X106.246 Y145.941 E4.75174
G1 X105.08 Y145.453 E4.79378
G1 X104.487 Y145.179 E4.81551
G1 X103.402 Y144.644 E4.85575
G1 X102.763 Y144.301 E4.87987
G1 X101.682 Y143.679 E4.92135
G1 X101.1 Y143.317 E4.94414
G1 X100.113 Y142.665 E4.98349
G1 X99.558 Y142.27 E5.00615
G1 X98.811 Y141.712 E5.03716
G1 X98.262 Y141.281 E5.06037
G1 X97.361 Y140.521 E5.09958
G1 X96.826 Y140.042 E5.12346
G1 X95.925 Y139.18 E5.16493
G1 X95.459 Y138.709 E5.18697
G1 X95.208 Y138.443 E5.19914
G1 X94.376 Y137.522 E5.24042
G1 X93.929 Y136.992 E5.26348
G1 X93.181 Y136.053 E5.30341
G1 X92.785 Y135.518 E5.32554
G1 X92.059 Y134.479 E5.3677
G1 X91.648 Y133.846 E5.3928
G1 X91.222 Y133.152 E5.41989
G1 X90.867 Y132.541 E5.44339
G1 X90.292 Y131.471 E5.48379
G1 X89.969 Y130.827 E5.50776
G1 X89.474 Y129.749 E5.54721
G1 X89.329 Y129.417 E5.55926
G1 X89.077 Y128.797 E5.58152
G1 X88.751 Y127.941 E5.61198
G1 X88.517 Y127.278 E5.63537
G1 X88.151 Y126.108 E5.67614
G1 X88.056 Y125.782 E5.68744
G1 X87.865 Y125.068 E5.71202
G1 X87.681 Y124.307 E5.73806
G1 X87.527 Y123.594 E5.76232
G1 X87.304 Y122.364 E5.8039
G1 X87.245 Y121.993 E5.81639
G1 X87.153 Y121.313 E5.83921
G1 X87.061 Y120.5 E5.86643
G1 X87 Y119.823 E5.88904
G1 X86.977 Y119.46 E5.90113
G1 X86.92 Y118.173 E5.94398
G1 X86.914 Y117.478 E5.9671
G1 X86.936 Y116.279 E6.00698
G1 X86.974 Y115.591 E6.0299
G1 X87.076 Y114.345 E6.07148
G1 X87.16 Y113.627 E6.09553
G1 X87.272 Y112.831 E6.12226
G1 X87.389 Y112.124 E6.1461
G1 X87.708 Y110.572 E6.1988
G1 X87.885 Y109.853 E6.22342
G1 X88.1 Y109.063 E6.25065
G1 X88.302 Y108.384 E6.27422
G1 X88.689 Y107.232 E6.31464
G1 X88.924 Y106.588 E6.33744
G1 X89.059 Y106.246 E6.34967
G1 X89.547 Y105.08 E6.39171
G1 F2700 E1.39171
G0 F6000 X87.735 Y116.317
G1 F2700 E6.39171
G1 F1200 X87.771 Y115.653 E6.41382
G1 X87.871 Y114.433 E6.45454
G1 X87.952 Y113.739 E6.47778
G1 X88.064 Y112.943 E6.50451
G1 X88.177 Y112.26 E6.52754
G1 X88.418 Y111.065 E6.56808
G1 X88.576 Y110.379 E6.5915
G1 X88.961 Y108.964 E6.64027
G1 X89.162 Y108.325 E6.66255
G1 X89.446 Y107.489 E6.69192
G1 X89.673 Y106.869 E6.71388
G1 X90.141 Y105.721 E6.75511
G1 X90.276 Y105.41 E6.76639
G1 X90.54 Y104.838 E6.78734
G1 X91.058 Y103.785 E6.82637
G1 X91.396 Y103.156 E6.85012
G1 X92.002 Y102.102 E6.89056
G1 X92.357 Y101.53 E6.91295
G1 X92.802 Y100.849 E6.94001
G1 X93.187 Y100.291 E6.96256
G1 X93.942 Y99.273 E7.00471
G1 X94.346 Y98.759 E7.02646
G1 X95.089 Y97.879 E7.06476
G1 X95.548 Y97.365 E7.08768
G1 X96.395 Y96.481 E7.1284
G1 X96.871 Y96.011 E7.15065
G1 X97.755 Y95.198 E7.1906
G1 X98.509 Y94.553 E7.2236
G1 X99.433 Y93.817 E7.26289
G1 X99.94 Y93.441 E7.28388
G1 X100.691 Y92.911 E7.31445
G1 X101.29 Y92.51 E7.33843
G1 X101.573 Y92.33 E7.34959
G1 X102.542 Y91.741 E7.3873
G1 X103.138 Y91.406 E7.41004
G1 X103.9 Y91.001 E7.43874
G1 X104.82 Y90.548 E7.47285
G1 X105.899 Y90.064 E7.51218
G1 X106.487 Y89.825 E7.53329
G1 X107.335 Y89.502 E7.56347
G1 X107.978 Y89.275 E7.58615
G1 X109.122 Y88.917 E7.62602
G1 X109.816 Y88.721 E7.65001
G1 X110.881 Y88.459 E7.68649
G1 X111.569 Y88.31 E7.7099
G1 X112.775 Y88.092 E7.75066
G1 X113.119 Y88.037 E7.76225
G1 X113.777 Y87.948 E7.78433
G1 X114.59 Y87.856 E7.81155
G1 X115.242 Y87.798 E7.83332
G1 X115.579 Y87.776 E7.84455
G1 X116.84 Y87.72 E7.88653
G1 X117.513 Y87.714 E7.90892
G1 X118.673 Y87.735 E7.94751
G1 X119.332 Y87.77 E7.96946
G1 X120.567 Y87.871 E8.01067
G1 X121.261 Y87.952 E8.03391
G1 X122.057 Y88.064 E8.06064
G1 X122.706 Y88.171 E8.08252
G1 X123.928 Y88.417 E8.12398
G1 X124.617 Y88.576 E8.1475
G1 X124.935 Y88.657 E8.15841
G1 X126.025 Y88.958 E8.19602
G1 X126.675 Y89.162 E8.21868
G1 X127.511 Y89.446 E8.24805
G1 X128.14 Y89.677 E8.27034
G1 X129.277 Y90.141 E8.31118
G1 X129.59 Y90.276 E8.32252
G1 X130.162 Y90.539 E8.34346
G1 X130.939 Y90.918 E8.37221
G1 X131.556 Y91.238 E8.39533
G1 X132.601 Y91.826 E8.43521
G1 X132.899 Y92.002 E8.44672
G1 X133.462 Y92.353 E8.46879
G1 X134.422 Y92.986 E8.50703
G1 X134.964 Y93.372 E8.52916
G1 X135.712 Y93.931 E8.56022
G1 X136.235 Y94.341 E8.58233
G1 X137.121 Y95.089 E8.62089
G1 X137.635 Y95.548 E8.64381
G1 X138.519 Y96.395 E8.68453
G1 X138.968 Y96.849 E8.70577
G1 X139.801 Y97.754 E8.74668
G1 X140.252 Y98.274 E8.76957
G1 X140.978 Y99.169 E8.8079
G1 X141.559 Y99.94 E8.84001
G1 X142.089 Y100.691 E8.87059
G1 X142.49 Y101.29 E8.89456
G1 X142.67 Y101.573 E8.90572
G1 X143.259 Y102.542 E8.94343
G1 X143.594 Y103.138 E8.96617
G1 X143.999 Y103.9 E8.99487
G1 X144.308 Y104.516 E9.01779
G1 X144.453 Y104.822 E9.02906
G1 X144.932 Y105.89 E9.06799
G1 X145.175 Y106.487 E9.08943
G1 X145.498 Y107.335 E9.11961
G1 X145.721 Y107.968 E9.14193
G1 X146.084 Y109.126 E9.18229
G1 X146.277 Y109.808 E9.20587
G1 X146.542 Y110.884 E9.24272
G1 X146.688 Y111.557 E9.26563
G1 X146.909 Y112.779 E9.30693
G1 X147.016 Y113.488 E9.33078
G1 X147.177 Y114.924 E9.37884
G1 X147.223 Y115.565 E9.40022
G1 X147.28 Y116.84 E9.44266
G1 X147.286 Y117.512 E9.46502
G1 X147.275 Y118.338 E9.49249
G1 X147.25 Y118.995 E9.51436
G1 X147.161 Y120.224 E9.55534
G1 X147.129 Y120.567 E9.5668
G1 X147.048 Y121.261 E9.59004
G1 X146.936 Y122.057 E9.61678
G1 X146.831 Y122.695 E9.63828
G1 X146.584 Y123.923 E9.67994
G1 X146.424 Y124.617 E9.70363
G1 X146.13 Y125.718 E9.74153
G1 X145.942 Y126.352 E9.76353
G1 X145.554 Y127.51 E9.80415
G1 X145.327 Y128.131 E9.82614
G1 X144.859 Y129.279 E9.86737
G1 X144.466 Y130.149 E9.89912
G1 X144.082 Y130.937 E9.92828
G1 X143.768 Y131.545 E9.95104
G1 X143.176 Y132.596 E9.99116
G1 X142.816 Y133.195 E10.0144
G1 X142.014 Y134.422 E10.06316
G1 X141.628 Y134.964 E10.08529
G1 X141.069 Y135.712 E10.11635
G1 X140.659 Y136.235 E10.13845
G1 X139.911 Y137.121 E10.17702
G1 X139.454 Y137.632 E10.19982
G1 X138.604 Y138.519 E10.24068
G1 X138.151 Y138.968 E10.26189
G1 X137.246 Y139.801 E10.3028
G1 X136.726 Y140.252 E10.3257
G1 X135.831 Y140.978 E10.36403
G1 X135.06 Y141.559 E10.39614
G1 X134.309 Y142.089 E10.42671
G1 X133.71 Y142.49 E10.45068
G1 X133.427 Y142.67 E10.46184
G1 X132.458 Y143.259 E10.49955
G1 X131.862 Y143.594 E10.52229
G1 X130.822 Y144.141 E10.56138
G1 X130.185 Y144.45 E10.58493
G1 X129.419 Y144.798 E10.61291
G1 X128.792 Y145.064 E10.63556
G1 X127.35 Y145.612 E10.68687
G1 X126.717 Y145.824 E10.70907
G1 X125.878 Y146.083 E10.73828
G1 X125.184 Y146.279 E10.76226
G1 X124.119 Y146.541 E10.79874
G1 X123.431 Y146.69 E10.82215
G1 X122.225 Y146.908 E10.86292
G1 X121.881 Y146.963 E10.8745
G1 X121.223 Y147.052 E10.89659
G1 X120.41 Y147.144 E10.9238
G1 X119.758 Y147.202 E10.94557
G1 X119.421 Y147.224 E10.9568
G1 X118.16 Y147.28 E10.99879
G1 X117.487 Y147.286 E11.02117
G1 X116.327 Y147.265 E11.05976
G1 X115.668 Y147.23 E11.08171
G1 X114.433 Y147.129 E11.12292
G1 X113.739 Y147.048 E11.14616
G1 X112.943 Y146.936 E11.1729
G1 X112.294 Y146.829 E11.19477
G1 X111.072 Y146.583 E11.23623
G1 X110.383 Y146.424 E11.25975
G1 X110.065 Y146.343 E11.27067
G1 X108.975 Y146.042 E11.30828
G1 X108.325 Y145.838 E11.33094
G1 X107.489 Y145.554 E11.3603
G1 X106.86 Y145.323 E11.38259
G1 X105.723 Y144.859 E11.42343
G1 X105.41 Y144.724 E11.43477
G1 X104.838 Y144.46 E11.45572
G1 X103.775 Y143.936 E11.49514
G1 X103.159 Y143.606 E11.51839
G1 X102.101 Y142.998 E11.55897
G1 X101.538 Y142.647 E11.58104
G1 X100.572 Y142.01 E11.61952
G1 X100.037 Y141.629 E11.64137
G1 X99.29 Y141.071 E11.67238
G1 X98.761 Y140.655 E11.69476
G1 X97.88 Y139.912 E11.7331
G1 X97.363 Y139.449 E11.75618
G1 X96.481 Y138.605 E11.79678
G1 X95.799 Y137.904 E11.82931
G1 X95.199 Y137.246 E11.85893
G1 X94.748 Y136.726 E11.88182
G1 X94.022 Y135.831 E11.92015
G1 X93.625 Y135.313 E11.94186
G1 X92.91 Y134.307 E11.98291
G1 X92.505 Y133.702 E12.00712
G1 X91.904 Y132.733 E12.04505
G1 X91.561 Y132.143 E12.06775
G1 X90.999 Y131.096 E12.10727
G1 X90.687 Y130.473 E12.13044
G1 X90.202 Y129.418 E12.16906
G1 X90.068 Y129.11 E12.18024
G1 X89.825 Y128.512 E12.2017
G1 X89.385 Y127.341 E12.24331
G1 X89.172 Y126.707 E12.26556
G1 X88.915 Y125.873 E12.29458
G1 X88.721 Y125.184 E12.31839
G1 X88.459 Y124.119 E12.35487
G1 X88.31 Y123.431 E12.37828
G1 X88.092 Y122.225 E12.41904
G1 X88.037 Y121.881 E12.43063
G1 X87.948 Y121.223 E12.45271
G1 X87.856 Y120.41 E12.47993
G1 X87.798 Y119.758 E12.5017
G1 X87.776 Y119.421 E12.51293
G1 X87.72 Y118.16 E12.55491
G1 X87.714 Y117.488 E12.57727
G1 X87.735 Y116.317 E12.61622
G0 F6000 X87.314 Y117.483
G1 F1200 X87.336 Y116.298 E12.65564
G1 X87.372 Y115.622 E12.67815
G1 X87.44 Y114.741 E12.70754
G1 X87.556 Y113.683 E12.74294
G1 X87.668 Y112.887 E12.76968
G1 X87.783 Y112.192 E12.79311
G1 X88.026 Y110.984 E12.83409
G1 X88.187 Y110.287 E12.85789
G1 X88.486 Y109.168 E12.89641
G1 X88.783 Y108.196 E12.93021
G1 X89.067 Y107.36 E12.95958
G1 X89.299 Y106.728 E12.98197
G1 X89.772 Y105.569 E13.02361
G1 X89.912 Y105.245 E13.03535
G1 X90.18 Y104.663 E13.05666
G1 X90.56 Y103.884 E13.08549
G1 X90.878 Y103.268 E13.10854
G1 X91.481 Y102.197 E13.14942
G1 X91.661 Y101.893 E13.16117
G1 X92.023 Y101.312 E13.18394
G1 X92.468 Y100.631 E13.211
G1 X92.86 Y100.061 E13.23401
G1 X93.622 Y99.034 E13.27654
G1 X94.034 Y98.509 E13.29874
G1 X94.785 Y97.62 E13.33744
G1 X95.252 Y97.097 E13.36076
G1 X95.485 Y96.848 E13.37211
G1 X96.345 Y95.965 E13.4131
G1 X96.836 Y95.495 E13.43571
G1 X97.745 Y94.673 E13.47647
G1 X98.258 Y94.241 E13.49878
G1 X98.918 Y93.71 E13.52695
G1 X99.45 Y93.303 E13.54923
G1 X100.46 Y92.585 E13.59045
G1 X101.07 Y92.176 E13.61487
G1 X101.364 Y91.989 E13.62646
G1 X102.344 Y91.394 E13.6646
G1 X102.95 Y91.053 E13.68772
G1 X103.712 Y90.648 E13.71642
G1 X104.35 Y90.328 E13.74016
G1 X105.425 Y89.834 E13.77951
G1 X106.345 Y89.451 E13.81266
G1 X107.193 Y89.128 E13.84284
G1 X107.848 Y88.897 E13.86594
G1 X109.324 Y88.441 E13.91732
G1 X110.026 Y88.254 E13.94148
G1 X110.787 Y88.07 E13.96752
G1 X111.488 Y87.918 E13.99138
G1 X112.705 Y87.698 E14.03251
G1 X113.063 Y87.641 E14.04457
G1 X113.732 Y87.55 E14.06703
G1 X114.545 Y87.458 E14.09424
G1 X115.21 Y87.399 E14.11645
G1 X115.559 Y87.376 E14.12808
G1 X116.834 Y87.32 E14.17053
G1 X117.518 Y87.314 E14.19328
G1 X118.692 Y87.335 E14.23233
G1 X119.363 Y87.371 E14.25468
G1 X120.258 Y87.44 E14.28454
G1 X121.317 Y87.556 E14.31997
G1 X122.113 Y87.668 E14.34671
G1 X122.773 Y87.777 E14.36895
G1 X123.125 Y87.843 E14.38087
G1 X124.323 Y88.094 E14.42158
G1 X124.71 Y88.186 E14.43481
G1 X126.142 Y88.576 E14.48417
G1 X126.804 Y88.783 E14.50724
