;FLAVOR:Marlin
;TIME:9694
;Filament used: 6.33164m
;Layer height: 0.2
;Cura Time Estimate:  9694sec = 2hr 41min 34sec 
M117 ET 2hr 42min
;MINX:41.516
;MINY:68.263
;MINZ:0.2
;MAXX:178.474
;MAXY:150.464
;MAXZ:14
;TARGET_MACHINE.NAME:Creality Ender-3 Pro
;POSTPROCESSED
;  [DisplayInfoOnLCD]
;  [CreateThumbnail]
;Generated with Cura_SteamEngine 5.7.0
;
;

M82 ;absolute extrusion mode
; Ender 3 Custom Start G-code
G92 E0 ; Reset Extruder
G28 ; Home all axes
G1 Z5.0 F3000 ; Move Z Axis up a bit during heating to not damage bed
M104 S175 ; Start heating up the nozzle most of the way
M190 S60 ; Start heating the bed, wait until target temperature reached
M109 S200 ; Finish heating the nozzle
G1 Z2.0 F3000 ; Move Z Axis up little to prevent scratching of Heat Bed
G1 X0.1 Y20 Z0.3 F5000.0 ; Move to start position
G1 X0.1 Y200.0 Z0.3 F1500.0 E15 ; Draw the first line
G1 X0.4 Y200.0 Z0.3 F5000.0 ; Move to side a little
G1 X0.4 Y20 Z0.3 F1500.0 E30 ; Draw the second line
G92 E0 ; Reset Extruder
G1 Z2.0 F3000 ; Move Z Axis up little to prevent scratching of Heat Bed
G1 X5 Y20 Z0.3 F5000.0 ; Move over to prevent blob squish
G92 E0
G92 E0
G1 F1500 E-6.5
;LAYER_COUNT:70
;LAYER:0
M117 1/70 | ET 2h41m
M107
G0 F6000 X48.668 Y71.411 Z0.2
;TYPE:SKIRT
G1 F1500 E0
G1 F1200 X49.295 Y70.994 E0.02505
G1 X49.767 Y70.696 E0.04361
G1 X51.024 Y70.013 E0.09119
G1 X51.741 Y69.688 E0.11737
G1 X52.285 Y69.457 E0.13703
G1 X53.131 Y69.141 E0.16707
G1 X53.646 Y68.986 E0.18496
G1 X54.423 Y68.781 E0.21168
G1 X54.999 Y68.646 E0.23136
G1 X56.335 Y68.418 E0.27644
G1 X56.785 Y68.371 E0.29149
G1 X57.801 Y68.295 E0.32537
G1 X58.393 Y68.272 E0.34508
G1 X59.162 Y68.263 E0.37066
G1 X160.796 Y68.263 E3.75102
G1 X161.667 Y68.274 E3.77999
G1 X162.187 Y68.295 E3.7973
G1 X162.972 Y68.351 E3.82348
G1 X163.551 Y68.408 E3.84283
G1 X164.826 Y68.609 E3.88576
G1 X165.598 Y68.788 E3.91211
G1 X166.272 Y68.965 E3.93529
G1 X167.164 Y69.243 E3.96637
G1 X167.889 Y69.532 E3.99233
G1 X168.749 Y69.912 E4.0236
G1 X169.947 Y70.534 E4.06849
G1 X170.594 Y70.932 E4.09376
G1 X171.141 Y71.289 E4.11548
G1 X172.158 Y72.045 E4.15763
G1 X172.781 Y72.581 E4.18497
G1 X173.281 Y73.039 E4.20752
G1 X174.192 Y73.984 E4.25118
G1 X174.647 Y74.529 E4.27479
G1 X175.083 Y75.082 E4.29821
G1 X175.802 Y76.112 E4.33999
G1 X176.214 Y76.803 E4.36675
G1 X176.546 Y77.403 E4.38956
G1 X177.079 Y78.515 E4.43057
G1 X177.384 Y79.287 E4.45818
G1 X177.607 Y79.906 E4.48006
G1 X177.974 Y81.166 E4.52371
G1 X178.136 Y81.915 E4.5492
G1 X178.259 Y82.575 E4.57153
G1 X178.413 Y83.802 E4.61266
G1 X178.461 Y84.679 E4.64187
G1 X178.474 Y85.337 E4.66376
G1 X178.421 Y86.631 E4.70684
G1 X178.33 Y87.444 E4.73405
G1 X178.244 Y88.049 E4.75437
G1 X177.999 Y89.262 E4.79553
G1 X177.782 Y90.048 E4.82265
G1 X177.585 Y90.684 E4.84479
G1 X177.106 Y91.95 E4.88982
G1 X176.788 Y92.632 E4.91484
G1 X176.502 Y93.205 E4.93614
G1 X175.832 Y94.362 E4.98061
G1 X175.412 Y94.984 E5.00557
G1 X175.03 Y95.515 E5.02733
G1 X174.223 Y96.506 E5.06984
G1 X173.693 Y97.071 E5.0956
G1 X173.194 Y97.569 E5.11905
G1 X172.31 Y98.36 E5.15851
G1 X171.813 Y98.757 E5.17966
G1 X169.822 Y100.395 E5.26541
G1 X167.929 Y102.045 E5.34894
G1 X166.04 Y103.786 E5.43438
G1 X164.259 Y105.523 E5.51712
G1 X162.522 Y107.319 E5.60023
G1 X160.809 Y109.191 E5.68462
G1 X159.142 Y111.122 E5.76947
G1 X157.563 Y113.058 E5.85256
G1 X156.045 Y115.032 E5.93539
G1 X154.564 Y117.074 E6.01928
G1 X153.148 Y119.145 E6.10273
G1 X151.79 Y121.26 E6.18633
G1 X150.469 Y123.45 E6.27139
G1 X149.25 Y125.604 E6.35371
G1 X148.078 Y127.821 E6.43712
G1 X146.378 Y131.305 E6.56605
G1 X145.903 Y132.247 E6.60114
G1 X145.559 Y132.875 E6.62496
G1 X144.829 Y134.098 E6.67233
G1 X144.359 Y134.85 E6.70183
G1 X144.017 Y135.36 E6.72225
G1 X143.393 Y136.241 E6.75816
G1 X142.897 Y136.92 E6.78612
G1 X142.478 Y137.455 E6.80873
G1 X141.523 Y138.594 E6.85816
G1 X140.84 Y139.366 E6.89245
G1 X140.458 Y139.769 E6.91092
G1 X139.556 Y140.676 E6.95346
G1 X139.032 Y141.184 E6.97773
G1 X138.589 Y141.591 E6.99774
G1 X137.953 Y142.141 E7.02571
G1 X137.022 Y142.919 E7.06606
G1 X136.494 Y143.332 E7.08836
G1 X135.493 Y144.067 E7.12966
G1 X134.617 Y144.68 E7.16522
G1 X134.028 Y145.061 E7.18856
G1 X132.683 Y145.87 E7.24076
G1 X131.944 Y146.292 E7.26906
G1 X131.405 Y146.575 E7.28931
G1 X129.593 Y147.453 E7.35628
G1 X128.974 Y147.723 E7.37874
G1 X127.627 Y148.258 E7.42695
G1 X126.975 Y148.502 E7.4501
G1 X126.355 Y148.712 E7.47188
G1 X125.017 Y149.119 E7.51839
G1 X124.285 Y149.327 E7.5437
G1 X123.719 Y149.469 E7.56311
G1 X122.699 Y149.697 E7.59787
G1 X121.515 Y149.934 E7.63803
G1 X120.879 Y150.041 E7.65948
G1 X119.943 Y150.169 E7.69091
G1 X118.75 Y150.308 E7.73085
G1 X118.177 Y150.359 E7.74999
G1 X117.147 Y150.42 E7.7843
G1 X115.762 Y150.464 E7.83039
G1 X115.06 Y150.463 E7.85374
G1 X113.923 Y150.423 E7.89158
G1 X112.886 Y150.369 E7.92612
G1 X112.302 Y150.319 E7.94561
G1 X111.46 Y150.224 E7.9738
G1 X110.183 Y150.056 E8.01664
G1 X109.58 Y149.959 E8.03695
G1 X108.871 Y149.82 E8.06098
G1 X107.411 Y149.506 E8.11065
G1 X106.69 Y149.324 E8.13538
G1 X105.448 Y148.965 E8.17838
G1 X104.532 Y148.678 E8.21031
G1 X103.978 Y148.488 E8.22979
G1 X103.112 Y148.16 E8.26059
G1 X101.992 Y147.713 E8.3007
G1 X101.404 Y147.456 E8.32204
G1 X100.455 Y147.006 E8.35697
G1 X99.405 Y146.485 E8.39596
G1 X98.967 Y146.253 E8.41245
G1 X98.525 Y146.004 E8.42932
G1 X97.441 Y145.362 E8.47122
G1 X96.869 Y145.009 E8.49358
G1 X96.386 Y144.693 E8.51277
G1 X95.581 Y144.131 E8.54543
G1 X94.578 Y143.399 E8.58673
G1 X94.026 Y142.969 E8.61
G1 X92.878 Y142.006 E8.65984
G1 X92.305 Y141.506 E8.68513
G1 X91.825 Y141.059 E8.70695
G1 X90.783 Y140.027 E8.75573
G1 X90.231 Y139.457 E8.78212
G1 X89.805 Y138.989 E8.80317
G1 X89.06 Y138.12 E8.84124
G1 X88.424 Y137.35 E8.87445
G1 X88.017 Y136.823 E8.8966
G1 X87.075 Y135.513 E8.95027
G1 X86.742 Y135.026 E8.96989
G1 X86.45 Y134.577 E8.9877
G1 X84.561 Y131.502 E9.10773
G1 X83.172 Y129.382 E9.19203
G1 X81.748 Y127.339 E9.27486
G1 X80.232 Y125.286 E9.35974
G1 X78.694 Y123.325 E9.44263
G1 X77.084 Y121.385 E9.52648
G1 X75.412 Y119.487 E9.61061
G1 X73.716 Y117.665 E9.6934
G1 X71.938 Y115.859 E9.77769
G1 X70.122 Y114.118 E9.86137
G1 X68.248 Y112.42 E9.94548
G1 X66.345 Y110.793 E10.02875
G1 X64.391 Y109.212 E10.11235
G1 X62.382 Y107.681 E10.19636
G1 X60.322 Y106.201 E10.28073
G1 X58.27 Y104.813 E10.36312
G1 X56.117 Y103.443 E10.448
G1 X54.019 Y102.19 E10.52928
G1 X50.491 Y100.25 E10.66319
G1 X49.813 Y99.861 E10.68919
G1 X49.148 Y99.438 E10.7154
G1 X48.619 Y99.079 E10.73667
G1 X47.894 Y98.54 E10.76671
G1 X47.471 Y98.18 E10.78519
G1 X46.927 Y97.689 E10.80956
G1 X46.522 Y97.306 E10.8281
G1 X45.541 Y96.247 E10.87612
G1 X45.044 Y95.626 E10.90257
G1 X44.687 Y95.152 E10.92231
G1 X43.917 Y93.978 E10.969
G1 X43.522 Y93.268 E10.99603
G1 X43.233 Y92.711 E11.0169
G1 X42.685 Y91.471 E11.06199
G1 X42.395 Y90.658 E11.0907
G1 X42.22 Y90.117 E11.10961
G1 X41.881 Y88.794 E11.15503
G1 X41.734 Y87.977 E11.18264
G1 X41.649 Y87.415 E11.20155
G1 X41.529 Y86.031 E11.24775
G1 X41.516 Y85.132 E11.27766
G1 X41.527 Y84.525 E11.29785
G1 X41.637 Y83.189 E11.34244
G1 X41.761 Y82.379 E11.36969
G1 X41.854 Y81.862 E11.38716
G1 X42.207 Y80.448 E11.43563
G1 X42.458 Y79.684 E11.46238
G1 X42.658 Y79.129 E11.482
G1 X43.029 Y78.226 E11.51447
G1 X43.247 Y77.783 E11.53089
G1 X43.64 Y77.039 E11.55888
G1 X43.89 Y76.594 E11.57586
G1 X44.661 Y75.41 E11.62285
G1 X45.141 Y74.778 E11.64925
G1 X45.521 Y74.304 E11.66945
G1 X46.158 Y73.581 E11.7015
G1 X46.831 Y72.924 E11.73278
G1 X47.514 Y72.308 E11.76337
G1 X48.234 Y71.72 E11.79429
G1 X48.668 Y71.411 E11.81201
G0 F6000 X48.89 Y71.744
G1 F1200 X49.509 Y71.332 E11.83674
G1 X49.981 Y71.034 E11.85531
G1 X51.189 Y70.377 E11.90105
G1 X51.897 Y70.056 E11.9269
G1 X52.425 Y69.832 E11.94598
G1 X53.271 Y69.516 E11.97601
G1 X53.748 Y69.373 E11.99258
G1 X54.515 Y69.17 E12.01897
G1 X55.066 Y69.04 E12.0378
G1 X56.377 Y68.816 E12.08203
G1 X56.815 Y68.77 E12.09668
G1 X57.817 Y68.695 E12.1301
G1 X58.398 Y68.672 E12.14944
G1 X59.167 Y68.663 E12.17502
G1 X160.791 Y68.663 E15.55505
G1 X161.651 Y68.674 E15.58365
G1 X162.159 Y68.694 E15.60056
G1 X162.933 Y68.749 E15.62637
G1 X163.489 Y68.803 E15.64495
G1 X164.736 Y68.999 E15.68693
G1 X165.497 Y69.175 E15.71291
G1 X166.153 Y69.347 E15.73547
G1 X167.045 Y69.625 E15.76654
G1 X167.727 Y69.898 E15.79098
G1 X168.587 Y70.278 E15.82225
G1 X169.763 Y70.889 E15.86633
G1 X170.376 Y71.267 E15.89028
G1 X170.902 Y71.61 E15.91117
G1 X171.919 Y72.366 E15.95331
G1 X172.511 Y72.876 E15.9793
G1 X172.993 Y73.317 E16.00103
G1 X173.885 Y74.241 E16.04375
G1 X174.333 Y74.777 E16.06698
G1 X174.755 Y75.311 E16.08962
G1 X175.474 Y76.341 E16.1314
G1 X175.864 Y76.997 E16.15678
G1 X176.185 Y77.576 E16.1788
G1 X176.718 Y78.688 E16.21982
G1 X177.008 Y79.423 E16.2461
G1 X177.223 Y80.018 E16.26714
G1 X177.59 Y81.278 E16.31079
G1 X177.743 Y81.988 E16.33494
G1 X177.862 Y82.625 E16.3565
G1 X178.016 Y83.852 E16.39763
G1 X178.061 Y84.687 E16.42544
G1 X178.074 Y85.321 E16.44653
G1 X178.023 Y86.587 E16.48867
G1 X177.934 Y87.388 E16.51548
G1 X177.852 Y87.97 E16.53503
G1 X177.607 Y89.183 E16.57619
G1 X177.4 Y89.93 E16.60197
G1 X177.211 Y90.543 E16.6233
G1 X176.743 Y91.781 E16.66732
G1 X176.43 Y92.453 E16.69198
G1 X176.144 Y93.026 E16.71328
G1 X175.501 Y94.138 E16.756
G1 X175.087 Y94.751 E16.78061
G1 X174.72 Y95.262 E16.80153
G1 X173.913 Y96.253 E16.84404
G1 X173.41 Y96.788 E16.86846
G1 X172.927 Y97.271 E16.89118
G1 X172.06 Y98.047 E16.92988
G1 X171.563 Y98.444 E16.95104
G1 X169.559 Y100.093 E17.03735
G1 X167.666 Y101.743 E17.12088
G1 X165.769 Y103.492 E17.2067
G1 X163.98 Y105.237 E17.28982
G1 X162.227 Y107.049 E17.37367
G1 X160.514 Y108.921 E17.45807
G1 X158.839 Y110.861 E17.54331
G1 X157.253 Y112.805 E17.62676
G1 X155.728 Y114.788 E17.70996
G1 X154.24 Y116.839 E17.79424
G1 X152.811 Y118.929 E17.87845
G1 X151.447 Y121.053 E17.96241
G1 X150.126 Y123.243 E18.04747
G1 X148.896 Y125.417 E18.13055
G1 X147.724 Y127.634 E18.21396
G1 X146.021 Y131.125 E18.34315
G1 X145.552 Y132.055 E18.37779
G1 X145.215 Y132.67 E18.40112
G1 X144.49 Y133.886 E18.4482
G1 X144.026 Y134.628 E18.47731
G1 X143.691 Y135.129 E18.49736
G1 X143.07 Y136.005 E18.53307
G1 X142.582 Y136.673 E18.56059
G1 X142.171 Y137.198 E18.58276
G1 X141.224 Y138.329 E18.63182
G1 X140.549 Y139.091 E18.66568
G1 X140.175 Y139.487 E18.6838
G1 X139.277 Y140.389 E18.72613
G1 X138.761 Y140.89 E18.75005
G1 X138.328 Y141.288 E18.76961
G1 X137.696 Y141.834 E18.79739
G1 X136.775 Y142.604 E18.83732
G1 X136.257 Y143.01 E18.85921
G1 X135.264 Y143.739 E18.90018
G1 X134.4 Y144.344 E18.93526
G1 X133.822 Y144.718 E18.95816
G1 X132.484 Y145.523 E19.0101
G1 X131.758 Y145.938 E19.03791
G1 X131.231 Y146.215 E19.05771
G1 X129.433 Y147.086 E19.12416
G1 X128.826 Y147.351 E19.14619
G1 X127.487 Y147.883 E19.19411
G1 X126.846 Y148.123 E19.21688
G1 X126.239 Y148.329 E19.2382
G1 X124.908 Y148.734 E19.28447
G1 X124.187 Y148.939 E19.3094
G1 X123.632 Y149.079 E19.32844
G1 X122.62 Y149.305 E19.36293
G1 X121.449 Y149.54 E19.40265
G1 X120.825 Y149.645 E19.4237
G1 X119.897 Y149.772 E19.45485
G1 X118.715 Y149.91 E19.49443
G1 X118.153 Y149.96 E19.5132
G1 X117.134 Y150.02 E19.54715
G1 X115.763 Y150.064 E19.59277
G1 X115.074 Y150.063 E19.61569
G1 X113.944 Y150.024 E19.65329
G1 X112.92 Y149.97 E19.6874
G1 X112.336 Y149.92 E19.70689
G1 X111.512 Y149.827 E19.73447
G1 X110.247 Y149.661 E19.77691
G1 X109.657 Y149.566 E19.79679
G1 X108.955 Y149.429 E19.82058
G1 X107.509 Y149.118 E19.86977
G1 X106.801 Y148.94 E19.89405
G1 X105.567 Y148.583 E19.93678
G1 X104.662 Y148.3 E19.96831
G1 X104.12 Y148.114 E19.98737
G1 X103.26 Y147.788 E20.01796
G1 X102.152 Y147.346 E20.05764
G1 X101.575 Y147.094 E20.07858
G1 X100.633 Y146.648 E20.11325
G1 X99.592 Y146.131 E20.1519
G1 X99.163 Y145.904 E20.16805
G1 X98.729 Y145.66 E20.18461
G1 X97.651 Y145.021 E20.22629
G1 X97.088 Y144.674 E20.24828
G1 X96.615 Y144.365 E20.26708
G1 X95.817 Y143.808 E20.29944
G1 X94.824 Y143.084 E20.34032
G1 X94.283 Y142.662 E20.36314
G1 X93.141 Y141.705 E20.41269
G1 X92.577 Y141.213 E20.43759
G1 X92.106 Y140.775 E20.45898
G1 X91.07 Y139.749 E20.50748
G1 X90.527 Y139.188 E20.53344
G1 X90.109 Y138.729 E20.55409
G1 X89.368 Y137.865 E20.59195
G1 X88.741 Y137.106 E20.62469
G1 X88.342 Y136.589 E20.64641
G1 X87.405 Y135.287 E20.69977
G1 X87.077 Y134.808 E20.71908
G1 X86.791 Y134.368 E20.73653
G1 X84.896 Y131.283 E20.85695
G1 X83.507 Y129.163 E20.94125
G1 X82.07 Y127.101 E21.02484
G1 X80.554 Y125.048 E21.10972
G1 X79.009 Y123.078 E21.19299
G1 X77.392 Y121.13 E21.2772
G1 X75.705 Y119.214 E21.3621
G1 X74.009 Y117.392 E21.4449
G1 X72.223 Y115.578 E21.52956
G1 X70.399 Y113.829 E21.61361
G1 X68.517 Y112.124 E21.69808
G1 X66.597 Y110.482 E21.78211
G1 X64.643 Y108.901 E21.86571
G1 X62.615 Y107.356 E21.9505
G1 X60.555 Y105.876 E22.03487
G1 X58.494 Y104.482 E22.11762
G1 X56.332 Y103.106 E22.20286
G1 X54.212 Y101.84 E22.28499
G1 X50.69 Y99.903 E22.41868
G1 X50.028 Y99.523 E22.44406
G1 X49.363 Y99.1 E22.47028
G1 X48.858 Y98.758 E22.49056
G1 X48.133 Y98.219 E22.52061
G1 X47.739 Y97.883 E22.53783
G1 X47.202 Y97.398 E22.5619
G1 X46.797 Y97.015 E22.58044
G1 X45.853 Y95.997 E22.62662
G1 X45.364 Y95.385 E22.65267
G1 X45.007 Y94.911 E22.67241
G1 X44.252 Y93.759 E22.71822
G1 X43.877 Y93.084 E22.7439
G1 X43.599 Y92.549 E22.76395
G1 X43.062 Y91.336 E22.80808
G1 X42.776 Y90.535 E22.83636
G1 X42.601 Y89.994 E22.85528
G1 X42.275 Y88.723 E22.89892
G1 X42.13 Y87.917 E22.92616
G1 X42.045 Y87.355 E22.94506
G1 X41.929 Y86.025 E22.98947
G1 X41.916 Y85.139 E23.01894
G1 X41.926 Y84.558 E23.03826
G1 X42.036 Y83.222 E23.08285
G1 X42.155 Y82.45 E23.10883
G1 X42.248 Y81.933 E23.1263
G1 X42.587 Y80.573 E23.17292
G1 X42.835 Y79.819 E23.19932
G1 X43.028 Y79.281 E23.21833
G1 X43.388 Y78.403 E23.24989
G1 X43.601 Y77.97 E23.26594
G1 X43.989 Y77.235 E23.29358
G1 X44.239 Y76.79 E23.31056
G1 X44.98 Y75.652 E23.35573
G1 X45.453 Y75.028 E23.38177
G1 X45.821 Y74.568 E23.40136
G1 X46.437 Y73.867 E23.4324
G1 X47.099 Y73.221 E23.46317
G1 X47.767 Y72.618 E23.4931
G1 X48.487 Y72.03 E23.52402
G1 X48.89 Y71.744 E23.54045
G0 F6000 X49.112 Y72.077
G1 F1200 X49.723 Y71.67 E23.56487
G1 X50.195 Y71.372 E23.58344
G1 X51.354 Y70.741 E23.62733
G1 X52.053 Y70.424 E23.65286
G1 X52.565 Y70.207 E23.67135
G1 X53.411 Y69.891 E23.70139
G1 X53.851 Y69.76 E23.71666
G1 X54.607 Y69.559 E23.74268
G1 X55.133 Y69.434 E23.76066
G1 X56.419 Y69.214 E23.80405
G1 X56.845 Y69.169 E23.8183
G1 X57.833 Y69.095 E23.85125
G1 X58.403 Y69.072 E23.87023
G1 X59.172 Y69.063 E23.8958
G1 X160.786 Y69.063 E27.2755
G1 X161.636 Y69.074 E27.30377
G1 X162.131 Y69.093 E27.32025
G1 X162.895 Y69.147 E27.34572
G1 X163.427 Y69.198 E27.3635
G1 X164.646 Y69.389 E27.40454
G1 X165.396 Y69.562 E27.43014
G1 X166.034 Y69.729 E27.45207
G1 X166.897 Y69.997 E27.48213
G1 X167.566 Y70.264 E27.50609
G1 X168.403 Y70.633 E27.53651
G1 X169.553 Y71.23 E27.57961
G1 X170.158 Y71.602 E27.60323
G1 X170.663 Y71.931 E27.62327
G1 X171.68 Y72.687 E27.66542
G1 X172.241 Y73.171 E27.69007
G1 X172.705 Y73.595 E27.71097
G1 X173.578 Y74.498 E27.75275
G1 X174.019 Y75.025 E27.7756
G1 X174.427 Y75.54 E27.79745
G1 X175.13 Y76.546 E27.83827
G1 X175.514 Y77.191 E27.86324
G1 X175.824 Y77.749 E27.88447
G1 X176.357 Y78.861 E27.92549
G1 X176.632 Y79.559 E27.95044
G1 X176.839 Y80.13 E27.97064
G1 X177.206 Y81.39 E28.01429
G1 X177.35 Y82.062 E28.03715
G1 X177.465 Y82.675 E28.05789
G1 X177.619 Y83.902 E28.09902
G1 X177.661 Y84.696 E28.12547
G1 X177.674 Y85.305 E28.14573
G1 X177.625 Y86.543 E28.18694
G1 X177.538 Y87.333 E28.21337
G1 X177.46 Y87.891 E28.23211
G1 X177.215 Y89.104 E28.27327
G1 X177.018 Y89.813 E28.29774
G1 X176.837 Y90.402 E28.31824
G1 X176.38 Y91.612 E28.36126
G1 X176.072 Y92.275 E28.38557
G1 X175.798 Y92.826 E28.40604
G1 X175.17 Y93.914 E28.44782
G1 X174.762 Y94.518 E28.47206
G1 X174.395 Y95.029 E28.49299
G1 X173.622 Y95.979 E28.53373
G1 X173.127 Y96.505 E28.55775
G1 X172.66 Y96.973 E28.57974
G1 X171.81 Y97.734 E28.61768
G1 X171.313 Y98.131 E28.63884
G1 X169.296 Y99.791 E28.72573
G1 X167.403 Y101.441 E28.80925
G1 X165.498 Y103.198 E28.89544
G1 X163.701 Y104.951 E28.97894
G1 X161.932 Y106.779 E29.06355
G1 X160.219 Y108.651 E29.14794
