;FLAVOR:Marlin
;TIME:780
;Filament used: 0.319597m
;Layer height: 0.28
;Cura Time Estimate:  780sec = 0hr 13min 0sec 
M117 ET 0hr 13min
;MINX:84.987
;MINY:94.127
;MINZ:0.28
;MAXX:135.998
;MAXY:125.308
;MAXZ:16.24
;TARGET_MACHINE.NAME:Creality Ender-3 Pro
;POSTPROCESSED
;  [DisplayInfoOnLCD]
;  [CreateThumbnail]
;Generated with Cura_SteamEngine 5.7.0
;
;

M82 ;absolute extrusion mode
; Ender 3 Custom Start G-code
G92 E0 ; Reset Extruder
G28 ; Home all axes
G1 Z5.0 F3000 ; Move Z Axis up a bit during heating to not damage bed
M104 S175 ; Start heating up the nozzle most of the way
M190 S60 ; Start heating the bed, wait until target temperature reached
M109 S200 ; Finish heating the nozzle
G1 Z2.0 F3000 ; Move Z Axis up little to prevent scratching of Heat Bed
G1 X0.1 Y20 Z0.3 F5000.0 ; Move to start position
G1 X0.1 Y200.0 Z0.3 F1500.0 E15 ; Draw the first line
G1 X0.4 Y200.0 Z0.3 F5000.0 ; Move to side a little
G1 X0.4 Y20 Z0.3 F1500.0 E30 ; Draw the second line
G92 E0 ; Reset Extruder
G1 Z2.0 F3000 ; Move Z Axis up little to prevent scratching of Heat Bed
G1 X5 Y20 Z0.3 F5000.0 ; Move over to prevent blob squish
G92 E0
G92 E0
G1 F1500 E-6.5
;LAYER_COUNT:58
;LAYER:0
M117 1/58 | ET 13m
M107
G0 F6000 X89.323 Y98.839 Z0.28
;TYPE:SKIRT
G1 F1500 E0
G1 F1200 X90.41 Y97.847 E0.06852
G1 X90.94 Y97.385 E0.10126
G1 X91.702 Y96.78 E0.14657
G1 X92.485 Y96.264 E0.19023
G1 X93.311 Y95.816 E0.23399
G1 X94.658 Y95.263 E0.30179
G1 X95.962 Y94.831 E0.36576
G1 X96.701 Y94.603 E0.40177
G1 X97.642 Y94.361 E0.44701
G1 X98.605 Y94.2 E0.49247
G1 X99.588 Y94.127 E0.53837
G1 X100.868 Y94.163 E0.598
G1 X104.518 Y94.496 E0.76866
G1 X106.995 Y94.648 E0.88422
G1 X109.534 Y94.735 E1.00252
G1 X112.06 Y94.748 E1.12014
G1 X114.548 Y94.692 E1.23602
G1 X117.056 Y94.565 E1.35295
G1 X117.77 Y94.505 E1.38632
G1 X118.039 Y94.495 E1.39885
G1 X119.271 Y94.405 E1.45637
G1 X120.174 Y94.379 E1.49843
G1 X121.092 Y94.429 E1.54124
G1 X122.488 Y94.566 E1.60656
G1 X123.27 Y94.661 E1.64324
G1 X124.161 Y94.81 E1.68531
G1 X125.173 Y95.073 E1.73399
G1 X126.023 Y95.377 E1.77603
G1 X127.321 Y96.002 E1.84311
G1 X128.532 Y96.692 E1.90801
G1 X129.186 Y97.082 E1.94347
G1 X129.969 Y97.6 E1.98718
G1 X130.759 Y98.229 E2.03421
G1 X131.442 Y98.882 E2.07821
G1 X132.336 Y99.937 E2.1426
G1 X133.041 Y100.887 E2.19768
G1 X133.619 Y101.702 E2.24421
G1 X134.142 Y102.522 E2.2895
G1 X134.591 Y103.388 E2.33492
G1 X134.951 Y104.261 E2.37889
G1 X135.322 Y105.503 E2.43925
G1 X135.516 Y106.35 E2.47971
G1 X135.787 Y107.691 E2.54341
G1 X135.935 Y108.653 E2.58873
G1 X135.998 Y109.624 E2.63404
G1 X135.975 Y110.598 E2.67941
G1 X135.876 Y111.496 E2.72148
G1 X135.784 Y112.018 E2.74616
G1 X135.491 Y113.456 E2.81449
G1 X135.32 Y114.187 E2.84945
G1 X135.055 Y115.123 E2.89475
G1 X134.709 Y116.034 E2.94012
G1 X134.277 Y116.922 E2.98611
G1 X133.57 Y118.057 E3.04837
G1 X132.912 Y118.98 E3.10115
G1 X132.297 Y119.803 E3.14899
G1 X131.676 Y120.553 E3.19434
G1 X130.994 Y121.245 E3.23958
G1 X130.307 Y121.832 E3.28165
G1 X129.211 Y122.59 E3.3437
G1 X128.514 Y123.007 E3.38152
G1 X127.299 Y123.696 E3.44656
G1 X126.43 Y124.135 E3.4919
G1 X125.526 Y124.497 E3.53724
G1 X124.621 Y124.77 E3.58126
G1 X123.283 Y125.024 E3.64467
G1 X122.375 Y125.134 E3.68726
G1 X121.079 Y125.259 E3.74789
G1 X120.095 Y125.308 E3.79377
G1 X118.864 Y125.246 E3.85116
G1 X118.328 Y125.186 E3.87627
G1 X115.718 Y124.943 E3.99833
G1 X113.238 Y124.782 E4.11405
G1 X110.707 Y124.689 E4.23199
G1 X108.18 Y124.668 E4.34966
G1 X105.673 Y124.718 E4.46642
G1 X103.155 Y124.84 E4.5838
G1 X100.699 Y125.022 E4.69848
G1 X99.727 Y125.047 E4.74375
G1 X98.755 Y124.988 E4.7891
G1 X97.822 Y124.848 E4.83303
G1 X96.633 Y124.549 E4.89012
G1 X95.481 Y124.186 E4.94636
G1 X94.579 Y123.882 E4.99068
G1 X93.704 Y123.54 E5.03443
G1 X92.802 Y123.091 E5.08134
G1 X91.96 Y122.572 E5.1274
G1 X90.92 Y121.772 E5.1885
G1 X90.271 Y121.202 E5.22872
G1 X89.302 Y120.315 E5.28989
G1 X88.663 Y119.676 E5.33197
G1 X87.993 Y118.874 E5.38063
G1 X87.44 Y118.074 E5.42591
G1 X86.978 Y117.266 E5.46925
G1 X86.742 Y116.778 E5.4945
G1 X86.175 Y115.527 E5.55845
G1 X85.869 Y114.809 E5.59479
G1 X85.529 Y113.897 E5.64012
G1 X85.279 Y112.993 E5.68379
G1 X85.096 Y111.984 E5.73154
G1 X84.996 Y110.608 E5.79578
G1 X84.987 Y109.156 E5.86339
G1 X85 Y108.435 E5.89697
G1 X85.062 Y107.464 E5.94228
G1 X85.209 Y106.501 E5.98764
G1 X85.445 Y105.543 E6.03358
G1 X85.882 Y104.323 E6.09392
G1 X86.132 Y103.742 E6.12337
G1 X86.759 Y102.36 E6.19404
G1 X87.203 Y101.493 E6.2394
G1 X87.703 Y100.699 E6.28309
G1 X88.314 Y99.896 E6.33007
G1 X88.959 Y99.187 E6.3747
G1 X89.323 Y98.839 E6.39815
G0 F6000 X89.593 Y99.134
G1 F1200 X90.673 Y98.148 E6.46625
G1 X91.189 Y97.698 E6.49813
G1 X91.923 Y97.114 E6.54181
G1 X92.676 Y96.616 E6.58384
G1 X93.502 Y96.168 E6.6276
G1 X94.784 Y95.643 E6.6921
G1 X96.08 Y95.213 E6.75569
G1 X96.801 Y94.99 E6.79083
G1 X97.708 Y94.755 E6.83446
G1 X98.635 Y94.599 E6.87823
G1 X99.577 Y94.527 E6.92222
G1 X100.857 Y94.563 E6.98185
G1 X104.493 Y94.895 E7.15186
G1 X106.981 Y95.048 E7.26793
G1 X109.52 Y95.135 E7.38622
G1 X112.067 Y95.148 E7.50482
G1 X114.557 Y95.092 E7.6208
G1 X117.089 Y94.963 E7.73885
G1 X117.785 Y94.905 E7.77137
G1 X118.054 Y94.895 E7.78391
G1 X119.283 Y94.805 E7.84129
G1 X120.186 Y94.779 E7.88335
G1 X121.053 Y94.827 E7.92379
G1 X122.44 Y94.963 E7.98868
G1 X123.204 Y95.056 E8.02452
G1 X124.095 Y95.205 E8.06658
G1 X125.038 Y95.45 E8.11195
G1 X125.888 Y95.754 E8.15399
G1 X127.123 Y96.35 E8.21784
G1 X128.327 Y97.035 E8.28234
G1 X128.965 Y97.416 E8.31694
G1 X129.748 Y97.934 E8.36066
G1 X130.483 Y98.519 E8.4044
G1 X131.137 Y99.141 E8.44643
G1 X132.031 Y100.196 E8.51082
G1 X132.715 Y101.118 E8.56427
G1 X133.282 Y101.917 E8.6099
G1 X133.787 Y102.707 E8.65355
G1 X134.221 Y103.54 E8.69729
G1 X134.581 Y104.413 E8.74126
G1 X134.932 Y105.592 E8.79854
G1 X135.124 Y106.429 E8.83853
G1 X135.392 Y107.752 E8.90139
G1 X135.536 Y108.679 E8.94507
G1 X135.598 Y109.615 E8.98875
G1 X135.577 Y110.554 E9.03248
G1 X135.478 Y111.452 E9.07455
G1 X135.392 Y111.938 E9.09753
G1 X135.101 Y113.365 E9.16535
G1 X134.935 Y114.079 E9.19948
G1 X134.681 Y114.982 E9.24316
G1 X134.349 Y115.86 E9.28687
G1 X133.937 Y116.711 E9.33089
G1 X133.244 Y117.825 E9.39198
G1 X132.591 Y118.741 E9.44437
G1 X131.988 Y119.549 E9.49131
G1 X131.391 Y120.273 E9.53501
G1 X130.734 Y120.941 E9.57864
G1 X130.047 Y121.528 E9.62071
G1 X129.005 Y122.247 E9.67966
G1 X128.317 Y122.659 E9.717
G1 X127.118 Y123.339 E9.78119
G1 X126.281 Y123.764 E9.8249
G1 X125.41 Y124.114 E9.86861
G1 X124.546 Y124.377 E9.91066
G1 X123.208 Y124.631 E9.97408
G1 X122.336 Y124.736 E10.01497
G1 X121.058 Y124.86 E10.07476
G1 X120.115 Y124.909 E10.11873
G1 X118.908 Y124.848 E10.17501
G1 X118.372 Y124.789 E10.20012
G1 X115.744 Y124.544 E10.32302
G1 X113.253 Y124.382 E10.43925
G1 X110.722 Y124.289 E10.55719
G1 X108.175 Y124.268 E10.67579
G1 X105.654 Y124.318 E10.7932
G1 X103.136 Y124.44 E10.91059
G1 X100.688 Y124.622 E11.02489
G1 X99.751 Y124.648 E11.06854
G1 X98.814 Y124.592 E11.11225
G1 X97.881 Y124.452 E11.15618
G1 X96.731 Y124.161 E11.21141
G1 X95.609 Y123.807 E11.2662
G1 X94.725 Y123.509 E11.30964
G1 X93.85 Y123.167 E11.35338
G1 X93.011 Y122.75 E11.39701
G1 X92.204 Y122.255 E11.44109
G1 X91.184 Y121.471 E11.501
G1 X90.541 Y120.907 E11.54082
G1 X89.585 Y120.032 E11.60117
G1 X88.946 Y119.393 E11.64325
G1 X88.322 Y118.646 E11.68857
G1 X87.787 Y117.875 E11.73227
G1 X87.338 Y117.091 E11.77434
G1 X87.106 Y116.613 E11.79908
G1 X86.543 Y115.37 E11.86262
G1 X86.244 Y114.669 E11.89811
G1 X85.915 Y113.79 E11.94181
G1 X85.665 Y112.886 E11.98548
G1 X85.495 Y111.955 E12.02955
G1 X85.396 Y110.606 E12.09253
G1 X85.387 Y109.163 E12.15973
G1 X85.399 Y108.46 E12.19247
G1 X85.457 Y107.524 E12.23614
G1 X85.598 Y106.596 E12.27984
G1 X85.822 Y105.678 E12.32384
G1 X86.25 Y104.481 E12.38304
G1 X86.496 Y103.907 E12.41211
G1 X87.115 Y102.542 E12.4819
G1 X87.542 Y101.706 E12.52562
G1 X88.022 Y100.941 E12.56767
G1 X88.61 Y100.165 E12.613
G1 X89.236 Y99.476 E12.65635
G1 X89.593 Y99.134 E12.67937
G0 F6000 X89.863 Y99.429
G1 F1200 X90.936 Y98.449 E12.74704
G1 X91.438 Y98.011 E12.77806
G1 X92.144 Y97.448 E12.82011
G1 X92.897 Y96.95 E12.86215
G1 X93.692 Y96.52 E12.90423
G1 X94.91 Y96.023 E12.96549
G1 X96.198 Y95.595 E13.02869
G1 X96.902 Y95.377 E13.063
G1 X97.775 Y95.149 E13.10502
G1 X98.666 Y94.998 E13.1471
G1 X99.566 Y94.927 E13.18914
G1 X100.846 Y94.963 E13.24876
G1 X104.468 Y95.294 E13.41812
G1 X106.967 Y95.448 E13.5347
G1 X109.506 Y95.535 E13.653
G1 X112.074 Y95.548 E13.77258
G1 X114.566 Y95.492 E13.88865
G1 X117.122 Y95.361 E14.00782
G1 X117.8 Y95.305 E14.0395
G1 X118.069 Y95.295 E14.05203
G1 X119.295 Y95.205 E14.10927
G1 X120.198 Y95.179 E14.15134
G1 X121.014 Y95.225 E14.1894
G1 X122.392 Y95.36 E14.25387
G1 X123.138 Y95.451 E14.28886
G1 X124.029 Y95.6 E14.33093
G1 X124.903 Y95.827 E14.37297
G1 X125.753 Y96.131 E14.41501
G1 X126.925 Y96.698 E14.47563
G1 X128.122 Y97.378 E14.53974
G1 X128.745 Y97.75 E14.57352
G1 X129.499 Y98.247 E14.61557
G1 X130.207 Y98.809 E14.65767
G1 X130.861 Y99.431 E14.69969
G1 X131.71 Y100.434 E14.76088
G1 X132.389 Y101.35 E14.81397
G1 X132.945 Y102.133 E14.85869
G1 X133.433 Y102.893 E14.90075
G1 X133.852 Y103.693 E14.9428
G1 X134.198 Y104.527 E14.98484
G1 X134.542 Y105.681 E15.04091
G1 X134.732 Y106.509 E15.08047
G1 X134.997 Y107.814 E15.14248
G1 X135.137 Y108.706 E15.18452
G1 X135.198 Y109.607 E15.22657
G1 X135.179 Y110.51 E15.26863
G1 X135.08 Y111.408 E15.3107
G1 X135 Y111.858 E15.33198
G1 X134.711 Y113.275 E15.39932
G1 X134.55 Y113.971 E15.43258
G1 X134.307 Y114.841 E15.47465
G1 X133.989 Y115.686 E15.51669
G1 X133.597 Y116.5 E15.55876
G1 X132.918 Y117.593 E15.61867
G1 X132.27 Y118.502 E15.67065
G1 X131.679 Y119.295 E15.7167
G1 X131.106 Y119.993 E15.75875
G1 X130.474 Y120.637 E15.80077
G1 X129.787 Y121.224 E15.84285
G1 X128.8 Y121.904 E15.89866
G1 X128.12 Y122.311 E15.93556
G1 X126.936 Y122.983 E15.99895
G1 X126.131 Y123.393 E16.04102
G1 X125.294 Y123.731 E16.08305
G1 X124.43 Y123.994 E16.1251
G1 X123.16 Y124.234 E16.18529
G1 X122.297 Y124.338 E16.22576
G1 X121.037 Y124.461 E16.28471
G1 X120.135 Y124.509 E16.32677
G1 X118.951 Y124.45 E16.38197
G1 X118.415 Y124.392 E16.40708
G1 X115.77 Y124.145 E16.53078
G1 X113.268 Y123.982 E16.64753
G1 X110.737 Y123.889 E16.76546
G1 X108.17 Y123.868 E16.88499
G1 X105.635 Y123.918 E17.00306
G1 X103.117 Y124.04 E17.12044
G1 X100.676 Y124.222 E17.23442
G1 X99.774 Y124.249 E17.27644
G1 X98.872 Y124.196 E17.31852
G1 X97.979 Y124.064 E17.36055
G1 X96.851 Y123.779 E17.41472
G1 X95.737 Y123.428 E17.46911
G1 X94.87 Y123.136 E17.51171
G1 X94.028 Y122.809 E17.55377
G1 X93.219 Y122.408 E17.59581
G1 X92.448 Y121.938 E17.63786
G1 X91.448 Y121.17 E17.69657
G1 X90.811 Y120.612 E17.736
G1 X89.868 Y119.749 E17.79553
G1 X89.229 Y119.11 E17.83761
G1 X88.65 Y118.417 E17.87965
G1 X88.134 Y117.676 E17.9217
G1 X87.685 Y116.892 E17.96377
G1 X87.47 Y116.448 E17.98674
G1 X86.911 Y115.213 E18.04986
G1 X86.618 Y114.528 E18.08456
G1 X86.3 Y113.683 E18.1266
G1 X86.058 Y112.813 E18.16865
G1 X85.894 Y111.925 E18.21069
G1 X85.796 Y110.603 E18.27242
G1 X85.787 Y109.169 E18.33919
G1 X85.798 Y108.484 E18.3711
G1 X85.853 Y107.583 E18.41313
G1 X85.987 Y106.69 E18.45518
G1 X86.199 Y105.812 E18.49723
G1 X86.618 Y104.638 E18.55528
G1 X86.86 Y104.072 E18.58394
G1 X87.471 Y102.724 E18.65286
G1 X87.881 Y101.919 E18.69492
G1 X88.361 Y101.154 E18.73697
G1 X88.906 Y100.434 E18.77902
G1 X89.513 Y99.765 E18.82109
G1 X89.863 Y99.429 E18.84368
G1 F1500 E12.34368
;MESH:prestacap.stl
G0 F6000 X96.368 Y106.388
G0 X99.996 Y113.314
;TYPE:WALL-INNER
G1 F1500 E18.84368
G1 F710.1 X101.545 Y113.149 E18.96626
G1 F712.2 X102.893 Y112.371 E19.08838
G1 X103.812 Y111.109 E19.21087
G1 F708 X104.135 Y109.585 E19.33382
G1 F706.9 X103.812 Y108.059 E19.45712
G1 F710.1 X102.894 Y106.798 E19.57986
G1 F714.3 X101.545 Y106.018 E19.70176
G1 X99.994 Y105.856 E19.82375
G1 F712.2 X98.509 Y106.339 E19.94627
G1 F713.2 X97.353 Y107.383 E20.06831
G1 F714.3 X96.718 Y108.806 E20.1902
G1 X96.718 Y110.364 E20.31208
G1 F715.4 X97.355 Y111.789 E20.43401
G1 F716.4 X98.511 Y112.834 E20.55555
G1 F712.2 X99.996 Y113.314 E20.678
G0 F6000 X99.938 Y113.856
;TYPE:WALL-OUTER
G1 F1200 X101.712 Y113.669 E20.76106
G1 X103.259 Y112.775 E20.84426
G1 X104.313 Y111.328 E20.92762
G1 X104.683 Y109.584 E21.01063
G1 X104.313 Y107.84 E21.09365
G1 X103.259 Y106.392 E21.17704
G1 X101.712 Y105.499 E21.26022
G1 X99.938 Y105.316 E21.34326
G1 X98.239 Y105.866 E21.42642
G1 X96.914 Y107.061 E21.5095
G1 X96.185 Y108.695 E21.59281
G1 X96.184 Y110.477 E21.67579
G1 X96.914 Y112.107 E21.75895
G1 X98.239 Y113.302 E21.84204
G1 X99.938 Y113.856 E21.92525
G0 F6000 X99.969 Y113.555
G0 X99.95 Y113.055
G0 X100.043 Y112.767
G1 F1200 X98.788 Y112.364 E21.98663
G1 X97.794 Y111.461 E22.04916
G1 X97.254 Y110.243 E22.1112
G1 X97.257 Y108.911 E22.17322
G1 X97.802 Y107.7 E22.23506
G1 X98.781 Y106.81 E22.29667
G1 X100.042 Y106.398 E22.35844
G1 X101.374 Y106.541 E22.42082
G1 X102.526 Y107.207 E22.48278
G1 X103.304 Y108.275 E22.54431
G1 X103.585 Y109.584 E22.60665
G1 X103.311 Y110.879 E22.66828
G1 X102.532 Y111.957 E22.73021
G1 X101.382 Y112.625 E22.79214
G1 X100.043 Y112.767 E22.85484
G1 F1500 E16.35484
;MESH:prestacap.stl(1)
G0 F6000 X99.95 Y113.055
G0 X103.111 Y112.613
G0 X103.989 Y113.249
G0 X116.228 Y112.677
G0 X120.119 Y113.57
;TYPE:WALL-INNER
G1 F1500 E22.85484
G1 F708 X121.668 Y113.408 E22.97776
G1 F711.1 X123.021 Y112.629 E23.10044
G1 F713.2 X123.936 Y111.368 E23.2225
G1 F714.3 X124.262 Y109.837 E23.34495
G1 F715.4 X123.938 Y108.316 E23.46643
G1 F714.3 X123.02 Y107.052 E23.58863
G1 X121.667 Y106.274 E23.71073
G1 F715.4 X120.12 Y106.112 E23.83222
G1 F713.2 X118.635 Y106.594 E23.95454
G1 F714.3 X117.477 Y107.639 E24.07656
G1 F715.4 X116.842 Y109.062 E24.19828
G1 F713.2 X116.842 Y110.621 E24.32042
G1 F714.3 X117.477 Y112.045 E24.44239
G1 X118.634 Y113.089 E24.5643
G1 F710.1 X120.119 Y113.57 E24.68713
G0 F6000 X120.062 Y114.112
;TYPE:WALL-OUTER
G1 F1200 X121.836 Y113.929 E24.77018
G1 X123.386 Y113.032 E24.85357
G1 X124.433 Y111.588 E24.93662
G1 X124.807 Y109.839 E25.0199
G1 X124.437 Y108.096 E25.10287
G1 X123.383 Y106.648 E25.18627
G1 X121.836 Y105.755 E25.26944
G1 X120.062 Y105.572 E25.35249
G1 X118.363 Y106.122 E25.43564
G1 X117.038 Y107.317 E25.51872
G1 X116.309 Y108.951 E25.60204
G1 X116.309 Y110.733 E25.68502
G1 X117.038 Y112.367 E25.76833
G1 X118.363 Y113.562 E25.85141
G1 X120.062 Y114.112 E25.93457
G0 F6000 X120.094 Y113.813
G0 X120.074 Y113.312
G0 X120.168 Y113.023
G1 F1200 X118.911 Y112.614 E25.99612
G1 X117.922 Y111.723 E26.0581
G1 X117.378 Y110.503 E26.1203
G1 X117.381 Y109.167 E26.18251
G1 X117.926 Y107.956 E26.24435
G1 X118.911 Y107.07 E26.30604
G1 X120.165 Y106.654 E26.36756
G1 X121.498 Y106.797 E26.42999
G1 X122.654 Y107.462 E26.49209
G1 X123.432 Y108.531 E26.55365
G1 X123.713 Y109.832 E26.61563
G1 X123.439 Y111.139 E26.67781
G1 X122.663 Y112.218 E26.7397
G1 X121.506 Y112.881 E26.80179
G1 X120.168 Y113.023 E26.86444
M104 S200
G1 F1500 E20.36444
;MESH:NONMESH
G0 F300 X120.168 Y113.023 Z0.56
G0 F6000 X120.074 Y113.312
G0 X118.788 Y112.829
G0 X116.529 Y110.691
G0 X115.445 Y110.691
G0 X104.544 Y105.806
G0 X89.863 Y99.429
;TIME_ELAPSED:37.029832
;LAYER:1
M117 2/58 | ET 12m
M106 S85
;TYPE:SKIRT
G1 F1500 E26.86444
G1 F1200 X90.936 Y98.449 E26.93211
G1 X91.438 Y98.011 E26.96313
G1 X92.144 Y97.448 E27.00518
G1 X92.897 Y96.95 E27.04722
G1 X93.692 Y96.52 E27.0893
G1 X94.91 Y96.023 E27.15056
G1 X96.198 Y95.595 E27.21376
G1 X96.902 Y95.377 E27.24807
G1 X97.775 Y95.149 E27.29009
G1 X98.666 Y94.998 E27.33217
G1 X99.566 Y94.927 E27.37421
G1 X100.846 Y94.963 E27.43383
G1 X104.468 Y95.294 E27.60319
G1 X106.967 Y95.448 E27.71978
G1 X109.506 Y95.535 E27.83807
G1 X112.074 Y95.548 E27.95765
G1 X114.566 Y95.492 E28.07372
G1 X117.122 Y95.361 E28.19289
G1 X117.8 Y95.305 E28.22457
G1 X118.069 Y95.295 E28.2371
G1 X119.295 Y95.205 E28.29434
G1 X120.198 Y95.179 E28.33641
G1 X121.014 Y95.225 E28.37447
G1 X122.392 Y95.36 E28.43894
G1 X123.138 Y95.451 E28.47393
G1 X124.029 Y95.6 E28.516
G1 X124.903 Y95.827 E28.55805
G1 X125.753 Y96.131 E28.60008
G1 X126.925 Y96.698 E28.6607
