;FLAVOR:Marlin
;TIME:7388
;Filament used: 4.35094m
;Layer height: 0.2
;Cura Time Estimate:  7388sec = 2hr 3min 8sec 
M117 ET 2hr 3min
;MINX:72.161
;MINY:83.284
;MINZ:0.2
;MAXX:163.397
;MAXY:153.764
;MAXZ:36.2
;TARGET_MACHINE.NAME:Creality Ender-3
;POSTPROCESSED
;  [DisplayInfoOnLCD]
;Generated with Cura_SteamEngine 5.7.0
M140 S50
M105
M190 S50
M104 S200
M105
M109 S200
M82 ;absolute extrusion mode
; Ender 3 Custom Start G-code
G92 E0 ; Reset Extruder
G28 ; Home all axes
G1 Z2.0 F3000 ; Move Z Axis up little to prevent scratching of Heat Bed
G1 X0.1 Y20 Z0.3 F5000.0 ; Move to start position
G1 X0.1 Y200.0 Z0.3 F1500.0 E15 ; Draw the first line
G1 X0.4 Y200.0 Z0.3 F5000.0 ; Move to side a little
G1 X0.4 Y20 Z0.3 F1500.0 E30 ; Draw the second line
G92 E0 ; Reset Extruder
G1 Z2.0 F3000 ; Move Z Axis up little to prevent scratching of Heat Bed
G1 X5 Y20 Z0.3 F5000.0 ; Move over to prevent blob squish
G92 E0
G92 E0
G1 F2700 E-5
;LAYER_COUNT:181
;LAYER:0
M117 1/181 | ET 2h03m
M107
G0 F6000 X80.942 Y89.482 Z0.2
;TYPE:SKIRT
G1 F2700 E0
G1 F1200 X81.426 Y89.063 E0.02129
G1 X81.855 Y88.719 E0.03958
G1 X82.722 Y88.067 E0.07566
G1 X83.642 Y87.435 E0.11279
G1 X84.194 Y87.085 E0.13453
G1 X84.615 Y86.831 E0.15088
G1 X85.586 Y86.283 E0.18796
G1 X86.57 Y85.785 E0.22464
G1 X87.171 Y85.507 E0.24667
G1 X88.024 Y85.145 E0.27749
G1 X88.528 Y84.951 E0.29545
G1 X89.608 Y84.569 E0.33355
G1 X90.266 Y84.355 E0.35656
G1 X90.722 Y84.223 E0.37235
G1 X91.795 Y83.947 E0.4092
G1 X92.403 Y83.812 E0.42992
G1 X92.906 Y83.712 E0.44698
G1 X93.996 Y83.535 E0.4837
G1 X95.132 Y83.398 E0.52176
G1 X95.77 Y83.345 E0.54305
G1 X96.904 Y83.292 E0.58081
G1 X97.363 Y83.284 E0.59608
G1 X98.454 Y83.299 E0.63237
G1 X98.98 Y83.325 E0.64989
G1 X99.492 Y83.364 E0.66697
G1 X100.642 Y83.477 E0.7054
G1 X101.313 Y83.561 E0.72789
G1 X102.39 Y83.746 E0.76424
G1 X103.522 Y83.992 E0.80277
G1 X104.007 Y84.113 E0.81939
G1 X105.029 Y84.405 E0.85474
G1 X106.082 Y84.756 E0.89166
G1 X106.679 Y84.976 E0.91282
G1 X107.622 Y85.363 E0.94673
G1 X108.111 Y85.586 E0.9646
G1 X109.338 Y86.191 E1.0101
G1 X110.424 Y86.782 E1.05123
G1 X112.308 Y87.888 E1.12389
G1 X114.548 Y89.136 E1.20917
G1 X116.779 Y90.298 E1.29284
G1 X119.041 Y91.396 E1.37647
G1 X121.335 Y92.431 E1.46017
G1 X123.652 Y93.399 E1.54369
G1 X126.026 Y94.314 E1.62831
G1 X128.378 Y95.141 E1.71124
G1 X130.802 Y95.919 E1.79591
G1 X133.169 Y96.606 E1.87788
G1 X135.65 Y97.25 E1.96314
G1 X138.091 Y97.811 E2.04644
G1 X140.566 Y98.306 E2.13039
G1 X143.037 Y98.728 E2.21377
G1 X145.551 Y99.084 E2.29822
G1 X148.016 Y99.362 E2.38072
G1 X149.057 Y99.452 E2.41548
G1 X150.012 Y99.548 E2.4474
G1 X150.975 Y99.691 E2.47978
G1 X151.923 Y99.918 E2.5122
G1 X152.845 Y100.228 E2.54455
G1 X153.738 Y100.62 E2.57699
G1 X154.591 Y101.088 E2.60935
G1 X155.4 Y101.63 E2.64174
G1 X156.159 Y102.24 E2.67413
G1 X156.811 Y102.865 E2.70417
G1 X157.499 Y103.653 E2.73896
G1 X158.069 Y104.441 E2.77131
G1 X158.569 Y105.278 E2.80373
G1 X158.992 Y106.155 E2.83612
G1 X159.322 Y107.025 E2.86707
G1 X159.505 Y107.631 E2.88812
G1 X159.753 Y108.567 E2.92033
G1 X160.087 Y109.946 E2.96752
G1 X160.661 Y112.465 E3.05345
G1 X161.124 Y114.715 E3.12985
G1 X161.402 Y116.176 E3.17932
G1 X161.793 Y118.422 E3.25514
G1 X162.002 Y119.741 E3.29956
G1 X162.341 Y122.126 E3.37968
G1 X162.621 Y124.386 E3.45543
G1 X162.848 Y126.57 E3.52846
G1 X163.026 Y128.571 E3.59527
G1 X163.149 Y130.259 E3.65157
G1 X163.276 Y132.599 E3.72951
G1 X163.362 Y135.023 E3.81018
G1 X163.388 Y136.37 E3.85499
G1 X163.397 Y138.021 E3.90991
G1 X163.389 Y138.505 E3.92601
G1 X163.357 Y139.252 E3.95087
G1 X163.224 Y140.533 E3.99371
G1 X163.126 Y141.115 E4.01334
G1 X162.868 Y142.26 E4.05238
G1 X162.714 Y142.796 E4.07093
G1 X162.317 Y143.933 E4.11098
G1 X162.102 Y144.452 E4.12967
G1 X161.601 Y145.496 E4.16818
G1 X161.314 Y146.016 E4.18794
G1 X160.69 Y147.007 E4.22689
G1 X160.37 Y147.457 E4.24525
G1 X159.637 Y148.375 E4.28432
G1 X159.289 Y148.764 E4.30168
G1 X158.459 Y149.596 E4.34077
G1 X158.027 Y149.985 E4.36011
G1 X157.054 Y150.761 E4.4015
G1 X156.641 Y151.053 E4.41832
G1 X155.426 Y151.797 E4.46571
G1 X154.772 Y152.14 E4.49027
G1 X153.748 Y152.608 E4.52772
G1 X153.331 Y152.771 E4.54261
G1 X152.297 Y153.116 E4.57886
G1 X151.762 Y153.265 E4.59734
G1 X150.663 Y153.507 E4.63476
G1 X150.187 Y153.585 E4.65081
G1 X149.064 Y153.709 E4.68838
G1 X148.033 Y153.757 E4.72271
G1 X147.187 Y153.764 E4.75085
G1 X146.343 Y153.749 E4.77893
G1 X145.673 Y153.715 E4.80124
G1 X144.652 Y153.643 E4.83528
G1 X143.356 Y153.531 E4.87855
G1 X140.917 Y153.393 E4.9598
G1 X138.358 Y153.321 E5.04495
G1 X135.869 Y153.321 E5.12773
G1 X133.329 Y153.393 E5.21225
G1 X130.826 Y153.534 E5.29563
G1 X128.626 Y153.711 E5.36904
G1 X128.017 Y153.744 E5.38932
G1 X127.368 Y153.758 E5.41091
G1 X126.617 Y153.752 E5.43589
G1 X125.927 Y153.722 E5.45886
G1 X125.51 Y153.69 E5.47277
G1 X124.508 Y153.568 E5.50635
G1 X123.583 Y153.399 E5.53762
G1 X122.131 Y153.085 E5.58703
G1 X119.635 Y152.59 E5.67167
G1 X117.186 Y152.177 E5.75427
G1 X114.643 Y151.822 E5.83967
G1 X112.165 Y151.545 E5.9226
G1 X109.026 Y151.168 E6.02776
G1 X106.542 Y150.943 E6.11071
G1 X104.022 Y150.785 E6.19469
G1 X101.46 Y150.697 E6.27996
G1 X100.155 Y150.666 E6.32337
G1 X99.171 Y150.596 E6.35618
G1 X97.879 Y150.369 E6.39981
G1 X94.786 Y149.629 E6.50559
G1 X94.097 Y149.475 E6.52907
G1 X93.644 Y149.361 E6.54461
G1 X92.795 Y149.113 E6.57403
G1 X91.656 Y148.685 E6.6145
G1 X91.225 Y148.495 E6.63016
G1 X90.043 Y147.885 E6.6744
G1 X89.758 Y147.715 E6.68544
G1 X88.723 Y147.014 E6.72702
G1 X88.234 Y146.639 E6.74751
G1 X87.49 Y146.017 E6.77977
G1 X86.861 Y145.396 E6.80917
G1 X86.05 Y144.467 E6.85018
G1 X85.658 Y143.965 E6.87137
G1 X85.118 Y143.205 E6.90237
G1 X84.757 Y142.61 E6.92552
G1 X84.539 Y142.22 E6.94038
G1 X83.95 Y140.988 E6.9858
G1 X83.741 Y140.467 E7.00447
G1 X83.504 Y139.813 E7.02761
G1 X82.872 Y137.833 E7.09674
G1 X82.069 Y135.499 E7.17883
G1 X81.168 Y133.101 E7.26403
G1 X80.236 Y130.824 E7.34587
G1 X79.194 Y128.466 E7.43161
G1 X78.126 Y126.221 E7.5143
G1 X76.978 Y123.978 E7.5981
G1 X75.734 Y121.707 E7.68423
G1 X75.306 Y120.944 E7.71332
G1 X74.978 Y120.328 E7.73654
G1 X74.451 Y119.239 E7.77677
G1 X74.24 Y118.765 E7.79403
G1 X73.957 Y118.085 E7.81853
G1 X73.778 Y117.622 E7.83504
G1 X73.545 Y116.975 E7.85791
G1 X73.384 Y116.493 E7.87481
G1 X73.18 Y115.831 E7.89785
G1 X73.035 Y115.317 E7.91562
G1 X72.846 Y114.57 E7.94124
G1 X72.733 Y114.073 E7.9582
G1 X72.597 Y113.404 E7.9809
G1 X72.402 Y112.223 E8.02071
G1 X72.335 Y111.711 E8.03789
G1 X72.259 Y110.996 E8.0618
G1 X72.217 Y110.448 E8.08008
G1 X72.176 Y109.71 E8.10467
G1 X72.161 Y109.211 E8.12127
G1 X72.162 Y108.095 E8.15839
G1 X72.186 Y107.442 E8.18012
G1 X72.269 Y106.303 E8.21811
G1 X72.397 Y105.192 E8.2553
G1 X72.468 Y104.717 E8.27128
G1 X72.655 Y103.678 E8.30639
G1 X72.755 Y103.204 E8.3225
G1 X72.893 Y102.642 E8.34175
G1 X73.218 Y101.443 E8.38307
G1 X73.412 Y100.807 E8.40518
G1 X73.636 Y100.151 E8.42824
G1 X73.892 Y99.477 E8.45222
G1 X74.369 Y98.336 E8.49335
G1 X74.634 Y97.744 E8.51492
G1 X75.106 Y96.804 E8.54991
G1 X75.352 Y96.35 E8.56708
G1 X75.6 Y95.919 E8.58362
G1 X75.875 Y95.471 E8.60111
G1 X76.547 Y94.426 E8.64243
G1 X76.889 Y93.92 E8.66274
G1 X77.188 Y93.509 E8.67965
G1 X77.577 Y93.002 E8.7009
G1 X78.318 Y92.104 E8.73962
G1 X78.897 Y91.456 E8.76853
G1 X79.305 Y91.031 E8.78812
G1 X80.294 Y90.07 E8.83399
G1 X80.942 Y89.482 E8.86309
G0 F6000 X81.204 Y89.784
G1 F1200 X81.676 Y89.375 E8.88386
G1 X82.095 Y89.039 E8.90173
G1 X82.949 Y88.397 E8.93726
G1 X83.857 Y87.773 E8.97391
G1 X84.401 Y87.427 E8.99535
G1 X84.812 Y87.179 E9.01132
G1 X85.767 Y86.64 E9.04779
G1 X86.738 Y86.148 E9.08399
G1 X87.327 Y85.875 E9.10559
G1 X88.168 Y85.518 E9.13597
G1 X88.662 Y85.328 E9.15358
G1 X89.732 Y84.949 E9.19133
G1 X90.377 Y84.739 E9.21389
G1 X90.822 Y84.61 E9.2293
G1 X91.882 Y84.337 E9.26571
G1 X92.481 Y84.204 E9.28612
G1 X92.97 Y84.107 E9.3027
G1 X94.044 Y83.932 E9.33889
G1 X95.165 Y83.797 E9.37645
G1 X95.789 Y83.745 E9.39727
G1 X96.911 Y83.692 E9.43463
G1 X97.358 Y83.684 E9.4495
G1 X98.434 Y83.698 E9.48529
G1 X98.95 Y83.724 E9.50248
G1 X99.453 Y83.762 E9.51925
G1 X100.593 Y83.874 E9.55735
G1 X101.245 Y83.955 E9.5792
G1 X102.31 Y84.138 E9.61515
G1 X102.758 Y84.229 E9.63035
G1 X103.425 Y84.38 E9.6531
G1 X103.897 Y84.498 E9.66928
G1 X104.903 Y84.785 E9.70407
G1 X105.944 Y85.131 E9.74056
G1 X106.527 Y85.346 E9.76123
G1 X107.456 Y85.727 E9.79462
G1 X107.934 Y85.945 E9.8121
G1 X109.147 Y86.542 E9.85706
G1 X110.222 Y87.127 E9.89777
G1 X112.113 Y88.237 E9.9707
G1 X114.363 Y89.491 E10.05637
G1 X116.604 Y90.658 E10.14041
G1 X118.867 Y91.757 E10.22408
G1 X121.171 Y92.796 E10.30815
G1 X123.508 Y93.772 E10.39238
G1 X125.886 Y94.688 E10.47714
G1 X128.256 Y95.522 E10.5607
G1 X130.68 Y96.3 E10.64538
G1 X133.068 Y96.993 E10.72808
G1 X135.56 Y97.64 E10.81371
G1 X138.001 Y98.201 E10.89702
G1 X140.492 Y98.699 E10.98151
G1 X142.981 Y99.124 E11.06549
G1 X145.495 Y99.48 E11.14994
G1 X147.982 Y99.761 E11.23318
G1 X149.017 Y99.85 E11.26773
G1 X149.954 Y99.944 E11.29906
G1 X150.883 Y100.08 E11.33028
G1 X151.796 Y100.297 E11.3615
G1 X152.685 Y100.595 E11.39268
G1 X153.546 Y100.971 E11.42393
G1 X154.369 Y101.421 E11.45513
G1 X155.15 Y101.942 E11.48635
G1 X155.882 Y102.529 E11.51756
G1 X156.534 Y103.154 E11.5476
G1 X157.175 Y103.888 E11.58001
G1 X157.726 Y104.647 E11.61121
G1 X158.209 Y105.452 E11.64243
G1 X158.618 Y106.297 E11.67366
G1 X158.939 Y107.141 E11.70369
G1 X159.118 Y107.734 E11.72429
G1 X159.364 Y108.661 E11.75619
G1 X159.697 Y110.035 E11.80321
G1 X160.269 Y112.546 E11.88887
G1 X160.731 Y114.79 E11.96507
G1 X161.008 Y116.245 E12.01433
G1 X161.398 Y118.485 E12.08996
G1 X161.606 Y119.797 E12.13414
G1 X161.944 Y122.173 E12.21396
G1 X162.078 Y123.306 E12.25191
G1 X162.223 Y124.427 E12.2895
G1 X162.45 Y126.605 E12.36233
G1 X162.627 Y128.6 E12.42895
G1 X162.75 Y130.281 E12.48501
G1 X162.876 Y132.613 E12.56268
G1 X162.962 Y135.031 E12.64316
G1 X162.988 Y136.372 E12.68777
G1 X162.997 Y138.014 E12.74238
G1 X162.989 Y138.488 E12.75815
G1 X162.959 Y139.211 E12.78222
G1 X162.826 Y140.492 E12.82505
G1 X162.736 Y141.027 E12.8431
G1 X162.483 Y142.15 E12.88138
G1 X162.336 Y142.664 E12.89917
G1 X161.947 Y143.78 E12.93847
G1 X161.741 Y144.279 E12.95643
G1 X161.24 Y145.323 E12.99494
G1 X160.975 Y145.803 E13.01318
G1 X160.364 Y146.775 E13.05137
G1 X160.057 Y147.207 E13.06899
G1 X159.324 Y148.125 E13.10806
G1 X158.991 Y148.497 E13.12467
G1 X158.192 Y149.299 E13.16232
G1 X157.777 Y149.672 E13.18088
G1 X156.823 Y150.434 E13.22149
G1 X156.41 Y150.726 E13.23832
G1 X155.24 Y151.443 E13.28396
G1 X154.606 Y151.776 E13.30777
G1 X153.582 Y152.244 E13.34522
G1 X153.204 Y152.392 E13.35872
G1 X152.19 Y152.731 E13.39428
G1 X151.676 Y152.874 E13.41203
G1 X150.598 Y153.112 E13.44875
G1 X150.143 Y153.187 E13.46408
G1 X149.045 Y153.309 E13.50083
G1 X148.03 Y153.357 E13.53462
G1 X147.194 Y153.364 E13.56243
G1 X146.363 Y153.349 E13.59007
G1 X145.701 Y153.316 E13.61212
G1 X144.686 Y153.244 E13.64596
G1 X143.39 Y153.133 E13.68923
G1 X140.928 Y152.993 E13.77125
G1 X138.369 Y152.921 E13.85639
G1 X135.858 Y152.921 E13.93991
G1 X133.318 Y152.993 E14.02442
G1 X130.794 Y153.135 E14.1085
G1 X128.605 Y153.312 E14.18155
G1 X128.008 Y153.344 E14.20143
G1 X127.371 Y153.358 E14.22263
G1 X126.634 Y153.352 E14.24714
G1 X125.957 Y153.323 E14.26968
G1 X125.558 Y153.293 E14.28298
G1 X124.58 Y153.174 E14.31575
G1 X123.668 Y153.008 E14.34658
G1 X122.216 Y152.694 E14.39599
G1 X119.708 Y152.197 E14.48103
G1 X117.241 Y151.781 E14.56424
G1 X114.687 Y151.424 E14.65002
G1 X112.213 Y151.148 E14.73281
G1 X109.074 Y150.771 E14.83797
G1 X106.567 Y150.544 E14.92169
G1 X104.036 Y150.385 E15.00604
G1 X101.474 Y150.297 E15.0913
G1 X100.183 Y150.267 E15.13425
G1 X99.24 Y150.202 E15.16569
G1 X97.972 Y149.98 E15.20851
G1 X94.879 Y149.24 E15.31428
G1 X94.194 Y149.087 E15.33763
G1 X93.756 Y148.977 E15.35265
G1 X92.907 Y148.729 E15.38207
G1 X91.817 Y148.319 E15.4208
G1 X91.408 Y148.139 E15.43566
G1 X90.248 Y147.541 E15.47907
G1 X89.963 Y147.371 E15.49011
G1 X88.966 Y146.696 E15.53015
G1 X88.49 Y146.332 E15.55008
G1 X87.771 Y145.732 E15.58123
G1 X87.142 Y145.111 E15.61063
G1 X86.365 Y144.221 E15.64992
G1 X85.984 Y143.733 E15.67051
G1 X85.46 Y142.997 E15.70056
G1 X85.106 Y142.414 E15.72325
G1 X84.9 Y142.047 E15.73725
G1 X84.311 Y140.815 E15.78267
G1 X84.117 Y140.331 E15.80001
G1 X83.885 Y139.691 E15.82265
G1 X83.253 Y137.711 E15.89178
G1 X82.447 Y135.369 E15.97416
G1 X81.542 Y132.96 E16.05975
G1 X80.602 Y130.662 E16.14233
G1 X79.56 Y128.304 E16.22807
G1 X78.487 Y126.049 E16.31113
G1 X77.334 Y123.796 E16.39531
G1 X76.085 Y121.515 E16.4818
G1 X75.659 Y120.756 E16.51075
G1 X75.338 Y120.154 E16.53344
G1 X74.816 Y119.076 E16.57328
G1 X74.609 Y118.611 E16.59021
G1 X74.33 Y117.941 E16.61435
G1 X74.154 Y117.486 E16.63058
G1 X73.924 Y116.848 E16.65313
G1 X73.766 Y116.375 E16.66972
G1 X73.565 Y115.723 E16.69241
G1 X73.423 Y115.219 E16.70983
G1 X73.236 Y114.481 E16.73515
G1 X73.125 Y113.993 E16.75179
G1 X72.992 Y113.339 E16.77399
G1 X72.799 Y112.171 E16.81337
G1 X72.733 Y111.669 E16.83021
G1 X72.658 Y110.965 E16.85375
G1 X72.616 Y110.426 E16.87174
G1 X72.576 Y109.698 E16.89599
G1 X72.561 Y109.211 E16.91219
G1 X72.562 Y108.109 E16.94884
G1 X72.585 Y107.471 E16.97008
G1 X72.666 Y106.349 E17.00749
G1 X72.793 Y105.251 E17.04426
G1 X72.862 Y104.788 E17.05983
G1 X73.046 Y103.761 E17.09453
G1 X73.144 Y103.299 E17.11024
G1 X73.279 Y102.747 E17.12914
G1 X73.601 Y101.56 E17.17004
G1 X73.791 Y100.936 E17.19174
G1 X74.01 Y100.293 E17.21433
G1 X74.261 Y99.631 E17.23788
G1 X74.734 Y98.499 E17.27868
G1 X74.991 Y97.924 E17.29963
G1 X75.458 Y96.994 E17.33424
G1 X75.699 Y96.549 E17.35108
G1 X75.941 Y96.128 E17.36723
G1 X76.211 Y95.687 E17.38443
G1 X76.878 Y94.65 E17.42543
G1 X77.213 Y94.155 E17.44531
G1 X77.506 Y93.752 E17.46189
G1 X77.886 Y93.256 E17.48267
G1 X78.616 Y92.37 E17.52085
G1 X79.185 Y91.733 E17.54926
G1 X79.584 Y91.318 E17.56841
G1 X80.563 Y90.366 E17.61383
G1 X81.204 Y89.784 E17.64262
G0 F6000 X81.466 Y90.086
G1 F1200 X81.927 Y89.687 E17.6629
G1 X82.335 Y89.359 E17.68031
G1 X83.176 Y88.727 E17.7153
G1 X84.084 Y88.103 E17.75195
G1 X84.608 Y87.769 E17.77261
G1 X85.008 Y87.527 E17.78816
G1 X85.948 Y86.997 E17.82405
G1 X86.906 Y86.511 E17.85978
G1 X87.483 Y86.243 E17.88094
G1 X88.311 Y85.891 E17.91087
G1 X88.796 Y85.705 E17.92815
G1 X89.856 Y85.329 E17.96555
G1 X90.489 Y85.123 E17.98769
G1 X90.922 Y84.997 E18.00269
G1 X91.969 Y84.727 E18.03866
G1 X92.558 Y84.596 E18.05872
G1 X93.035 Y84.502 E18.07489
G1 X94.092 Y84.329 E18.11052
G1 X95.198 Y84.196 E18.14757
G1 X95.808 Y84.145 E18.16793
G1 X96.918 Y84.092 E18.20489
G1 X97.353 Y84.084 E18.21936
G1 X98.414 Y84.098 E18.25465
G1 X98.92 Y84.123 E18.2715
G1 X99.414 Y84.16 E18.28798
G1 X100.544 Y84.271 E18.32574
G1 X101.177 Y84.349 E18.34696
G1 X102.231 Y84.53 E18.38253
G1 X102.67 Y84.619 E18.39742
G1 X103.328 Y84.768 E18.41986
G1 X103.787 Y84.883 E18.4356
G1 X104.777 Y85.165 E18.46984
G1 X105.806 Y85.506 E18.50589
G1 X106.375 Y85.716 E18.52607
G1 X107.29 Y86.091 E18.55896
G1 X107.758 Y86.304 E18.57606
G1 X108.956 Y86.893 E18.62046
G1 X110.02 Y87.472 E18.66075
G1 X111.918 Y88.586 E18.73395
G1 X114.178 Y89.846 E18.82001
G1 X116.429 Y91.018 E18.90442
G1 X118.693 Y92.118 E18.98813
G1 X121.007 Y93.161 E19.07256
G1 X123.364 Y94.145 E19.15751
G1 X125.746 Y95.062 E19.2424
G1 X128.134 Y95.903 E19.32661
G1 X130.558 Y96.681 E19.41128
G1 X132.967 Y97.38 E19.49471
G1 X135.47 Y98.03 E19.58072
G1 X137.911 Y98.591 E19.66403
G1 X140.418 Y99.092 E19.74906
G1 X142.925 Y99.52 E19.83365
G1 X145.439 Y99.876 E19.9181
G1 X147.948 Y100.16 E20.00208
G1 X148.977 Y100.248 E20.03643
G1 X149.897 Y100.34 E20.06718
G1 X150.791 Y100.469 E20.09722
G1 X151.67 Y100.677 E20.12727
G1 X152.526 Y100.962 E20.15727
G1 X153.355 Y101.322 E20.18733
G1 X154.148 Y101.754 E20.21737
G1 X154.9 Y102.254 E20.2474
G1 X155.605 Y102.818 E20.27743
G1 X156.257 Y103.443 E20.30747
G1 X156.852 Y104.123 E20.33753
G1 X157.383 Y104.853 E20.36755
G1 X157.849 Y105.627 E20.3976
G1 X158.244 Y106.439 E20.42763
G1 X158.565 Y107.283 E20.45766
G1 X158.731 Y107.837 E20.4769
