;FLAVOR:Marlin
;TIME:508
;Filament used: 0.240241m
;Layer height: 0.28
;Cura Time Estimate:  508sec = 0hr 8min 28sec 
M117 ET 0hr 8min
;MINX:93.578
;MINY:93.552
;MINZ:0.28
;MAXX:126.446
;MAXY:126.46
;MAXZ:17.36
;TARGET_MACHINE.NAME:Creality Ender-3 Pro
;POSTPROCESSED
;  [DisplayInfoOnLCD]
;  [CreateThumbnail]
;Generated with Cura_SteamEngine 5.7.0
;
;

M82 ;absolute extrusion mode
; Ender 3 Custom Start G-code
G92 E0 ; Reset Extruder
G28 ; Home all axes
G1 Z5.0 F3000 ; Move Z Axis up a bit during heating to not damage bed
M104 S175 ; Start heating up the nozzle most of the way
M190 S60 ; Start heating the bed, wait until target temperature reached
M109 S200 ; Finish heating the nozzle
G1 Z2.0 F3000 ; Move Z Axis up little to prevent scratching of Heat Bed
G1 X0.1 Y20 Z0.3 F5000.0 ; Move to start position
G1 X0.1 Y200.0 Z0.3 F1500.0 E15 ; Draw the first line
G1 X0.4 Y200.0 Z0.3 F5000.0 ; Move to side a little
G1 X0.4 Y20 Z0.3 F1500.0 E30 ; Draw the second line
G92 E0 ; Reset Extruder
G1 Z2.0 F3000 ; Move Z Axis up little to prevent scratching of Heat Bed
G1 X5 Y20 Z0.3 F5000.0 ; Move over to prevent blob squish
G92 E0
G92 E0
G1 F1500 E-6.5
;LAYER_COUNT:62
;LAYER:0
M117 1/62 | ET 8m
M107
G0 F6000 X97.994 Y98.749 Z0.28
;TYPE:SKIRT
G1 F1500 E0
G1 F1200 X98.587 Y98.195 E0.03779
G1 X99.39 Y97.475 E0.08801
G1 X100.015 Y96.93 E0.12662
G1 X100.778 Y96.325 E0.17196
G1 X101.531 Y95.827 E0.214
G1 X102.462 Y95.326 E0.26323
G1 X103.566 Y94.869 E0.31887
G1 X104.398 Y94.584 E0.35982
G1 X106.082 Y94.049 E0.4421
G1 X107.023 Y93.798 E0.48744
G1 X107.981 Y93.63 E0.53273
G1 X108.881 Y93.552 E0.5748
G1 X110.267 Y93.578 E0.63935
G1 X111.147 Y93.654 E0.68048
G1 X112.904 Y93.851 E0.7628
G1 X113.865 Y94.004 E0.80811
G1 X114.81 Y94.242 E0.85349
G1 X115.745 Y94.568 E0.8996
G1 X116.929 Y95.127 E0.96057
G1 X117.676 Y95.543 E1.00038
G1 X119.213 Y96.442 E1.08329
G1 X120.001 Y96.953 E1.12703
G1 X120.795 Y97.573 E1.17393
G1 X121.456 Y98.189 E1.21601
G1 X122.407 Y99.291 E1.28379
G1 X122.881 Y99.922 E1.32053
G1 X123.465 Y100.723 E1.36669
G1 X123.976 Y101.447 E1.40796
G1 X124.509 Y102.285 E1.4542
G1 X124.957 Y103.15 E1.49956
G1 X125.331 Y104.064 E1.54555
G1 X125.69 Y105.282 E1.60467
G1 X125.821 Y105.854 E1.632
G1 X126.111 Y107.217 E1.69689
G1 X126.251 Y107.939 E1.73113
G1 X126.384 Y108.832 E1.77317
G1 X126.446 Y109.876 E1.82187
G1 X126.417 Y110.819 E1.8658
G1 X126.245 Y112.11 E1.92645
G1 X126.13 Y112.697 E1.9543
G1 X125.716 Y114.599 E2.04494
G1 X125.459 Y115.558 E2.09117
G1 X125.123 Y116.472 E2.13651
G1 X124.7 Y117.368 E2.18265
G1 X123.984 Y118.543 E2.24672
G1 X123.512 Y119.21 E2.28477
G1 X122.47 Y120.626 E2.36663
G1 X121.856 Y121.383 E2.41202
G1 X121.178 Y122.081 E2.45733
G1 X120.463 Y122.699 E2.50134
G1 X119.336 Y123.484 E2.56529
G1 X118.63 Y123.906 E2.60359
G1 X117.075 Y124.793 E2.68695
G1 X116.207 Y125.235 E2.7323
G1 X115.337 Y125.586 E2.77599
G1 X114.405 Y125.871 E2.82137
G1 X113.433 Y126.075 E2.86762
G1 X112.885 Y126.152 E2.89338
G1 X111.302 Y126.328 E2.96755
G1 X110.342 Y126.418 E3.01245
G1 X109.369 Y126.46 E3.05779
G1 X108.396 Y126.416 E3.10315
G1 X107.501 Y126.298 E3.14518
G1 X106.192 Y125.987 E3.20783
G1 X105.624 Y125.813 E3.23549
G1 X104.321 Y125.389 E3.2993
G1 X103.62 Y125.149 E3.3338
G1 X102.713 Y124.791 E3.37921
G1 X101.844 Y124.354 E3.4245
G1 X101.004 Y123.834 E3.4705
G1 X99.989 Y123.05 E3.53022
G1 X99.348 Y122.487 E3.56995
G1 X98.092 Y121.344 E3.64902
G1 X97.428 Y120.681 E3.69272
G1 X96.779 Y119.908 E3.73971
G1 X96.239 Y119.133 E3.7837
G1 X95.58 Y117.941 E3.84712
G1 X95.195 Y117.112 E3.88968
G1 X94.5 Y115.525 E3.97035
G1 X94.152 Y114.616 E4.01568
G1 X93.884 Y113.678 E4.0611
G1 X93.7 Y112.706 E4.10717
G1 X93.592 Y111.392 E4.16856
G1 X93.578 Y110.586 E4.20609
G1 X93.579 Y109.392 E4.26169
G1 X93.592 Y108.648 E4.29634
G1 X93.653 Y107.675 E4.34174
G1 X93.8 Y106.712 E4.3871
G1 X94.024 Y105.794 E4.4311
G1 X94.465 Y104.552 E4.49247
G1 X94.752 Y103.882 E4.52641
G1 X95.197 Y102.883 E4.57733
G1 X95.559 Y102.102 E4.61741
G1 X95.976 Y101.301 E4.65946
G1 X96.538 Y100.422 E4.70804
G1 X97.089 Y99.706 E4.75011
G1 X97.994 Y98.749 E4.81145
G0 F6000 X98.267 Y99.041
G1 F1200 X98.854 Y98.493 E4.84884
G1 X99.653 Y97.776 E4.89883
G1 X100.264 Y97.243 E4.93658
G1 X100.999 Y96.659 E4.98029
G1 X101.752 Y96.161 E5.02233
G1 X102.615 Y95.696 E5.06798
G1 X103.719 Y95.239 E5.12362
G1 X104.519 Y94.965 E5.16299
G1 X106.186 Y94.435 E5.24444
G1 X107.092 Y94.192 E5.28812
G1 X108.016 Y94.029 E5.33181
G1 X108.916 Y93.951 E5.37388
G1 X110.259 Y93.978 E5.43642
G1 X111.103 Y94.052 E5.47587
G1 X112.842 Y94.246 E5.55735
G1 X113.768 Y94.392 E5.601
G1 X114.679 Y94.62 E5.64473
G1 X115.574 Y94.93 E5.68884
G1 X116.758 Y95.489 E5.7498
G1 X117.474 Y95.888 E5.78797
G1 X118.995 Y96.778 E5.87003
G1 X119.783 Y97.289 E5.91376
G1 X120.522 Y97.866 E5.95742
G1 X121.183 Y98.482 E5.99949
G1 X122.087 Y99.531 E6.06397
G1 X122.558 Y100.158 E6.10049
G1 X123.138 Y100.954 E6.14635
G1 X123.649 Y101.678 E6.18761
G1 X124.154 Y102.469 E6.23131
G1 X124.587 Y103.302 E6.27503
G1 X124.947 Y104.177 E6.31908
G1 X125.306 Y105.395 E6.37821
G1 X125.43 Y105.937 E6.4041
G1 X125.718 Y107.293 E6.46865
G1 X125.855 Y107.998 E6.50209
G1 X125.988 Y108.891 E6.54413
G1 X126.046 Y109.864 E6.58952
G1 X126.02 Y110.766 E6.63154
G1 X125.852 Y112.033 E6.69105
G1 X125.739 Y112.612 E6.71852
G1 X125.325 Y114.514 E6.80916
G1 X125.083 Y115.421 E6.85287
G1 X124.761 Y116.302 E6.89655
G1 X124.358 Y117.16 E6.94069
G1 X123.657 Y118.312 E7.00348
G1 X123.19 Y118.973 E7.04117
G1 X122.159 Y120.375 E7.1222
G1 X121.569 Y121.105 E7.16591
G1 X120.916 Y121.779 E7.2096
G1 X120.234 Y122.371 E7.25166
G1 X119.107 Y123.156 E7.31561
G1 X118.432 Y123.559 E7.35222
G1 X116.893 Y124.437 E7.43472
G1 X116.057 Y124.864 E7.47843
G1 X115.22 Y125.203 E7.52048
G1 X114.288 Y125.488 E7.56586
G1 X113.378 Y125.679 E7.60916
G1 X112.841 Y125.754 E7.63441
G1 X111.265 Y125.93 E7.70825
G1 X110.324 Y126.018 E7.75226
G1 X109.386 Y126.06 E7.79598
G1 X108.448 Y126.019 E7.8397
G1 X107.553 Y125.901 E7.88173
G1 X106.285 Y125.598 E7.94244
G1 X105.748 Y125.433 E7.9686
G1 X104.45 Y125.011 E8.03215
G1 X103.766 Y124.777 E8.06581
G1 X102.892 Y124.433 E8.10955
G1 X102.054 Y124.013 E8.1532
G1 X101.249 Y123.517 E8.19722
G1 X100.234 Y122.733 E8.25694
G1 X99.617 Y122.191 E8.29519
G1 X98.375 Y121.061 E8.37337
G1 X97.711 Y120.398 E8.41707
G1 X97.107 Y119.679 E8.46079
G1 X96.589 Y118.939 E8.50285
G1 X95.93 Y117.747 E8.56627
G1 X95.561 Y116.952 E8.60709
G1 X94.873 Y115.381 E8.68694
G1 X94.536 Y114.506 E8.73061
G1 X94.277 Y113.603 E8.77435
G1 X94.099 Y112.673 E8.81844
G1 X93.991 Y111.359 E8.87983
G1 X93.978 Y110.586 E8.91583
G1 X93.979 Y109.399 E8.9711
G1 X93.991 Y108.672 E9.00496
G1 X94.048 Y107.735 E9.04867
G1 X94.189 Y106.807 E9.09238
G1 X94.413 Y105.889 E9.13638
G1 X94.833 Y104.709 E9.1947
G1 X95.117 Y104.045 E9.22833
G1 X95.56 Y103.051 E9.279
G1 X95.914 Y102.287 E9.31821
G1 X96.331 Y101.486 E9.36026
G1 X96.855 Y100.666 E9.40557
G1 X97.406 Y99.95 E9.44764
G1 X98.267 Y99.041 E9.50594
G0 F6000 X98.54 Y99.333
G1 F1200 X99.121 Y98.791 E9.54294
G1 X99.916 Y98.077 E9.5927
G1 X100.513 Y97.556 E9.62959
G1 X101.22 Y96.993 E9.67168
G1 X101.973 Y96.495 E9.71371
G1 X102.768 Y96.066 E9.75578
G1 X103.872 Y95.609 E9.81142
G1 X104.64 Y95.346 E9.84922
G1 X106.29 Y94.821 E9.92984
G1 X107.162 Y94.586 E9.97189
G1 X108.051 Y94.428 E10.01394
G1 X108.951 Y94.35 E10.056
G1 X110.25 Y94.378 E10.1165
G1 X111.059 Y94.45 E10.15432
G1 X112.78 Y94.641 E10.23495
G1 X113.672 Y94.78 E10.27699
G1 X114.549 Y94.998 E10.31907
G1 X115.403 Y95.292 E10.36113
G1 X116.587 Y95.851 E10.42209
G1 X117.272 Y96.233 E10.45861
G1 X118.778 Y97.114 E10.53986
G1 X119.537 Y97.604 E10.58192
G1 X120.249 Y98.159 E10.62396
G1 X120.91 Y98.775 E10.66603
G1 X121.767 Y99.771 E10.72722
G1 X122.235 Y100.393 E10.76346
G1 X122.811 Y101.185 E10.80906
G1 X123.312 Y101.894 E10.84949
G1 X123.799 Y102.654 E10.89152
G1 X124.217 Y103.455 E10.93359
G1 X124.563 Y104.29 E10.97568
G1 X124.916 Y105.485 E11.0337
G1 X125.039 Y106.02 E11.05926
G1 X125.325 Y107.369 E11.12347
G1 X125.459 Y108.057 E11.15611
G1 X125.592 Y108.95 E11.19815
G1 X125.646 Y109.852 E11.24022
G1 X125.62 Y110.754 E11.28224
G1 X125.459 Y111.957 E11.33876
G1 X125.348 Y112.527 E11.3658
G1 X124.938 Y114.412 E11.45563
G1 X124.707 Y115.284 E11.49763
G1 X124.398 Y116.133 E11.5397
G1 X124.016 Y116.952 E11.58178
G1 X123.33 Y118.081 E11.64329
G1 X122.868 Y118.736 E11.68062
G1 X121.847 Y120.124 E11.76085
G1 X121.281 Y120.827 E11.80288
G1 X120.654 Y121.477 E11.84493
G1 X119.972 Y122.069 E11.88698
G1 X118.902 Y122.813 E11.94767
G1 X118.234 Y123.212 E11.9839
G1 X116.71 Y124.081 E12.06559
G1 X115.907 Y124.493 E12.10761
G1 X115.07 Y124.832 E12.14966
G1 X114.206 Y125.097 E12.19174
G1 X113.323 Y125.283 E12.23376
G1 X112.796 Y125.356 E12.25854
G1 X111.228 Y125.532 E12.33201
G1 X110.305 Y125.618 E12.37517
G1 X109.403 Y125.66 E12.41722
G1 X108.5 Y125.622 E12.4593
G1 X107.605 Y125.504 E12.50134
G1 X106.402 Y125.215 E12.55895
G1 X105.872 Y125.053 E12.58476
G1 X104.579 Y124.633 E12.64806
G1 X103.912 Y124.405 E12.68088
G1 X103.071 Y124.075 E12.72295
G1 X102.263 Y123.672 E12.76499
G1 X101.493 Y123.2 E12.80705
G1 X100.498 Y122.432 E12.86558
G1 X99.886 Y121.895 E12.90349
G1 X98.657 Y120.777 E12.98085
G1 X98.017 Y120.14 E13.0229
G1 X97.435 Y119.45 E13.06493
G1 X96.917 Y118.71 E13.10699
G1 X96.293 Y117.578 E13.16718
G1 X95.927 Y116.791 E13.20759
G1 X95.246 Y115.237 E13.2866
G1 X94.92 Y114.395 E13.32864
G1 X94.67 Y113.527 E13.3707
G1 X94.498 Y112.64 E13.41277
G1 X94.39 Y111.326 E13.47417
G1 X94.378 Y110.586 E13.50863
G1 X94.379 Y109.405 E13.56362
G1 X94.39 Y108.696 E13.59664
G1 X94.444 Y107.794 E13.63871
G1 X94.578 Y106.901 E13.68076
G1 X94.79 Y106.023 E13.72282
G1 X95.201 Y104.866 E13.77999
G1 X95.482 Y104.208 E13.81331
G1 X95.923 Y103.219 E13.86373
G1 X96.269 Y102.472 E13.90207
G1 X96.686 Y101.671 E13.94411
G1 X97.172 Y100.91 E13.98616
G1 X97.723 Y100.194 E14.02823
G1 X98.54 Y99.333 E14.0835
G1 F1500 E7.5835
;MESH:schradercap.stl
G0 F6000 X105.13 Y106.215
G0 X109.411 Y115.217
;TYPE:WALL-OUTER
G1 F1500 E14.0835
G1 F971.7 X107.331 Y114.541 E14.20927
G1 X105.713 Y113.083 E14.33452
G1 X104.823 Y111.087 E14.4602
G1 F969.7 X104.823 Y108.909 E14.5857
G1 X105.713 Y106.913 E14.71163
G1 X107.331 Y105.456 E14.8371
G1 X109.411 Y104.78 E14.96312
G1 X111.578 Y105.009 E15.08869
G1 F971.7 X113.47 Y106.1 E15.21429
G1 X114.749 Y107.867 E15.33973
G1 X115.203 Y110 E15.46514
G1 F973.6 X114.749 Y112.133 E15.59029
G1 F971.7 X113.47 Y113.896 E15.71555
G1 F969.7 X111.577 Y114.99 E15.84153
G1 X109.411 Y115.217 E15.96703
G0 F6000 X109.462 Y114.722
G1 F969.7 X111.424 Y114.513 E16.08072
G1 X113.135 Y113.524 E16.1946
G1 F971.7 X114.294 Y111.93 E16.30794
G1 F973.6 X114.703 Y110 E16.42116
G1 F971.7 X114.294 Y108.068 E16.53473
G1 X113.135 Y106.472 E16.64815
G1 X111.424 Y105.484 E16.76177
G1 F969.7 X109.462 Y105.277 E16.87546
G1 X107.58 Y105.889 E16.9895
G1 X106.121 Y107.203 E17.10264
G1 X105.313 Y109.01 E17.2167
G1 X105.313 Y110.986 E17.33056
G1 F971.7 X106.116 Y112.79 E17.44412
G1 X107.577 Y114.106 E17.55719
G1 X109.462 Y114.722 E17.67124
M104 S200
G1 F1500 E11.17124
;MESH:NONMESH
G0 F300 X109.462 Y114.722 Z0.56
G0 F6000 X109.383 Y114.966
G0 X107.484 Y114.285
G0 X105.955 Y112.908
G0 X105.117 Y111.029
G0 X105.117 Y108.971
G0 X105.855 Y107.019
G0 X105.13 Y106.215
G0 X98.54 Y99.333
;TIME_ELAPSED:25.746332
;LAYER:1
M117 2/62 | ET 8m
M106 S255
;TYPE:SKIRT
G1 F1500 E17.67124
G1 F1022.2 X99.121 Y98.791 E17.70823
G1 X99.916 Y98.077 E17.75799
G1 X100.513 Y97.556 E17.79489
G1 X101.22 Y96.993 E17.83697
G1 X101.973 Y96.495 E17.87901
G1 X102.768 Y96.066 E17.92107
G1 X103.872 Y95.609 E17.97671
G1 X104.64 Y95.346 E18.01451
G1 X106.29 Y94.821 E18.09513
G1 X107.162 Y94.586 E18.13719
G1 X108.051 Y94.428 E18.17923
G1 X108.951 Y94.35 E18.2213
G1 X110.25 Y94.378 E18.2818
G1 X111.059 Y94.45 E18.31962
G1 X112.78 Y94.641 E18.40025
G1 X113.672 Y94.78 E18.44228
G1 X114.549 Y94.998 E18.48436
G1 X115.403 Y95.292 E18.52642
G1 X116.587 Y95.851 E18.58739
G1 X117.272 Y96.233 E18.62391
G1 X118.778 Y97.114 E18.70515
G1 X119.537 Y97.604 E18.74722
G1 X120.249 Y98.159 E18.78925
G1 X120.91 Y98.775 E18.83133
G1 X121.767 Y99.771 E18.89251
G1 X122.235 Y100.393 E18.92875
G1 X122.811 Y101.185 E18.97436
G1 X123.312 Y101.894 E19.01478
G1 X123.799 Y102.654 E19.05681
G1 X124.217 Y103.455 E19.09888
G1 X124.563 Y104.29 E19.14097
G1 X124.916 Y105.485 E19.19899
G1 X125.039 Y106.02 E19.22455
G1 X125.325 Y107.369 E19.28876
G1 X125.459 Y108.057 E19.3214
G1 X125.592 Y108.95 E19.36344
G1 X125.646 Y109.852 E19.40552
G1 X125.62 Y110.754 E19.44754
G1 X125.459 Y111.957 E19.50405
G1 X125.348 Y112.527 E19.53109
G1 X124.938 Y114.412 E19.62092
G1 X124.707 Y115.284 E19.66292
G1 X124.398 Y116.133 E19.70499
G1 X124.016 Y116.952 E19.74707
G1 X123.33 Y118.081 E19.80859
G1 X122.868 Y118.736 E19.84591
G1 X121.847 Y120.124 E19.92614
G1 X121.281 Y120.827 E19.96817
G1 X120.654 Y121.477 E20.01022
G1 X119.972 Y122.069 E20.05228
G1 X118.902 Y122.813 E20.11296
G1 X118.234 Y123.212 E20.14919
G1 X116.71 Y124.081 E20.23088
G1 X115.907 Y124.493 E20.27291
G1 X115.07 Y124.832 E20.31496
G1 X114.206 Y125.097 E20.35704
G1 X113.323 Y125.283 E20.39906
G1 X112.796 Y125.356 E20.42383
G1 X111.228 Y125.532 E20.4973
G1 X110.305 Y125.618 E20.54047
G1 X109.403 Y125.66 E20.58251
G1 X108.5 Y125.622 E20.6246
G1 X107.605 Y125.504 E20.66663
G1 X106.402 Y125.215 E20.72424
G1 X105.872 Y125.053 E20.75005
G1 X104.579 Y124.633 E20.81335
G1 X103.912 Y124.405 E20.84618
G1 X103.071 Y124.075 E20.88824
G1 X102.263 Y123.672 E20.93029
G1 X101.493 Y123.2 E20.97234
G1 X100.498 Y122.432 E21.03087
G1 X99.886 Y121.895 E21.06878
G1 X98.657 Y120.777 E21.14614
G1 X98.017 Y120.14 E21.18819
G1 X97.435 Y119.45 E21.23022
G1 X96.917 Y118.71 E21.27228
G1 X96.293 Y117.578 E21.33247
G1 X95.927 Y116.791 E21.37289
G1 X95.246 Y115.237 E21.45189
G1 X94.92 Y114.395 E21.49393
G1 X94.67 Y113.527 E21.536
G1 X94.498 Y112.64 E21.57807
G1 X94.39 Y111.326 E21.63946
G1 X94.378 Y110.586 E21.67392
G1 X94.379 Y109.405 E21.72891
G1 X94.39 Y108.696 E21.76193
G1 X94.444 Y107.794 E21.80401
G1 X94.578 Y106.901 E21.84605
G1 X94.79 Y106.023 E21.88811
G1 X95.201 Y104.866 E21.94529
G1 X95.482 Y104.208 E21.9786
G1 X95.923 Y103.219 E22.02902
G1 X96.269 Y102.472 E22.06736
G1 X96.686 Y101.671 E22.10941
G1 X97.172 Y100.91 E22.15145
G1 X97.723 Y100.194 E22.19352
G1 X98.54 Y99.333 E22.24879
G1 F1500 E15.74879
;MESH:schradercap.stl
G0 F7500 X105.13 Y106.215
G0 X109.411 Y115.217
;TYPE:WALL-OUTER
G1 F1500 E22.24879
G1 F827.7 X107.331 Y114.541 E22.37456
G1 X105.713 Y113.083 E22.49981
G1 X104.823 Y111.087 E22.62549
G1 F826 X104.823 Y108.909 E22.75099
G1 X105.713 Y106.913 E22.87693
G1 F827.7 X107.331 Y105.455 E23.00218
G1 F826 X109.411 Y104.78 E23.12818
G1 X111.578 Y105.009 E23.25375
G1 F827.7 X113.47 Y106.1 E23.37935
G1 X114.749 Y107.867 E23.50479
G1 X115.203 Y110 E23.6302
G1 F829.4 X114.749 Y112.133 E23.75535
G1 F827.7 X113.47 Y113.896 E23.88061
G1 F826 X111.577 Y114.99 E24.00659
G1 X109.411 Y115.217 E24.13209
G0 F7500 X109.462 Y114.722
G1 F826 X111.424 Y114.513 E24.24578
G1 X113.135 Y113.524 E24.35966
G1 F827.7 X114.294 Y111.93 E24.473
G1 F829.4 X114.703 Y110 E24.58622
G1 F827.7 X114.294 Y108.068 E24.69979
G1 X113.135 Y106.472 E24.81321
G1 X111.424 Y105.484 E24.92683
G1 F826 X109.462 Y105.277 E25.04052
G1 X107.582 Y105.887 E25.15441
G1 F827.7 X106.121 Y107.203 E25.26749
G1 F826 X105.313 Y109.01 E25.38155
G1 X105.313 Y110.986 E25.49541
G1 F827.7 X106.116 Y112.79 E25.60897
G1 X107.577 Y114.106 E25.72204
G1 X109.462 Y114.722 E25.83608
G1 F1500 E19.33608
;MESH:NONMESH
G0 F300 X109.462 Y114.722 Z0.84
G0 F7500 X109.383 Y114.966
G0 X107.484 Y114.285
G0 X105.955 Y112.908
G0 X105.117 Y111.029
G0 X105.117 Y108.971
G0 X105.855 Y107.019
G0 X105.13 Y106.215
G0 X98.54 Y99.333
;TIME_ELAPSED:38.482731
;LAYER:2
M117 3/62 | ET 7m
;TYPE:SKIRT
G1 F1500 E25.83608
G1 F1016.6 X99.121 Y98.791 E25.87308
G1 X99.916 Y98.077 E25.92284
G1 X100.513 Y97.556 E25.95973
G1 X101.22 Y96.993 E26.00182
G1 X101.973 Y96.495 E26.04386
G1 X102.768 Y96.066 E26.08592
G1 X103.872 Y95.609 E26.14156
G1 X104.64 Y95.346 E26.17936
