;FLAVOR:Marlin
;TIME:4818
;Filament used: 2.91708m
;Layer height: 0.2
;MINX:25.525
;MINY:42.383
;MINZ:0.2
;MAXX:193.274
;MAXY:177.667
;MAXZ:2
;TARGET_MACHINE.NAME:Creality Ender-3 Pro
;Generated with Cura_SteamEngine 5.7.0
M82 ;absolute extrusion mode
; Ender 3 Custom Start G-code
G92 E0 ; Reset Extruder
G28 ; Home all axes
G1 Z5.0 F3000 ; Move Z Axis up a bit during heating to not damage bed
M104 S175 ; Start heating up the nozzle most of the way
M190 S60 ; Start heating the bed, wait until target temperature reached
M109 S200 ; Finish heating the nozzle
G1 Z2.0 F3000 ; Move Z Axis up little to prevent scratching of Heat Bed
G1 X0.1 Y20 Z0.3 F5000.0 ; Move to start position
G1 X0.1 Y200.0 Z0.3 F1500.0 E15 ; Draw the first line
G1 X0.4 Y200.0 Z0.3 F5000.0 ; Move to side a little
G1 X0.4 Y20 Z0.3 F1500.0 E30 ; Draw the second line
G92 E0 ; Reset Extruder
G1 Z2.0 F3000 ; Move Z Axis up little to prevent scratching of Heat Bed
G1 X5 Y20 Z0.3 F5000.0 ; Move over to prevent blob squish
G92 E0
G92 E0
G1 F1500 E-6.5
;LAYER_COUNT:10
;LAYER:0
M107
G0 F6000 X31.465 Y44.463 Z0.2
;TYPE:SKIRT
G1 F1500 E0
G1 F1200 X32.243 Y44.005 E0.03003
G1 X32.925 Y43.67 E0.0553
G1 X33.38 Y43.466 E0.07188
G1 X34.219 Y43.132 E0.10192
G1 X35.353 Y42.802 E0.1412
G1 X35.862 Y42.685 E0.15857
G1 X36.833 Y42.506 E0.19141
G1 X38.116 Y42.405 E0.23422
G1 X39.349 Y42.383 E0.27523
G1 X80.309 Y42.385 E1.63757
G1 X85.183 Y42.484 E1.79971
G1 X95.516 Y42.484 E2.14339
G1 X98.017 Y42.451 E2.22658
G1 X99.584 Y42.42 E2.27871
G1 X100.436 Y42.439 E2.30705
G1 X103.58 Y42.629 E2.41181
G1 X106.094 Y42.704 E2.49547
G1 X108.588 Y42.709 E2.57842
G1 X111.136 Y42.642 E2.66319
G1 X114.053 Y42.477 E2.76037
G1 X115.93 Y42.434 E2.82281
G1 X160.54 Y42.435 E4.30655
G1 X161.401 Y42.448 E4.33519
G1 X164.112 Y42.525 E4.42539
G1 X165.41 Y42.534 E4.46857
G1 X175.816 Y42.534 E4.81467
G1 X178.3 Y42.502 E4.8973
G1 X179.845 Y42.472 E4.94869
G1 X180.748 Y42.494 E4.97874
G1 X181.787 Y42.612 E5.01351
G1 X182.736 Y42.809 E5.04575
G1 X183.594 Y43.062 E5.0755
G1 X184.5 Y43.395 E5.10761
G1 X184.832 Y43.535 E5.11959
G1 X185.746 Y43.973 E5.1533
G1 X186.73 Y44.537 E5.19103
G1 X187.546 Y45.1 E5.224
G1 X187.826 Y45.311 E5.23566
G1 X188.599 Y45.953 E5.26908
G1 X188.888 Y46.218 E5.28212
G1 X189.548 Y46.879 E5.31319
G1 X189.99 Y47.394 E5.33576
G1 X190.287 Y47.765 E5.35157
G1 X190.901 Y48.608 E5.38626
G1 X191.111 Y48.931 E5.39907
G1 X191.603 Y49.762 E5.43119
G1 X191.904 Y50.374 E5.45387
G1 X192.121 Y50.853 E5.47136
G1 X192.48 Y51.751 E5.50353
G1 X192.716 Y52.514 E5.53009
G1 X192.833 Y52.953 E5.5452
G1 X193.068 Y54.064 E5.58297
G1 X193.124 Y54.421 E5.59499
G1 X193.228 Y55.347 E5.62599
G1 X193.252 Y55.935 E5.64556
G1 X193.274 Y57.572 E5.70001
G1 X192.735 Y143.769 E8.56699
G1 X192.759 Y146.712 E8.66488
G1 X192.758 Y162.289 E9.18297
G1 X192.745 Y163.06 E9.20862
G1 X192.685 Y164.032 E9.24101
G1 X192.538 Y164.993 E9.27334
G1 X192.313 Y165.924 E9.3052
G1 X192.159 Y166.411 E9.32219
G1 X191.979 Y166.938 E9.34071
G1 X191.717 Y167.622 E9.36507
G1 X191.562 Y167.99 E9.37835
G1 X191.298 Y168.564 E9.39937
G1 X191.132 Y168.898 E9.41177
G1 X190.778 Y169.552 E9.43651
G1 X190.601 Y169.854 E9.44815
G1 X190.226 Y170.45 E9.47157
G1 X189.997 Y170.787 E9.48512
G1 X189.467 Y171.503 E9.51475
G1 X189.008 Y172.055 E9.53863
G1 X188.645 Y172.463 E9.55679
G1 X188.036 Y173.095 E9.58598
G1 X187.497 Y173.593 E9.61039
G1 X187.199 Y173.851 E9.6235
G1 X186.61 Y174.324 E9.64863
G1 X186.149 Y174.667 E9.66774
G1 X185.064 Y175.376 E9.71085
G1 X184.54 Y175.674 E9.7309
G1 X183.885 Y176.014 E9.75544
G1 X183.01 Y176.408 E9.78736
G1 X182.584 Y176.579 E9.80263
G1 X181.861 Y176.839 E9.82818
G1 X181.032 Y177.086 E9.85695
G1 X180.607 Y177.196 E9.87155
G1 X179.898 Y177.351 E9.89569
G1 X179.553 Y177.416 E9.90737
G1 X178.878 Y177.518 E9.93007
G1 X178.418 Y177.57 E9.94547
G1 X177.426 Y177.638 E9.97854
G1 X176.141 Y177.666 E10.02129
G1 X117.056 Y177.667 E11.98647
G1 X116.03 Y177.648 E12.0206
G1 X115.325 Y177.613 E12.04407
G1 X113.718 Y177.478 E12.09771
G1 X111.139 Y177.298 E12.1837
G1 X108.62 Y177.194 E12.26755
G1 X106.115 Y177.161 E12.35088
G1 X103.586 Y177.2 E12.435
G1 X101.07 Y177.31 E12.51876
G1 X97.722 Y177.556 E12.63042
G1 X96.686 Y177.603 E12.66491
G1 X95.9 Y177.616 E12.69106
G1 X38.923 Y177.616 E14.58612
G1 X38.17 Y177.603 E14.61117
G1 X37.239 Y177.547 E14.64219
G1 X36.623 Y177.466 E14.66285
G1 X36.222 Y177.401 E14.67637
G1 X35.268 Y177.2 E14.70879
G1 X34.404 Y176.939 E14.73881
G1 X33.68 Y176.661 E14.76461
G1 X33.233 Y176.469 E14.78079
G1 X32.368 Y176.05 E14.81275
G1 X31.273 Y175.376 E14.85552
G1 X30.875 Y175.096 E14.87171
G1 X30.129 Y174.518 E14.90309
G1 X29.224 Y173.662 E14.94453
G1 X28.802 Y173.211 E14.96507
G1 X28.169 Y172.47 E14.99748
G1 X27.605 Y171.677 E15.02985
G1 X27.147 Y170.899 E15.05988
G1 X26.809 Y170.21 E15.0854
G1 X26.604 Y169.751 E15.10212
G1 X26.259 Y168.876 E15.1334
G1 X25.942 Y167.785 E15.17119
G1 X25.826 Y167.28 E15.18843
G1 X25.648 Y166.309 E15.22126
G1 X25.547 Y165.024 E15.26413
G1 X25.525 Y163.779 E15.30555
G1 X25.526 Y55.764 E18.89814
G1 X25.539 Y55.025 E18.92272
G1 X25.595 Y54.094 E18.95374
G1 X25.675 Y53.486 E18.97414
G1 X25.74 Y53.083 E18.98772
G1 X25.941 Y52.131 E19.02008
G1 X26.221 Y51.207 E19.05219
G1 X26.485 Y50.528 E19.07642
G1 X26.669 Y50.099 E19.09195
G1 X27.096 Y49.218 E19.12451
G1 X27.766 Y48.131 E19.16698
G1 X28.046 Y47.733 E19.18316
G1 X28.624 Y46.987 E19.21455
G1 X29.48 Y46.082 E19.25599
G1 X29.931 Y45.66 E19.27653
G1 X30.672 Y45.027 E19.30894
G1 X31.465 Y44.463 E19.34131
G0 F6000 X31.668 Y44.808
G1 F1200 X32.446 Y44.35 E19.37134
G1 X33.089 Y44.035 E19.39515
G1 X33.528 Y43.838 E19.41115
G1 X34.367 Y43.504 E19.44119
G1 X35.443 Y43.192 E19.47845
G1 X35.935 Y43.078 E19.49525
G1 X36.865 Y42.905 E19.52671
G1 X38.123 Y42.805 E19.56868
G1 X39.349 Y42.783 E19.60947
G1 X80.301 Y42.785 E20.97154
G1 X85.175 Y42.884 E21.13368
G1 X95.521 Y42.884 E21.47779
G1 X98.025 Y42.851 E21.56108
G1 X99.575 Y42.82 E21.61264
G1 X100.412 Y42.838 E21.64049
G1 X103.568 Y43.029 E21.74565
G1 X106.082 Y43.104 E21.8293
G1 X108.598 Y43.109 E21.91299
G1 X111.147 Y43.042 E21.9978
G1 X114.076 Y42.876 E22.09537
G1 X115.93 Y42.834 E22.15705
G1 X160.534 Y42.835 E23.64059
G1 X161.39 Y42.848 E23.66906
G1 X164.101 Y42.925 E23.75926
G1 X165.407 Y42.934 E23.8027
G1 X175.821 Y42.934 E24.14907
G1 X178.308 Y42.902 E24.2318
G1 X179.835 Y42.872 E24.2826
G1 X180.738 Y42.894 E24.31264
G1 X181.706 Y43.004 E24.34504
G1 X182.623 Y43.193 E24.37618
G1 X183.456 Y43.438 E24.40506
G1 X184.345 Y43.764 E24.43656
G1 X184.659 Y43.896 E24.44788
G1 X185.573 Y44.334 E24.4816
G1 X186.503 Y44.866 E24.51723
G1 X187.305 Y45.419 E24.54963
G1 X187.57 Y45.619 E24.56067
G1 X188.343 Y46.261 E24.59409
G1 X188.605 Y46.501 E24.60591
G1 X189.244 Y47.14 E24.63597
G1 X189.686 Y47.655 E24.65854
G1 X189.964 Y48 E24.67328
G1 X190.566 Y48.827 E24.7073
G1 X190.767 Y49.135 E24.71953
G1 X191.244 Y49.939 E24.75063
G1 X191.54 Y50.539 E24.77288
G1 X191.75 Y51.002 E24.78979
G1 X192.098 Y51.869 E24.82086
G1 X192.33 Y52.618 E24.84694
G1 X192.442 Y53.036 E24.86133
G1 X192.673 Y54.125 E24.89836
G1 X192.726 Y54.466 E24.90984
G1 X192.83 Y55.392 E24.94083
G1 X192.852 Y55.94 E24.95907
G1 X192.874 Y57.569 E25.01326
G1 X192.335 Y143.766 E27.88024
G1 X192.359 Y146.712 E27.97822
G1 X192.358 Y162.283 E28.49612
G1 X192.346 Y163.036 E28.52117
G1 X192.289 Y163.972 E28.55235
G1 X192.149 Y164.899 E28.58354
G1 X191.931 Y165.804 E28.6145
G1 X191.781 Y166.281 E28.63113
G1 X191.605 Y166.795 E28.6492
G1 X191.348 Y167.467 E28.67313
G1 X191.198 Y167.823 E28.68598
G1 X190.94 Y168.386 E28.70658
G1 X190.78 Y168.708 E28.71853
G1 X190.433 Y169.35 E28.74281
G1 X190.263 Y169.641 E28.75402
G1 X189.895 Y170.225 E28.77697
G1 X189.675 Y170.549 E28.79
G1 X189.145 Y171.265 E28.81963
G1 X188.709 Y171.789 E28.8423
G1 X188.357 Y172.185 E28.85992
G1 X187.748 Y172.817 E28.88912
G1 X187.235 Y173.291 E28.91235
G1 X186.949 Y173.539 E28.92494
G1 X186.371 Y174.003 E28.94959
G1 X185.93 Y174.332 E28.96789
G1 X184.845 Y175.041 E29.011
G1 X184.355 Y175.319 E29.02974
G1 X183.721 Y175.649 E29.05351
G1 X182.861 Y176.037 E29.08489
G1 X182.448 Y176.203 E29.09969
G1 X181.747 Y176.456 E29.12448
G1 X180.932 Y176.699 E29.15277
G1 X180.521 Y176.805 E29.16688
G1 X179.825 Y176.958 E29.19059
G1 X179.493 Y177.02 E29.20182
G1 X178.818 Y177.122 E29.22452
G1 X178.391 Y177.171 E29.23882
G1 X177.417 Y177.238 E29.27129
G1 X176.141 Y177.266 E29.31374
G1 X117.063 Y177.267 E31.27868
G1 X116.05 Y177.249 E31.31238
G1 X115.358 Y177.214 E31.33543
G1 X113.751 Y177.079 E31.38906
G1 X111.156 Y176.898 E31.47558
G1 X108.637 Y176.794 E31.55944
G1 X106.114 Y176.761 E31.64336
G1 X103.569 Y176.8 E31.72802
G1 X101.053 Y176.91 E31.81178
G1 X97.704 Y177.156 E31.92347
G1 X96.679 Y177.203 E31.9576
G1 X95.893 Y177.216 E31.98374
G1 X38.93 Y177.216 E33.87834
G1 X38.194 Y177.204 E33.90282
G1 X37.263 Y177.148 E33.93384
G1 X36.687 Y177.071 E33.95317
G1 X36.304 Y177.009 E33.96608
G1 X35.384 Y176.817 E33.99733
G1 X34.52 Y176.556 E34.02735
G1 X33.838 Y176.293 E34.05166
G1 X33.391 Y176.101 E34.06785
G1 X32.578 Y175.709 E34.09786
G1 X31.483 Y175.035 E34.14063
G1 X31.119 Y174.779 E34.15543
G1 X30.404 Y174.227 E34.18548
G1 X29.499 Y173.371 E34.22691
G1 X29.106 Y172.951 E34.24604
G1 X28.495 Y172.238 E34.27727
G1 X27.95 Y171.474 E34.30848
G1 X27.492 Y170.696 E34.33851
G1 X27.174 Y170.047 E34.36255
G1 X26.976 Y169.604 E34.37869
G1 X26.643 Y168.764 E34.40874
G1 X26.332 Y167.695 E34.44577
G1 X26.219 Y167.207 E34.46243
G1 X26.047 Y166.277 E34.49389
G1 X25.947 Y165.017 E34.53593
G1 X25.925 Y163.779 E34.57711
G1 X25.926 Y55.771 E38.16947
G1 X25.938 Y55.049 E38.19349
G1 X25.994 Y54.118 E38.22451
G1 X26.07 Y53.55 E38.24357
G1 X26.132 Y53.165 E38.25654
G1 X26.324 Y52.247 E38.28773
G1 X26.594 Y51.352 E38.31882
G1 X26.853 Y50.686 E38.34259
G1 X27.037 Y50.257 E38.35812
G1 X27.437 Y49.428 E38.38873
G1 X28.107 Y48.341 E38.4312
G1 X28.363 Y47.977 E38.446
G1 X28.915 Y47.262 E38.47605
G1 X29.771 Y46.357 E38.51748
G1 X30.191 Y45.964 E38.53661
G1 X30.904 Y45.353 E38.56784
G1 X31.668 Y44.808 E38.59905
G0 F6000 X31.871 Y45.153
G1 F1200 X32.649 Y44.695 E38.62908
G1 X33.253 Y44.4 E38.65144
G1 X33.676 Y44.21 E38.66686
G1 X34.515 Y43.876 E38.6969
G1 X35.534 Y43.582 E38.73217
G1 X36.009 Y43.471 E38.7484
G1 X36.897 Y43.304 E38.77845
G1 X38.13 Y43.205 E38.81959
G1 X39.349 Y43.183 E38.86014
G1 X80.293 Y43.185 E40.22194
G1 X85.167 Y43.284 E40.38409
G1 X95.526 Y43.284 E40.72863
G1 X98.033 Y43.251 E40.81202
G1 X99.567 Y43.22 E40.86305
G1 X100.388 Y43.237 E40.89036
G1 X103.556 Y43.429 E40.99592
G1 X106.07 Y43.504 E41.07958
G1 X108.608 Y43.509 E41.16399
G1 X111.158 Y43.442 E41.24883
G1 X114.099 Y43.275 E41.34681
G1 X115.93 Y43.234 E41.40772
G1 X160.528 Y43.235 E42.89106
G1 X161.379 Y43.248 E42.91937
G1 X164.09 Y43.325 E43.00957
G1 X165.404 Y43.334 E43.05328
G1 X175.826 Y43.334 E43.39991
G1 X178.316 Y43.302 E43.48274
G1 X179.825 Y43.272 E43.53294
G1 X180.728 Y43.294 E43.56298
G1 X181.626 Y43.396 E43.59304
G1 X182.51 Y43.577 E43.62305
G1 X183.343 Y43.822 E43.65193
G1 X184.19 Y44.133 E43.68194
G1 X184.486 Y44.257 E43.69262
G1 X185.4 Y44.695 E43.72633
G1 X186.276 Y45.196 E43.75989
G1 X187.065 Y45.739 E43.79175
G1 X187.315 Y45.927 E43.80215
G1 X188.073 Y46.556 E43.83491
G1 X188.322 Y46.784 E43.84614
G1 X188.961 Y47.423 E43.8762
G1 X189.375 Y47.906 E43.89736
G1 X189.641 Y48.236 E43.91145
G1 X190.231 Y49.046 E43.94478
G1 X190.423 Y49.339 E43.95643
G1 X190.885 Y50.116 E43.9865
G1 X191.176 Y50.705 E44.00835
G1 X191.379 Y51.151 E44.02465
G1 X191.716 Y51.988 E44.05466
G1 X191.944 Y52.722 E44.08022
G1 X192.051 Y53.119 E44.0939
G1 X192.278 Y54.187 E44.13021
G1 X192.329 Y54.511 E44.14112
G1 X192.43 Y55.408 E44.17115
G1 X192.452 Y55.945 E44.18902
G1 X192.474 Y57.566 E44.24294
G1 X191.935 Y143.763 E47.10992
G1 X191.959 Y146.712 E47.20801
G1 X191.958 Y162.277 E47.7257
G1 X191.947 Y163.012 E47.75015
G1 X191.893 Y163.913 E47.78017
G1 X191.76 Y164.806 E47.8102
G1 X191.549 Y165.684 E47.84024
G1 X191.399 Y166.161 E47.85687
G1 X191.231 Y166.652 E47.87413
G1 X190.979 Y167.312 E47.89762
G1 X190.834 Y167.656 E47.91004
G1 X190.576 Y168.219 E47.93064
G1 X190.428 Y168.518 E47.94174
G1 X190.088 Y169.148 E47.96555
G1 X189.924 Y169.428 E47.97634
G1 X189.564 Y170 E47.99882
G1 X189.353 Y170.311 E48.01132
G1 X188.837 Y171.009 E48.04019
G1 X188.41 Y171.523 E48.06241
G1 X188.069 Y171.907 E48.07949
G1 X187.46 Y172.539 E48.10869
G1 X186.973 Y172.989 E48.13074
G1 X186.698 Y173.227 E48.14284
G1 X186.131 Y173.683 E48.16704
G1 X185.711 Y173.997 E48.18448
G1 X184.626 Y174.706 E48.22759
G1 X184.17 Y174.964 E48.24501
G1 X183.548 Y175.288 E48.26834
G1 X183.295 Y175.409 E48.27767
G1 X182.711 Y175.666 E48.29889
G1 X182.312 Y175.827 E48.3132
G1 X181.633 Y176.073 E48.33722
G1 X180.832 Y176.312 E48.36502
G1 X180.435 Y176.414 E48.37865
G1 X179.752 Y176.565 E48.40192
G1 X179.433 Y176.624 E48.41271
G1 X178.758 Y176.726 E48.43541
G1 X178.363 Y176.772 E48.44864
G1 X177.408 Y176.838 E48.48048
G1 X176.141 Y176.866 E48.52263
G1 X117.07 Y176.867 E50.48734
G1 X116.071 Y176.85 E50.52057
G1 X115.391 Y176.815 E50.54322
G1 X113.784 Y176.68 E50.59686
G1 X111.173 Y176.498 E50.68391
G1 X108.654 Y176.394 E50.76776
G1 X106.113 Y176.361 E50.85228
G1 X103.552 Y176.4 E50.93747
G1 X101.036 Y176.51 E51.02124
G1 X97.685 Y176.756 E51.13299
G1 X96.672 Y176.803 E51.16672
G1 X95.886 Y176.816 E51.19287
G1 X38.936 Y176.816 E53.08703
G1 X38.218 Y176.805 E53.11091
G1 X37.316 Y176.751 E53.14097
G1 X36.751 Y176.676 E53.15992
G1 X36.385 Y176.617 E53.17226
G1 X35.5 Y176.434 E53.20231
G1 X34.636 Y176.173 E53.23233
G1 X33.995 Y175.925 E53.25519
G1 X33.565 Y175.741 E53.27075
G1 X32.752 Y175.349 E53.30077
G1 X31.713 Y174.708 E53.34137
G1 X31.363 Y174.462 E53.3556
G1 X30.648 Y173.91 E53.38564
G1 X29.791 Y173.097 E53.42493
G1 X29.409 Y172.69 E53.4435
G1 X28.82 Y172.005 E53.47355
G1 X28.295 Y171.271 E53.50356
G1 X27.837 Y170.493 E53.53359
G1 X27.539 Y169.883 E53.55617
G1 X27.348 Y169.457 E53.5717
G1 X27.015 Y168.617 E53.60175
G1 X26.722 Y167.604 E53.63682
G1 X26.612 Y167.133 E53.65291
G1 X26.446 Y166.245 E53.68296
G1 X26.347 Y165.01 E53.72417
G1 X26.325 Y163.779 E53.76512
G1 X26.326 Y55.777 E57.35728
G1 X26.337 Y55.073 E57.3807
G1 X26.391 Y54.171 E57.41075
G1 X26.465 Y53.613 E57.42947
G1 X26.524 Y53.246 E57.44183
G1 X26.707 Y52.362 E57.47186
G1 X26.967 Y51.497 E57.5019
G1 X27.221 Y50.844 E57.52521
G1 X27.405 Y50.415 E57.54073
G1 X27.797 Y49.602 E57.57075
G1 X28.434 Y48.571 E57.61106
G1 X28.68 Y48.221 E57.62529
G1 X29.232 Y47.506 E57.65533
G1 X30.045 Y46.649 E57.69462
G1 X30.452 Y46.267 E57.71319
G1 X31.137 Y45.678 E57.74323
G1 X31.871 Y45.153 E57.77325
G1 F1500 E51.27325
;MESH:Narrower_Lock_Pick_Set.stl
G0 F6000 X35.946 Y54.653
G0 X48.364 Y120.723
;TYPE:WALL-INNER
G1 F1500 E57.77325
G1 F1200 X48.682 Y120.44 E57.78741
G1 X48.784 Y120.248 E57.79464
G1 X48.848 Y119.975 E57.80396
G1 X48.848 Y61.906 E59.73535
G1 X48.733 Y61.875 E59.73931
G1 X48.618 Y61.779 E59.74429
G1 X48.503 Y61.875 E59.74927
G1 X48.2 Y61.956 E59.75971
G1 X44.468 Y61.956 E59.88383
G1 X44.468 Y117.86 E61.74321
G1 X44.376 Y118.116 E61.75225
G1 X44.165 Y118.232 E61.76026
G1 X44.376 Y118.348 E61.76827
G1 X44.469 Y118.661 E61.77913
G1 X44.468 Y119.887 E61.81991
G1 X44.506 Y120.197 E61.8303
G1 X44.633 Y120.436 E61.8393
G1 X44.778 Y120.6 E61.84658
G1 X45.032 Y120.776 E61.85686
G1 X45.474 Y120.85 E61.87176
G1 X45.619 Y120.925 E61.87719
G1 F971.7 X45.966 Y121.416 E61.90189
G1 X46.322 Y120.931 E61.9266
G1 F1200 X46.653 Y120.828 E61.93813
G1 X48.083 Y120.828 E61.98569
G1 X48.364 Y120.723 E61.99567
G0 F6000 X48.355 Y120.601
G0 X46.232 Y121.003
G0 X45.966 Y121.416
G1 F820.5 X45.969 Y137.823 E62.79376
G1 F829 X45.972 Y154.23 E63.58366
G1 F898.9 X46.014 Y155.254 E63.62916
G1 F1052.6 X46.05 Y155.765 E63.64859
G1 F1500 E57.14859
G0 F6000 X46.232 Y121.003
G0 X48.82 Y120.532
G0 X49.022 Y61.787
G0 X48.608 Y61.787
G0 X48.608 Y54.69
G0 X55.596 Y54.69
G0 X55.596 Y61.787
G0 X53.908 Y61.787
G0 X54.139 Y120.593
G0 X56.399 Y121.005
G0 X56.409 Y151.473
G0 X57.573 Y153.893
G0 X56.304 Y156.56
G1 F1500 E63.64859
G1 F1032.3 X56.583 Y157.212 E63.67601
