;FLAVOR:Marlin
;TIME:10197
;Filament used: 5.3433m
;Layer height: 0.2
;MINX:55.654
;MINY:37.81
;MINZ:0.2
;MAXX:164.324
;MAXY:152.403
;MAXZ:83.2
;TARGET_MACHINE.NAME:Creality Ender-3 Pro
;Generated with Cura_SteamEngine 5.7.0
M82 ;absolute extrusion mode
; Ender 3 Custom Start G-code
G92 E0 ; Reset Extruder
G28 ; Home all axes
G1 Z5.0 F3000 ; Move Z Axis up a bit during heating to not damage bed
M104 S175 ; Start heating up the nozzle most of the way
M190 S60 ; Start heating the bed, wait until target temperature reached
M109 S200 ; Finish heating the nozzle
G1 Z2.0 F3000 ; Move Z Axis up little to prevent scratching of Heat Bed
G1 X0.1 Y20 Z0.3 F5000.0 ; Move to start position
G1 X0.1 Y200.0 Z0.3 F1500.0 E15 ; Draw the first line
G1 X0.4 Y200.0 Z0.3 F5000.0 ; Move to side a little
G1 X0.4 Y20 Z0.3 F1500.0 E30 ; Draw the second line
G92 E0 ; Reset Extruder
G1 Z2.0 F3000 ; Move Z Axis up little to prevent scratching of Heat Bed
G1 X5 Y20 Z0.3 F5000.0 ; Move over to prevent blob squish
G92 E0
G92 E0
G1 F1500 E-6.5
;LAYER_COUNT:416
;LAYER:0
M107
G0 F6000 X59.988 Y68.101 Z0.2
;TYPE:SKIRT
G1 F1500 E0
G1 F1200 X62.186 Y66.189 E0.09689
G1 X62.893 Y65.632 E0.12683
G1 X63.504 Y65.19 E0.15191
G1 X64.518 Y64.477 E0.19314
G1 X66.569 Y62.949 E0.27821
G1 X68.494 Y61.428 E0.35981
G1 X70.473 Y59.773 E0.44561
G1 X72.331 Y58.124 E0.52824
G1 X74.17 Y56.399 E0.6121
G1 X75.952 Y54.633 E0.69555
G1 X77.711 Y52.783 E0.78045
G1 X79.389 Y50.92 E0.86384
G1 X81.004 Y49.018 E0.94683
G1 X82.605 Y47.024 E1.03188
G1 X84.076 Y45.076 E1.11307
G1 X84.958 Y43.836 E1.16368
G1 X85.526 Y43.06 E1.19567
G1 X86.136 Y42.301 E1.22806
G1 X86.761 Y41.649 E1.2581
G1 X87.548 Y40.961 E1.29286
G1 X88.306 Y40.411 E1.32401
G1 X89.077 Y39.944 E1.35399
G1 X89.783 Y39.555 E1.3808
G1 X90.658 Y39.125 E1.41323
G1 X91.566 Y38.776 E1.44559
G1 X92.514 Y38.504 E1.47839
G1 X93.719 Y38.288 E1.51911
G1 X94.58 Y38.188 E1.54793
G1 X95.405 Y38.108 E1.5755
G1 X97.452 Y37.947 E1.6438
G1 X99.183 Y37.843 E1.70147
G1 X99.919 Y37.811 E1.72598
G1 X100.857 Y37.81 E1.75717
G1 X101.811 Y37.892 E1.78902
G1 X102.962 Y38.044 E1.82764
G1 X106.1 Y38.509 E1.93315
G1 X108.601 Y38.809 E2.01693
G1 X111.101 Y39.037 E2.10042
G1 X113.587 Y39.192 E2.18327
G1 X116.13 Y39.279 E2.2679
G1 X118.652 Y39.294 E2.35178
G1 X121.152 Y39.238 E2.43495
G1 X123.67 Y39.112 E2.51881
G1 X126.176 Y38.912 E2.60242
G1 X128.654 Y38.644 E2.68532
G1 X130.461 Y38.387 E2.74603
G1 X130.922 Y38.342 E2.76143
G1 X131.907 Y38.204 E2.79451
G1 X132.841 Y38.115 E2.82572
G1 X133.986 Y38.055 E2.86385
G1 X135.591 Y38.005 E2.91726
G1 X140.696 Y37.912 E3.08708
G1 X143.233 Y37.895 E3.17147
G1 X144.012 Y37.902 E3.19738
G1 X144.984 Y37.954 E3.22975
G1 X145.948 Y38.093 E3.26215
G1 X146.896 Y38.316 E3.29454
G1 X147.821 Y38.623 E3.32695
G1 X148.715 Y39.01 E3.35935
G1 X149.571 Y39.474 E3.39174
G1 X150.385 Y40.014 E3.42423
G1 X151.214 Y40.681 E3.45962
G1 X151.653 Y41.072 E3.47917
G1 X152.357 Y41.76 E3.51191
G1 X152.849 Y42.322 E3.53675
G1 X153.138 Y42.678 E3.552
G1 X153.717 Y43.46 E3.58437
G1 X154.225 Y44.29 E3.61673
G1 X154.643 Y45.13 E3.64794
G1 X155.001 Y46.041 E3.68049
G1 X155.246 Y46.784 E3.70652
G1 X155.427 Y47.399 E3.72784
G1 X155.576 Y47.967 E3.74737
G1 X155.77 Y48.788 E3.77543
G1 X156.394 Y51.288 E3.86113
G1 X157.071 Y53.701 E3.94448
G1 X157.827 Y56.132 E4.02916
G1 X158.633 Y58.486 E4.11192
G1 X159.522 Y60.861 E4.19626
G1 X160.467 Y63.19 E4.27986
G1 X161.482 Y65.493 E4.36357
G1 X162.826 Y68.311 E4.46741
G1 X163.056 Y68.83 E4.48629
G1 X163.396 Y69.668 E4.51637
G1 X163.637 Y70.315 E4.53933
G1 X163.935 Y71.243 E4.57175
G1 X164.149 Y72.193 E4.60414
G1 X164.28 Y73.158 E4.63653
G1 X164.324 Y74.06 E4.66656
G1 X164.235 Y75.541 E4.71591
G1 X164.084 Y76.702 E4.75485
G1 X163.69 Y79.37 E4.84455
G1 X163.163 Y82.673 E4.9558
G1 X163.01 Y83.54 E4.98508
G1 X162.796 Y84.489 E5.01744
G1 X162.499 Y85.416 E5.04981
G1 X162.125 Y86.308 E5.08198
G1 X161.79 Y86.957 E5.10628
G1 X161.402 Y87.651 E5.13272
G1 X159.302 Y91.267 E5.2718
G1 X157.882 Y93.631 E5.36352
G1 X157.436 Y94.353 E5.39175
G1 X156.889 Y95.152 E5.42395
G1 X156.4 Y95.756 E5.4498
G1 X154.329 Y98.136 E5.55473
G1 X152.745 Y100.071 E5.63791
G1 X151.2 Y102.072 E5.72199
G1 X149.734 Y104.086 E5.80484
G1 X148.303 Y106.173 E5.88901
G1 X146.939 Y108.287 E5.97268
G1 X145.628 Y110.455 E6.05695
G1 X144.385 Y112.648 E6.14079
G1 X143.239 Y114.806 E6.22206
G1 X142.094 Y117.122 E6.30799
G1 X141.04 Y119.41 E6.39178
G1 X140.057 Y121.718 E6.47521
G1 X139.136 Y124.058 E6.55885
G1 X138.285 Y126.417 E6.64226
G1 X137.488 Y128.838 E6.72704
G1 X136.778 Y131.222 E6.80977
G1 X136.25 Y133.159 E6.87655
G1 X136.074 Y133.733 E6.89651
G1 X135.712 Y134.815 E6.93446
G1 X135.452 Y135.53 E6.95977
G1 X135.182 Y136.192 E6.98355
G1 X134.711 Y137.241 E7.02179
G1 X134.402 Y137.885 E7.04555
G1 X134.069 Y138.513 E7.06919
G1 X133.489 Y139.527 E7.10804
G1 X133.091 Y140.18 E7.13348
G1 X132.717 Y140.745 E7.15602
G1 X132.05 Y141.683 E7.1943
G1 X131.588 Y142.295 E7.2198
G1 X131.161 Y142.82 E7.24231
G1 X130.402 Y143.694 E7.28081
G1 X129.872 Y144.27 E7.30684
G1 X129.408 Y144.737 E7.32874
G1 X128.574 Y145.525 E7.3669
G1 X127.979 Y146.056 E7.39343
G1 X127.483 Y146.464 E7.41479
G1 X126.554 Y147.184 E7.45388
G1 X125.915 Y147.651 E7.4802
G1 X125.371 Y148.017 E7.50201
G1 X124.43 Y148.607 E7.53895
G1 X123.741 Y149.014 E7.56557
G1 X123.145 Y149.336 E7.5881
G1 X122.106 Y149.854 E7.62671
G1 X121.395 Y150.183 E7.65277
G1 X120.777 Y150.441 E7.67504
G1 X119.735 Y150.837 E7.71212
G1 X118.979 Y151.102 E7.73876
G1 X118.342 Y151.298 E7.76093
G1 X117.216 Y151.606 E7.79976
G1 X116.473 Y151.786 E7.82519
G1 X115.8 Y151.921 E7.84802
G1 X114.677 Y152.111 E7.8859
G1 X113.886 Y152.223 E7.91247
G1 X113.238 Y152.288 E7.93413
G1 X112.095 Y152.369 E7.97224
G1 X111.336 Y152.401 E7.99751
G1 X110.669 Y152.403 E8.01969
G1 X109.499 Y152.369 E8.05862
G1 X108.691 Y152.324 E8.08554
G1 X108.036 Y152.262 E8.10742
G1 X106.923 Y152.119 E8.14474
G1 X106.152 Y152.002 E8.17068
G1 X105.46 Y151.866 E8.19414
G1 X104.364 Y151.613 E8.23155
G1 X103.607 Y151.419 E8.25754
G1 X102.964 Y151.225 E8.27988
G1 X101.882 Y150.863 E8.31783
G1 X101.158 Y150.6 E8.34345
G1 X100.504 Y150.332 E8.36696
G1 X99.458 Y149.862 E8.4051
G1 X98.809 Y149.551 E8.42903
G1 X98.181 Y149.218 E8.45267
G1 X97.162 Y148.635 E8.49172
G1 X96.51 Y148.238 E8.51711
G1 X95.963 Y147.876 E8.53893
G1 X95.013 Y147.201 E8.57769
G1 X94.395 Y146.735 E8.60343
G1 X93.877 Y146.312 E8.62568
G1 X93.004 Y145.554 E8.66413
G1 X92.427 Y145.023 E8.69021
G1 X91.96 Y144.559 E8.71211
G1 X91.186 Y143.741 E8.74956
G1 X90.631 Y143.118 E8.77731
G1 X90.232 Y142.633 E8.7982
G1 X89.514 Y141.708 E8.83715
G1 X89.048 Y141.07 E8.86342
G1 X88.677 Y140.519 E8.88552
G1 X88.092 Y139.587 E8.92212
G1 X87.68 Y138.887 E8.94913
G1 X87.36 Y138.293 E8.97157
G1 X86.843 Y137.256 E9.01011
G1 X86.505 Y136.524 E9.03693
G1 X86.258 Y135.933 E9.05823
G1 X85.774 Y134.658 E9.10359
G1 X84.737 Y131.743 E9.2065
G1 X83.819 Y129.389 E9.29054
G1 X82.851 Y127.101 E9.37317
G1 X81.799 Y124.797 E9.45741
G1 X80.685 Y122.531 E9.54139
G1 X79.522 Y120.324 E9.62436
G1 X78.266 Y118.098 E9.70937
G1 X76.994 Y115.984 E9.79143
G1 X75.604 Y113.816 E9.87709
G1 X74.222 Y111.788 E9.95871
G1 X72.718 Y109.71 E10.04403
G1 X71.194 Y107.724 E10.12729
G1 X69.624 Y105.795 E10.21001
G1 X67.966 Y103.873 E10.29444
G1 X66.239 Y101.978 E10.37971
G1 X65.141 Y100.828 E10.4326
G1 X64.501 Y100.093 E10.46501
G1 X63.93 Y99.304 E10.49741
G1 X63.435 Y98.476 E10.52949
G1 X63.117 Y97.838 E10.5532
G1 X62.752 Y97.038 E10.58245
G1 X62.274 Y95.91 E10.6232
G1 X61.821 Y94.742 E10.66486
G1 X61.537 Y93.948 E10.69291
G1 X60.627 Y91.498 E10.77984
G1 X59.693 Y89.187 E10.86274
G1 X58.688 Y86.894 E10.94601
G1 X57.587 Y84.558 E11.0319
G1 X56.935 Y83.248 E11.08057
G1 X56.541 Y82.354 E11.11307
G1 X56.215 Y81.39 E11.14691
G1 X56.067 Y80.866 E11.16502
G1 X55.844 Y79.919 E11.19738
G1 X55.713 Y79.025 E11.22743
G1 X55.654 Y77.981 E11.26221
G1 X55.687 Y77.006 E11.29466
G1 X55.771 Y75.965 E11.3294
G1 X55.894 Y74.998 E11.36182
G1 X56.103 Y74.048 E11.39417
G1 X56.394 Y73.118 E11.42658
G1 X56.752 Y72.25 E11.45781
G1 X57.218 Y71.355 E11.49137
G1 X57.743 Y70.535 E11.52376
G1 X58.338 Y69.765 E11.55612
G1 X58.963 Y69.087 E11.58679
G1 X59.443 Y68.608 E11.60935
G1 X59.988 Y68.101 E11.6341
G0 F6000 X60.251 Y68.403
G1 F1200 X62.434 Y66.503 E11.73036
G1 X63.127 Y65.956 E11.75972
G1 X63.734 Y65.517 E11.78464
G1 X64.757 Y64.798 E11.82623
G1 X66.808 Y63.27 E11.91129
G1 X68.751 Y61.735 E11.99365
G1 X70.73 Y60.08 E12.07946
G1 X72.605 Y58.416 E12.16284
G1 X74.444 Y56.691 E12.2467
G1 X76.234 Y54.917 E12.33052
G1 X78.001 Y53.059 E12.4158
G1 X79.686 Y51.188 E12.49955
G1 X81.309 Y49.277 E12.58294
G1 X82.917 Y47.274 E12.66837
G1 X84.402 Y45.308 E12.75032
G1 X85.281 Y44.072 E12.80076
G1 X85.838 Y43.31 E12.83216
G1 X86.425 Y42.578 E12.86336
G1 X87.05 Y41.926 E12.8934
G1 X87.783 Y41.285 E12.92579
G1 X88.541 Y40.735 E12.95694
G1 X89.27 Y40.294 E12.98528
G1 X89.96 Y39.914 E13.01148
G1 X90.802 Y39.498 E13.04271
G1 X91.677 Y39.16 E13.07391
G1 X92.585 Y38.898 E13.10534
G1 X93.79 Y38.682 E13.14606
G1 X94.618 Y38.586 E13.17378
G1 X95.436 Y38.507 E13.20112
G1 X97.476 Y38.346 E13.26918
G1 X99.201 Y38.243 E13.32665
G1 X99.92 Y38.211 E13.35059
G1 X100.823 Y38.209 E13.38063
G1 X101.759 Y38.289 E13.41187
G1 X102.903 Y38.44 E13.45025
G1 X106.041 Y38.905 E13.55576
G1 X108.553 Y39.206 E13.63991
G1 X111.076 Y39.436 E13.72417
G1 X113.573 Y39.592 E13.80738
G1 X116.116 Y39.679 E13.89201
G1 X118.659 Y39.694 E13.9766
G1 X121.161 Y39.638 E14.05983
G1 X123.702 Y39.51 E14.14445
G1 X126.215 Y39.31 E14.2283
G1 X128.697 Y39.042 E14.31133
G1 X130.5 Y38.785 E14.37191
G1 X130.97 Y38.739 E14.38761
G1 X131.945 Y38.602 E14.42036
G1 X132.862 Y38.514 E14.451
G1 X133.998 Y38.455 E14.48884
G1 X135.598 Y38.405 E14.54208
G1 X140.699 Y38.312 E14.71177
G1 X143.23 Y38.295 E14.79595
G1 X143.991 Y38.301 E14.82126
G1 X144.928 Y38.35 E14.85247
G1 X145.857 Y38.482 E14.88368
G1 X146.771 Y38.696 E14.9149
G1 X147.663 Y38.99 E14.94614
G1 X148.525 Y39.362 E14.97736
G1 X149.35 Y39.808 E15.00856
G1 X150.134 Y40.326 E15.03981
G1 X150.948 Y40.98 E15.07454
G1 X151.387 Y41.371 E15.09409
G1 X152.056 Y42.024 E15.12519
G1 X152.539 Y42.575 E15.14956
G1 X152.817 Y42.916 E15.16419
G1 X153.376 Y43.669 E15.19538
G1 X153.867 Y44.469 E15.2266
G1 X154.271 Y45.277 E15.25665
G1 X154.621 Y46.166 E15.28842
G1 X154.862 Y46.897 E15.31403
G1 X155.04 Y47.501 E15.33497
G1 X155.187 Y48.059 E15.35416
G1 X155.382 Y48.885 E15.38239
G1 X156.009 Y51.396 E15.46847
G1 X156.689 Y53.82 E15.5522
G1 X157.445 Y56.251 E15.63688
G1 X158.258 Y58.626 E15.72037
G1 X159.151 Y61.012 E15.80511
G1 X160.097 Y63.341 E15.88872
G1 X161.121 Y65.665 E15.97318
G1 X162.46 Y68.473 E16.07665
G1 X162.685 Y68.98 E16.0951
G1 X163.021 Y69.808 E16.12482
G1 X163.256 Y70.438 E16.14719
G1 X163.545 Y71.332 E16.17844
G1 X163.753 Y72.247 E16.20965
G1 X163.88 Y73.177 E16.24086
G1 X163.924 Y74.079 E16.2709
G1 X163.838 Y75.489 E16.31788
G1 X163.688 Y76.644 E16.35662
G1 X163.295 Y79.307 E16.44615
G1 X162.769 Y82.604 E16.5572
G1 X162.62 Y83.453 E16.58587
G1 X162.415 Y84.368 E16.61706
G1 X162.13 Y85.262 E16.64827
G1 X161.769 Y86.125 E16.67938
G1 X161.441 Y86.762 E16.70321
G1 X161.056 Y87.45 E16.72943
G1 X158.959 Y91.061 E16.86832
G1 X157.542 Y93.421 E16.95987
G1 X157.106 Y94.127 E16.98747
G1 X156.578 Y94.9 E17.01861
G1 X156.098 Y95.493 E17.04398
G1 X154.027 Y97.873 E17.14891
G1 X152.435 Y99.818 E17.23251
G1 X150.883 Y101.828 E17.31697
G1 X149.404 Y103.86 E17.40057
G1 X147.973 Y105.947 E17.48473
G1 X146.603 Y108.07 E17.56877
G1 X145.286 Y110.248 E17.65342
G1 X144.037 Y112.451 E17.73765
G1 X142.88 Y114.629 E17.81968
G1 X141.735 Y116.945 E17.90561
G1 X140.672 Y119.253 E17.99012
G1 X139.689 Y121.561 E18.07356
G1 X138.764 Y123.911 E18.15756
G1 X137.909 Y126.281 E18.24136
G1 X137.108 Y128.713 E18.32652
G1 X136.392 Y131.117 E18.40995
G1 X135.867 Y133.042 E18.47631
G1 X135.695 Y133.606 E18.49592
G1 X135.336 Y134.679 E18.53356
G1 X135.082 Y135.379 E18.55832
G1 X134.817 Y136.028 E18.58164
G1 X134.35 Y137.068 E18.61956
G1 X134.048 Y137.698 E18.6428
G1 X133.722 Y138.314 E18.66598
G1 X133.147 Y139.319 E18.70449
G1 X132.758 Y139.959 E18.7294
G1 X132.391 Y140.513 E18.7515
G1 X131.731 Y141.442 E18.7894
G1 X131.278 Y142.043 E18.81443
G1 X130.859 Y142.558 E18.83652
G1 X130.107 Y143.423 E18.87464
G1 X129.588 Y143.988 E18.90015
G1 X129.133 Y144.446 E18.92163
G1 X128.307 Y145.227 E18.95944
G1 X127.725 Y145.747 E18.98539
G1 X127.238 Y146.148 E19.00638
G1 X126.318 Y146.861 E19.04509
G1 X125.692 Y147.319 E19.07089
G1 X125.158 Y147.678 E19.09229
G1 X124.226 Y148.263 E19.12889
G1 X123.551 Y148.662 E19.15497
G1 X122.966 Y148.978 E19.17708
G1 X121.938 Y149.491 E19.21529
G1 X121.241 Y149.814 E19.24085
G1 X120.635 Y150.067 E19.26269
G1 X119.603 Y150.46 E19.29942
G1 X118.861 Y150.72 E19.32557
G1 X118.237 Y150.912 E19.34728
G1 X117.121 Y151.217 E19.38576
G1 X116.394 Y151.394 E19.41065
G1 X115.733 Y151.527 E19.43307
G1 X114.621 Y151.715 E19.47058
G1 X113.846 Y151.825 E19.49662
G1 X113.21 Y151.889 E19.51788
G1 X112.078 Y151.969 E19.55562
G1 X111.335 Y152.001 E19.58036
G1 X110.68 Y152.003 E19.60214
G1 X109.521 Y151.97 E19.64071
G1 X108.729 Y151.926 E19.66709
G1 X108.087 Y151.865 E19.68854
G1 X106.983 Y151.724 E19.72556
G1 X106.229 Y151.609 E19.75092
G1 X105.55 Y151.476 E19.77394
G1 X104.463 Y151.226 E19.81103
G1 X103.722 Y151.036 E19.83648
G1 X103.091 Y150.846 E19.8584
G1 X102.018 Y150.487 E19.89603
G1 X101.31 Y150.23 E19.92108
G1 X100.668 Y149.967 E19.94416
G1 X99.631 Y149.501 E19.98197
G1 X98.996 Y149.197 E20.00538
G1 X98.38 Y148.871 E20.02856
G1 X97.37 Y148.293 E20.06727
G1 X96.731 Y147.904 E20.09215
G1 X96.184 Y147.542 E20.11397
G1 X95.254 Y146.882 E20.1519
G1 X94.648 Y146.425 E20.17714
G1 X94.139 Y146.01 E20.19898
G1 X93.275 Y145.259 E20.23706
G1 X92.709 Y144.739 E20.26262
G1 X92.251 Y144.284 E20.2841
G1 X91.477 Y143.466 E20.32155
G1 X90.94 Y142.864 E20.34838
G1 X90.548 Y142.388 E20.36889
G1 X89.837 Y141.472 E20.40746
G1 X89.38 Y140.847 E20.43321
G1 X89.016 Y140.306 E20.4549
G1 X88.437 Y139.384 E20.49111
G1 X88.032 Y138.697 E20.51764
G1 X87.718 Y138.115 E20.53963
G1 X87.206 Y137.088 E20.5778
G1 X86.874 Y136.37 E20.60411
G1 X86.632 Y135.791 E20.62498
G1 X86.151 Y134.524 E20.67006
G1 X85.114 Y131.609 E20.77296
G1 X84.192 Y129.244 E20.85739
G1 X83.215 Y126.935 E20.94078
G1 X82.163 Y124.631 E21.02502
G1 X81.044 Y122.355 E21.10937
G1 X79.876 Y120.138 E21.19272
G1 X78.614 Y117.901 E21.27814
G1 X77.337 Y115.778 E21.36055
G1 X75.941 Y113.6 E21.44659
G1 X74.553 Y111.563 E21.52857
G1 X73.041 Y109.475 E21.61432
G1 X71.511 Y107.481 E21.69791
G1 X69.927 Y105.534 E21.78139
G1 X68.269 Y103.612 E21.86582
G1 X66.535 Y101.709 E21.95145
G1 X65.442 Y100.565 E22.00407
G1 X64.825 Y99.858 E22.03528
G1 X64.273 Y99.098 E22.06652
G1 X63.793 Y98.297 E22.09758
G1 X63.481 Y97.672 E22.12081
G1 X63.12 Y96.882 E22.1497
G1 X62.647 Y95.766 E22.19002
G1 X62.198 Y94.607 E22.23136
G1 X61.914 Y93.813 E22.25941
G1 X61.002 Y91.359 E22.34648
G1 X60.064 Y89.037 E22.42977
G1 X59.05 Y86.723 E22.5138
G1 X57.949 Y84.387 E22.5997
G1 X57.301 Y83.086 E22.64804
G1 X56.92 Y82.226 E22.67932
G1 X56.6 Y81.281 E22.71251
G1 X56.456 Y80.774 E22.73004
G1 X56.24 Y79.861 E22.76124
G1 X56.109 Y78.967 E22.79129
G1 X56.054 Y77.994 E22.82371
G1 X56.086 Y77.038 E22.85552
G1 X56.168 Y76.015 E22.88966
G1 X56.285 Y75.083 E22.9209
G1 X56.485 Y74.167 E22.95208
G1 X56.764 Y73.271 E22.98329
G1 X57.122 Y72.403 E23.01452
G1 X57.555 Y71.57 E23.04575
G1 X58.06 Y70.779 E23.07696
G1 X58.632 Y70.036 E23.10815
G1 X59.245 Y69.37 E23.13825
G1 X59.716 Y68.901 E23.16036
G1 X60.251 Y68.403 E23.18467
G0 F6000 X60.514 Y68.705
G1 F1200 X62.682 Y66.817 E23.28029
G1 X63.361 Y66.28 E23.30908
G1 X63.964 Y65.844 E23.33383
G1 X64.996 Y65.119 E23.37578
G1 X67.047 Y63.591 E23.46085
G1 X69.008 Y62.042 E23.54396
G1 X70.987 Y60.386 E23.62979
G1 X72.879 Y58.708 E23.7139
G1 X74.718 Y56.983 E23.79776
G1 X76.516 Y55.201 E23.88196
G1 X78.291 Y53.335 E23.96762
G1 X79.983 Y51.456 E24.05172
G1 X81.614 Y49.536 E24.13551
G1 X83.229 Y47.524 E24.22132
G1 X84.728 Y45.54 E24.30402
G1 X85.604 Y44.308 E24.3543
