;FLAVOR:Marlin
;TIME:374
;Filament used: 0.165976m
;Layer height: 0.28
;Cura Time Estimate:  374sec = 0hr 6min 14sec 
M117 ET 0hr 6min
;MINX:94.541
;MINY:94.541
;MINZ:0.28
;MAXX:125.43
;MAXY:125.464
;MAXZ:16.24
;TARGET_MACHINE.NAME:Creality Ender-3 Pro
;POSTPROCESSED
;  [DisplayInfoOnLCD]
;  [CreateThumbnail]
;Generated with Cura_SteamEngine 5.7.0
;
;

M82 ;absolute extrusion mode
; Ender 3 Custom Start G-code
G92 E0 ; Reset Extruder
G28 ; Home all axes
G1 Z5.0 F3000 ; Move Z Axis up a bit during heating to not damage bed
M104 S175 ; Start heating up the nozzle most of the way
M190 S60 ; Start heating the bed, wait until target temperature reached
M109 S200 ; Finish heating the nozzle
G1 Z2.0 F3000 ; Move Z Axis up little to prevent scratching of Heat Bed
G1 X0.1 Y20 Z0.3 F5000.0 ; Move to start position
G1 X0.1 Y200.0 Z0.3 F1500.0 E15 ; Draw the first line
G1 X0.4 Y200.0 Z0.3 F5000.0 ; Move to side a little
G1 X0.4 Y20 Z0.3 F1500.0 E30 ; Draw the second line
G92 E0 ; Reset Extruder
G1 Z2.0 F3000 ; Move Z Axis up little to prevent scratching of Heat Bed
G1 X5 Y20 Z0.3 F5000.0 ; Move over to prevent blob squish
G92 E0
G92 E0
G1 F1500 E-6.5
;LAYER_COUNT:58
;LAYER:0
M117 1/58 | ET 6m
M107
G0 F6000 X98.796 Y99.328 Z0.28
;TYPE:SKIRT
G1 F1500 E0
G1 F1200 X99.426 Y98.743 E0.04003
G1 X100.427 Y97.858 E0.10225
G1 X101.172 Y97.258 E0.14679
G1 X102.01 Y96.698 E0.19372
G1 X102.865 Y96.231 E0.23909
G1 X103.741 Y95.848 E0.2836
G1 X104.213 Y95.678 E0.30696
G1 X105.303 Y95.313 E0.36049
G1 X106.262 Y95.016 E0.40724
G1 X107.204 Y94.773 E0.45254
G1 X108.166 Y94.614 E0.49794
G1 X109.151 Y94.541 E0.54393
G1 X110.476 Y94.582 E0.60566
G1 X112.001 Y94.731 E0.67701
G1 X112.689 Y94.814 E0.70927
G1 X113.58 Y94.962 E0.75133
G1 X114.557 Y95.215 E0.79833
G1 X115.521 Y95.562 E0.84603
G1 X116.751 Y96.158 E0.90968
G1 X117.998 Y96.869 E0.97652
G1 X118.624 Y97.244 E1.0105
G1 X119.436 Y97.784 E1.0559
G1 X120.194 Y98.391 E1.10112
G1 X120.91 Y99.077 E1.14729
G1 X121.753 Y100.075 E1.20813
G1 X122.463 Y101.032 E1.26361
G1 X123.05 Y101.86 E1.31087
G1 X123.574 Y102.682 E1.35626
G1 X124.007 Y103.514 E1.39994
G1 X124.382 Y104.421 E1.44564
G1 X124.78 Y105.781 E1.51162
G1 X125.093 Y107.2 E1.57929
G1 X125.235 Y107.932 E1.61401
G1 X125.368 Y108.826 E1.65609
G1 X125.43 Y109.869 E1.70474
G1 X125.404 Y110.772 E1.74681
G1 X125.21 Y112.198 E1.81382
G1 X124.915 Y113.628 E1.88181
G1 X124.763 Y114.29 E1.91344
G1 X124.491 Y115.261 E1.96039
G1 X124.148 Y116.172 E2.00572
G1 X123.757 Y116.986 E2.04777
G1 X123.054 Y118.136 E2.11053
G1 X122.556 Y118.84 E2.15068
G1 X121.782 Y119.89 E2.21142
G1 X121.191 Y120.618 E2.25509
G1 X120.488 Y121.343 E2.30211
G1 X119.75 Y121.977 E2.34742
G1 X118.972 Y122.538 E2.39208
G1 X118.535 Y122.809 E2.41602
G1 X117.262 Y123.556 E2.48475
G1 X116.653 Y123.895 E2.5172
G1 X115.782 Y124.327 E2.56248
G1 X114.874 Y124.682 E2.60787
G1 X113.924 Y124.958 E2.65394
G1 X112.578 Y125.199 E2.71761
G1 X111.13 Y125.359 E2.78545
G1 X110.405 Y125.424 E2.81934
G1 X109.431 Y125.464 E2.86473
G1 X108.529 Y125.424 E2.90677
G1 X107.482 Y125.282 E2.95597
G1 X106.251 Y124.983 E3.01496
G1 X105.398 Y124.717 E3.05657
G1 X104.167 Y124.304 E3.11703
G1 X103.26 Y123.951 E3.16235
G1 X102.387 Y123.519 E3.2077
G1 X101.556 Y123.011 E3.25305
G1 X100.808 Y122.461 E3.29629
G1 X100.413 Y122.13 E3.32028
G1 X99.549 Y121.365 E3.37402
G1 X98.818 Y120.692 E3.42029
G1 X98.134 Y119.997 E3.46569
G1 X97.516 Y119.246 E3.51098
G1 X96.958 Y118.431 E3.55697
G1 X96.353 Y117.315 E3.61608
G1 X95.96 Y116.465 E3.65969
G1 X95.449 Y115.289 E3.71939
G1 X95.104 Y114.379 E3.76471
G1 X94.84 Y113.441 E3.81008
G1 X94.661 Y112.485 E3.85537
G1 X94.566 Y111.532 E3.89997
G1 X94.55 Y111.027 E3.9235
G1 X94.541 Y109.6 E3.98994
G1 X94.554 Y108.856 E4.02459
G1 X94.615 Y107.883 E4.06999
G1 X94.762 Y106.92 E4.11535
G1 X94.986 Y106.002 E4.15935
G1 X95.436 Y104.737 E4.22187
G1 X95.686 Y104.156 E4.25132
G1 X96.313 Y102.774 E4.32199
G1 X96.757 Y101.907 E4.36734
G1 X97.257 Y101.113 E4.41104
G1 X97.85 Y100.332 E4.4567
G1 X98.796 Y99.328 E4.52093
G0 F6000 X99.068 Y99.621
G1 F1200 X99.691 Y99.043 E4.5605
G1 X100.678 Y98.17 E4.62186
G1 X101.423 Y97.57 E4.6664
G1 X102.202 Y97.049 E4.71004
G1 X103.026 Y96.597 E4.7538
G1 X103.877 Y96.224 E4.79707
G1 X104.34 Y96.057 E4.81999
G1 X105.422 Y95.695 E4.87311
G1 X106.362 Y95.403 E4.91895
G1 X107.27 Y95.168 E4.96262
G1 X108.196 Y95.013 E5.00634
G1 X109.139 Y94.941 E5.05038
G1 X110.464 Y94.982 E5.1121
G1 X111.953 Y95.128 E5.18177
G1 X112.623 Y95.209 E5.2132
G1 X113.514 Y95.357 E5.25525
G1 X114.456 Y95.602 E5.30058
G1 X115.347 Y95.922 E5.34466
G1 X116.553 Y96.506 E5.40705
G1 X117.793 Y97.212 E5.4735
G1 X118.403 Y97.577 E5.5066
G1 X119.186 Y98.096 E5.55034
G1 X119.918 Y98.681 E5.59397
G1 X120.604 Y99.335 E5.6381
G1 X121.447 Y100.333 E5.69893
G1 X122.137 Y101.263 E5.75286
G1 X122.713 Y102.075 E5.79921
G1 X123.219 Y102.867 E5.84298
G1 X123.637 Y103.667 E5.88501
G1 X124.012 Y104.574 E5.93071
G1 X124.389 Y105.867 E5.99342
G1 X124.7 Y107.276 E6.06061
G1 X124.839 Y107.991 E6.09453
G1 X124.972 Y108.885 E6.13661
G1 X125.03 Y109.857 E6.18195
G1 X125.004 Y110.76 E6.22402
G1 X124.818 Y112.117 E6.2878
G1 X124.525 Y113.538 E6.35536
G1 X124.373 Y114.2 E6.38698
G1 X124.117 Y115.12 E6.43145
G1 X123.787 Y115.999 E6.47517
G1 X123.396 Y116.813 E6.51722
G1 X122.727 Y117.905 E6.57685
G1 X122.234 Y118.603 E6.61664
G1 X121.471 Y119.638 E6.67652
G1 X120.88 Y120.366 E6.72018
G1 X120.227 Y121.04 E6.76388
G1 X119.516 Y121.653 E6.80759
G1 X118.761 Y122.198 E6.85095
G1 X118.333 Y122.464 E6.87441
G1 X117.067 Y123.207 E6.94277
G1 X116.475 Y123.537 E6.97433
G1 X115.636 Y123.955 E7.01797
G1 X114.762 Y124.298 E7.06169
G1 X113.853 Y124.564 E7.1058
G1 X112.534 Y124.801 E7.1682
G1 X111.094 Y124.961 E7.23566
G1 X110.388 Y125.024 E7.26867
G1 X109.449 Y125.064 E7.31243
G1 X108.547 Y125.024 E7.35447
G1 X107.576 Y124.893 E7.4001
G1 X106.37 Y124.601 E7.45787
G1 X105.525 Y124.338 E7.49908
G1 X104.312 Y123.931 E7.55866
G1 X103.437 Y123.592 E7.60236
G1 X102.595 Y123.177 E7.64607
G1 X101.793 Y122.689 E7.68978
G1 X101.065 Y122.154 E7.73185
G1 X100.678 Y121.83 E7.75535
G1 X99.82 Y121.071 E7.80869
G1 X99.103 Y120.411 E7.85407
G1 X98.443 Y119.743 E7.8978
G1 X97.846 Y119.019 E7.94149
G1 X97.31 Y118.24 E7.98552
G1 X96.705 Y117.124 E8.04463
G1 X96.327 Y116.305 E8.08663
G1 X95.823 Y115.146 E8.14548
G1 X95.489 Y114.27 E8.18914
G1 X95.233 Y113.367 E8.23284
G1 X95.059 Y112.445 E8.27653
G1 X94.966 Y111.519 E8.31987
G1 X94.95 Y111.024 E8.34293
G1 X94.941 Y109.607 E8.40891
G1 X94.953 Y108.88 E8.44277
G1 X95.01 Y107.943 E8.48648
G1 X95.151 Y107.015 E8.53019
G1 X95.375 Y106.097 E8.57419
G1 X95.804 Y104.895 E8.63362
G1 X96.05 Y104.321 E8.66269
G1 X96.669 Y102.956 E8.73249
G1 X97.096 Y102.12 E8.7762
G1 X97.576 Y101.355 E8.81825
G1 X98.169 Y100.574 E8.86391
G1 X99.068 Y99.621 E8.92492
G0 F6000 X99.34 Y99.914
G1 F1200 X99.956 Y99.343 E8.96403
G1 X100.943 Y98.47 E9.02538
G1 X101.646 Y97.902 E9.06747
G1 X102.395 Y97.399 E9.10948
G1 X103.187 Y96.963 E9.15158
G1 X104.013 Y96.6 E9.19359
G1 X104.467 Y96.436 E9.21607
G1 X105.541 Y96.077 E9.2688
G1 X106.463 Y95.79 E9.31376
G1 X107.336 Y95.562 E9.35577
G1 X108.227 Y95.412 E9.39785
G1 X109.127 Y95.341 E9.43988
G1 X110.452 Y95.382 E9.50161
G1 X111.905 Y95.525 E9.5696
G1 X112.557 Y95.604 E9.60018
G1 X113.448 Y95.752 E9.64224
G1 X114.322 Y95.979 E9.68428
G1 X115.173 Y96.282 E9.72635
G1 X116.355 Y96.854 E9.78749
G1 X117.588 Y97.555 E9.85353
G1 X118.183 Y97.911 E9.88582
G1 X118.937 Y98.409 E9.9279
G1 X119.643 Y98.971 E9.96992
G1 X120.298 Y99.593 E10.01198
G1 X121.141 Y100.591 E10.07281
G1 X121.811 Y101.495 E10.1252
G1 X122.376 Y102.291 E10.17065
G1 X122.864 Y103.052 E10.21275
G1 X123.282 Y103.852 E10.25478
G1 X123.628 Y104.686 E10.29682
G1 X123.998 Y105.953 E10.35828
G1 X124.307 Y107.352 E10.425
G1 X124.443 Y108.05 E10.45811
G1 X124.576 Y108.944 E10.5002
G1 X124.63 Y109.845 E10.54223
G1 X124.604 Y110.748 E10.58429
G1 X124.426 Y112.036 E10.64484
G1 X124.135 Y113.448 E10.71197
G1 X123.983 Y114.11 E10.74359
G1 X123.742 Y114.98 E10.78563
G1 X123.426 Y115.826 E10.82768
G1 X123.035 Y116.64 E10.86973
G1 X122.4 Y117.674 E10.92623
G1 X121.912 Y118.366 E10.96566
G1 X121.16 Y119.386 E11.02467
G1 X120.592 Y120.088 E11.06672
G1 X119.965 Y120.738 E11.10877
G1 X119.282 Y121.329 E11.15083
G1 X118.55 Y121.858 E11.19288
G1 X118.131 Y122.119 E11.21587
G1 X116.872 Y122.858 E11.28385
G1 X116.296 Y123.179 E11.31455
G1 X115.489 Y123.583 E11.35657
G1 X114.649 Y123.914 E11.39861
G1 X113.782 Y124.17 E11.44071
G1 X112.49 Y124.403 E11.50184
G1 X111.059 Y124.563 E11.56889
G1 X110.37 Y124.624 E11.6011
G1 X109.467 Y124.664 E11.64319
G1 X108.565 Y124.624 E11.68523
G1 X107.67 Y124.504 E11.72728
G1 X106.489 Y124.219 E11.78385
G1 X105.652 Y123.959 E11.82466
G1 X104.456 Y123.558 E11.8834
G1 X103.613 Y123.233 E11.92547
G1 X102.802 Y122.835 E11.96753
G1 X102.03 Y122.367 E12.00957
G1 X101.302 Y121.832 E12.05164
G1 X100.943 Y121.53 E12.07348
G1 X100.091 Y120.777 E12.12643
G1 X99.387 Y120.129 E12.17098
G1 X98.751 Y119.488 E12.21303
G1 X98.175 Y118.792 E12.2551
G1 X97.662 Y118.049 E12.29714
G1 X97.057 Y116.933 E12.35625
G1 X96.694 Y116.145 E12.39665
G1 X96.197 Y115.003 E12.45464
G1 X95.874 Y114.16 E12.49668
G1 X95.626 Y113.292 E12.53871
G1 X95.457 Y112.405 E12.58076
G1 X95.366 Y111.506 E12.62283
G1 X95.35 Y111.021 E12.64543
G1 X95.341 Y109.613 E12.71099
G1 X95.352 Y108.904 E12.74401
G1 X95.406 Y108.002 E12.78609
G1 X95.54 Y107.109 E12.82813
G1 X95.752 Y106.231 E12.87019
G1 X96.172 Y105.052 E12.92847
G1 X96.414 Y104.486 E12.95714
G1 X97.025 Y103.138 E13.02605
G1 X97.435 Y102.333 E13.06812
G1 X97.915 Y101.568 E13.11017
G1 X98.46 Y100.848 E13.15222
G1 X99.34 Y99.914 E13.21197
G1 F1500 E6.71197
;MESH:prestacap.stl
G0 F6000 X105.922 Y106.802
G0 X109.55 Y113.728
;TYPE:WALL-INNER
G1 F1500 E13.21197
G1 F715.4 X111.099 Y113.566 E13.33363
G1 F717.5 X112.451 Y112.783 E13.4553
G1 X113.366 Y111.522 E13.57664
G1 F713.2 X113.69 Y109.998 E13.6987
G1 F711.1 X113.366 Y108.473 E13.8212
G1 F713.2 X112.449 Y107.213 E13.94329
G1 X111.096 Y106.431 E14.06572
G1 F712.2 X109.552 Y106.27 E14.18752
G1 F710.1 X108.065 Y106.749 E14.31046
G1 X106.907 Y107.797 E14.43337
G1 F715.4 X106.272 Y109.219 E14.55501
G1 X106.272 Y110.78 E14.67695
G1 F713.2 X106.907 Y112.2 E14.79881
G1 F712.2 X108.064 Y113.246 E14.92119
G1 X109.55 Y113.728 E15.04376
G0 F6000 X109.494 Y114.268
;TYPE:WALL-OUTER
G1 F1200 X111.264 Y114.085 E15.12662
G1 X112.814 Y113.188 E15.21001
G1 X113.864 Y111.74 E15.29329
G1 X114.235 Y110 E15.37614
G1 X113.865 Y108.256 E15.45915
G1 X112.815 Y106.808 E15.54244
G1 X111.264 Y105.911 E15.62587
G1 X109.494 Y105.728 E15.70873
G1 X107.791 Y106.278 E15.79206
G1 X106.466 Y107.472 E15.87511
G1 X105.74 Y109.107 E15.95841
G1 X105.74 Y110.889 E16.04139
G1 X106.466 Y112.524 E16.12469
G1 X107.791 Y113.718 E16.20774
G1 X109.494 Y114.268 E16.29107
G0 F6000 X109.523 Y113.969
G0 X109.507 Y113.47
G0 X109.6 Y113.183
G1 F1200 X108.339 Y112.77 E16.35286
G1 X107.349 Y111.872 E16.4151
G1 X106.806 Y110.659 E16.47698
G1 X106.809 Y109.327 E16.539
G1 X107.351 Y108.114 E16.60087
G1 X108.346 Y107.222 E16.66309
G1 X109.613 Y106.816 E16.72504
G1 X110.929 Y106.957 E16.78667
G1 X112.082 Y107.622 E16.84865
G1 X112.86 Y108.687 E16.91007
G1 X113.141 Y110 E16.97259
G1 X112.867 Y111.295 E17.03422
G1 X112.091 Y112.374 E17.09611
G1 X110.938 Y113.041 E17.15814
G1 X109.6 Y113.183 E17.22079
M104 S200
G1 F1500 E10.72079
;MESH:NONMESH
G0 F300 X109.6 Y113.183 Z0.56
G0 F6000 X109.507 Y113.47
G0 X108.217 Y112.986
G0 X107.152 Y112.026
G0 X106.568 Y110.717
G0 X106.647 Y107.607
G0 X105.922 Y106.802
G0 X99.34 Y99.914
;TIME_ELAPSED:25.233333
;LAYER:1
M117 2/58 | ET 5m
M106 S85
;TYPE:SKIRT
G1 F1500 E17.22079
G1 F1029.5 X99.956 Y99.343 E17.2599
G1 X100.943 Y98.47 E17.32126
G1 X101.646 Y97.902 E17.36334
G1 X102.395 Y97.399 E17.40535
G1 X103.187 Y96.963 E17.44745
G1 X104.013 Y96.6 E17.48946
G1 X104.467 Y96.436 E17.51194
G1 X105.541 Y96.077 E17.56467
G1 X106.463 Y95.79 E17.60963
G1 X107.336 Y95.562 E17.65165
G1 X108.227 Y95.412 E17.69372
G1 X109.127 Y95.341 E17.73576
G1 X110.452 Y95.382 E17.79749
G1 X111.905 Y95.525 E17.86547
G1 X112.557 Y95.604 E17.89605
G1 X113.448 Y95.752 E17.93811
G1 X114.322 Y95.979 E17.98016
G1 X115.173 Y96.282 E18.02222
G1 X116.355 Y96.854 E18.08336
G1 X117.588 Y97.555 E18.14941
G1 X118.183 Y97.911 E18.18169
G1 X118.937 Y98.409 E18.22377
G1 X119.643 Y98.971 E18.26579
G1 X120.298 Y99.593 E18.30785
G1 X121.141 Y100.591 E18.36868
G1 X121.811 Y101.495 E18.42107
G1 X122.376 Y102.291 E18.46653
G1 X122.864 Y103.052 E18.50862
G1 X123.282 Y103.852 E18.55065
G1 X123.628 Y104.686 E18.5927
G1 X123.998 Y105.953 E18.65416
G1 X124.307 Y107.352 E18.72087
G1 X124.443 Y108.05 E18.75398
G1 X124.576 Y108.944 E18.79607
G1 X124.63 Y109.845 E18.8381
G1 X124.604 Y110.748 E18.88016
G1 X124.426 Y112.036 E18.94071
G1 X124.135 Y113.448 E19.00784
G1 X123.983 Y114.11 E19.03947
G1 X123.742 Y114.98 E19.0815
G1 X123.426 Y115.826 E19.12356
G1 X123.035 Y116.64 E19.1656
G1 X122.4 Y117.674 E19.22211
G1 X121.912 Y118.366 E19.26154
G1 X121.16 Y119.386 E19.32054
G1 X120.592 Y120.088 E19.36259
G1 X119.965 Y120.738 E19.40464
G1 X119.282 Y121.329 E19.4467
G1 X118.55 Y121.858 E19.48876
G1 X118.131 Y122.119 E19.51174
G1 X116.872 Y122.858 E19.57972
G1 X116.296 Y123.179 E19.61042
G1 X115.489 Y123.583 E19.65245
G1 X114.649 Y123.914 E19.69449
G1 X113.782 Y124.17 E19.73658
G1 X112.49 Y124.403 E19.79771
G1 X111.059 Y124.563 E19.86476
G1 X110.37 Y124.624 E19.89697
G1 X109.467 Y124.664 E19.93906
G1 X108.565 Y124.624 E19.9811
G1 X107.67 Y124.504 E20.02315
G1 X106.489 Y124.219 E20.07972
G1 X105.652 Y123.959 E20.12053
G1 X104.456 Y123.558 E20.17927
G1 X103.613 Y123.233 E20.22134
G1 X102.802 Y122.835 E20.2634
G1 X102.03 Y122.367 E20.30544
G1 X101.302 Y121.832 E20.34751
G1 X100.943 Y121.53 E20.36935
G1 X100.091 Y120.777 E20.4223
G1 X99.387 Y120.129 E20.46685
G1 X98.751 Y119.488 E20.5089
G1 X98.175 Y118.792 E20.55097
G1 X97.662 Y118.049 E20.59301
G1 X97.057 Y116.933 E20.65212
G1 X96.694 Y116.145 E20.69252
G1 X96.197 Y115.003 E20.75051
G1 X95.874 Y114.16 E20.79255
G1 X95.626 Y113.292 E20.83459
G1 X95.457 Y112.405 E20.87663
G1 X95.366 Y111.506 E20.91871
G1 X95.35 Y111.021 E20.9413
G1 X95.341 Y109.613 E21.00687
G1 X95.352 Y108.904 E21.03988
G1 X95.406 Y108.002 E21.08196
G1 X95.54 Y107.109 E21.12401
G1 X95.752 Y106.231 E21.16607
G1 X96.172 Y105.052 E21.22434
G1 X96.414 Y104.486 E21.25301
G1 X97.025 Y103.138 E21.32192
G1 X97.435 Y102.333 E21.36399
G1 X97.915 Y101.568 E21.40604
G1 X98.46 Y100.848 E21.44809
G1 X99.34 Y99.914 E21.50784
G1 F1500 E15.00784
;MESH:prestacap.stl
G0 F7500 X105.922 Y106.802
G0 X109.55 Y113.728
;TYPE:WALL-INNER
G1 F1500 E21.50784
G1 F613.7 X111.099 Y113.566 E21.6295
G1 F615.5 X112.451 Y112.783 E21.75117
G1 X113.366 Y111.522 E21.87251
G1 F611.9 X113.69 Y109.998 E21.99457
G1 F610.1 X113.366 Y108.473 E22.11708
G1 F611.9 X112.449 Y107.213 E22.23917
G1 X111.096 Y106.431 E22.3616
G1 F611 X109.552 Y106.27 E22.4834
G1 F609.2 X108.065 Y106.749 E22.60634
G1 X106.907 Y107.797 E22.72924
G1 F613.7 X106.272 Y109.219 E22.85089
G1 X106.272 Y110.78 E22.97282
G1 F611.9 X106.907 Y112.2 E23.09468
G1 F611 X108.064 Y113.246 E23.21706
G1 X109.55 Y113.728 E23.33963
G0 F7500 X109.494 Y114.268
;TYPE:WALL-OUTER
G1 F1029.5 X111.264 Y114.085 E23.42249
G1 X112.814 Y113.188 E23.50588
G1 X113.864 Y111.74 E23.58917
G1 X114.235 Y110 E23.67201
G1 X113.865 Y108.256 E23.75503
G1 X112.815 Y106.808 E23.83831
G1 X111.264 Y105.911 E23.92174
G1 X109.494 Y105.728 E24.0046
G1 X107.791 Y106.278 E24.08793
G1 X106.466 Y107.472 E24.17098
G1 X105.74 Y109.107 E24.25428
G1 X105.74 Y110.889 E24.33726
G1 X106.466 Y112.524 E24.42056
G1 X107.791 Y113.718 E24.50361
G1 X109.494 Y114.268 E24.58695
G0 F7500 X109.523 Y113.969
G0 X109.507 Y113.47
G0 X109.6 Y113.183
G1 F1029.5 X108.339 Y112.77 E24.64873
G1 X107.349 Y111.872 E24.71097
G1 X106.806 Y110.659 E24.77285
G1 X106.809 Y109.327 E24.83488
G1 X107.351 Y108.114 E24.89674
G1 X108.346 Y107.222 E24.95897
G1 X109.613 Y106.816 E25.02092
G1 X110.929 Y106.957 E25.08255
G1 X112.082 Y107.622 E25.14452
G1 X112.86 Y108.687 E25.20594
G1 X113.141 Y110 E25.26846
