;FLAVOR:Marlin
;TIME:14186
;Filament used: 8.50489m
;Layer height: 0.2
;Cura Time Estimate:  14186sec = 3hr 56min 26sec 
M117 ET 3hr 56min
;MINX:51.851
;MINY:67.983
;MINZ:0.2
;MAXX:168.165
;MAXY:152.021
;MAXZ:16.8
;TARGET_MACHINE.NAME:Creality Ender-3 Pro
;POSTPROCESSED
;  [DisplayInfoOnLCD]
;  [CreateThumbnail]
;Generated with Cura_SteamEngine 5.7.0
;
;

M82 ;absolute extrusion mode
; Ender 3 Custom Start G-code
G92 E0 ; Reset Extruder
G28 ; Home all axes
G1 Z5.0 F3000 ; Move Z Axis up a bit during heating to not damage bed
M104 S175 ; Start heating up the nozzle most of the way
M190 S60 ; Start heating the bed, wait until target temperature reached
M109 S200 ; Finish heating the nozzle
G1 Z2.0 F3000 ; Move Z Axis up little to prevent scratching of Heat Bed
G1 X0.1 Y20 Z0.3 F5000.0 ; Move to start position
G1 X0.1 Y200.0 Z0.3 F1500.0 E15 ; Draw the first line
G1 X0.4 Y200.0 Z0.3 F5000.0 ; Move to side a little
G1 X0.4 Y20 Z0.3 F1500.0 E30 ; Draw the second line
G92 E0 ; Reset Extruder
G1 Z2.0 F3000 ; Move Z Axis up little to prevent scratching of Heat Bed
G1 X5 Y20 Z0.3 F5000.0 ; Move over to prevent blob squish
G92 E0
G92 E0
G1 F1500 E-6.5
;LAYER_COUNT:84
;LAYER:0
M117 1/84 | ET 3h56m
M107
G0 F6000 X66.477 Y78.14 Z0.2
;TYPE:SKIRT
G1 F1500 E0
G1 F1200 X67.631 Y77.183 E0.04986
G1 X69.045 Y76.101 E0.10908
G1 X69.394 Y75.849 E0.1234
G1 X70.616 Y75.006 E0.17278
G1 X72.013 Y74.114 E0.2279
G1 X73.374 Y73.322 E0.28028
G1 X74.875 Y72.523 E0.33683
G1 X76.251 Y71.859 E0.38765
G1 X77.729 Y71.212 E0.44131
G1 X79.323 Y70.585 E0.49828
G1 X80.749 Y70.089 E0.5485
G1 X82.307 Y69.606 E0.60275
G1 X82.697 Y69.493 E0.61626
G1 X83.608 Y69.255 E0.64757
G1 X85.285 Y68.871 E0.70479
G1 X86.176 Y68.689 E0.73504
G1 X86.709 Y68.595 E0.75304
G1 X88.306 Y68.358 E0.80674
G1 X89.871 Y68.18 E0.85913
G1 X91.888 Y68.037 E0.92638
G1 X93.439 Y67.987 E0.978
G1 X93.931 Y67.983 E0.99436
G1 X95.116 Y68.003 E1.03378
G1 X96.547 Y68.073 E1.08143
G1 X100.853 Y68.442 E1.22517
G1 X103.349 Y68.588 E1.30833
G1 X105.888 Y68.667 E1.39282
G1 X108.378 Y68.674 E1.47564
G1 X110.948 Y68.608 E1.56115
G1 X113.393 Y68.478 E1.64258
G1 X116.058 Y68.259 E1.73152
G1 X116.951 Y68.175 E1.76135
G1 X117.922 Y68.116 E1.79371
G1 X118.787 Y68.108 E1.82248
G1 X119.344 Y68.126 E1.84101
G1 X120.132 Y68.179 E1.86728
G1 X120.59 Y68.228 E1.8826
G1 X121.365 Y68.339 E1.90864
G1 X121.894 Y68.435 E1.92652
G1 X122.709 Y68.616 E1.95429
G1 X123.135 Y68.729 E1.96895
G1 X123.865 Y68.948 E1.9943
G1 X124.701 Y69.243 E2.02379
G1 X125.345 Y69.505 E2.04691
G1 X125.825 Y69.721 E2.06442
G1 X126.357 Y69.976 E2.08404
G1 X129.062 Y71.371 E2.18527
G1 X131.33 Y72.466 E2.26903
G1 X133.595 Y73.478 E2.35154
G1 X135.952 Y74.454 E2.43639
G1 X138.297 Y75.349 E2.51988
G1 X140.695 Y76.187 E2.60436
G1 X143.054 Y76.938 E2.6867
G1 X145.484 Y77.636 E2.77079
G1 X147.932 Y78.265 E2.85486
G1 X150.404 Y78.824 E2.93915
G1 X152.87 Y79.311 E3.02276
G1 X155.318 Y79.722 E3.10532
G1 X158.465 Y80.159 E3.21099
G1 X159.423 Y80.338 E3.24341
G1 X160.361 Y80.601 E3.27581
G1 X161.271 Y80.946 E3.30818
G1 X162.147 Y81.37 E3.34055
G1 X162.984 Y81.871 E3.37299
G1 X163.771 Y82.444 E3.40537
G1 X164.505 Y83.083 E3.43774
G1 X165.158 Y83.759 E3.469
G1 X165.8 Y84.557 E3.50306
G1 X166.051 Y84.902 E3.51725
G1 X166.59 Y85.714 E3.54967
G1 X167.021 Y86.508 E3.57972
G1 X167.437 Y87.467 E3.61449
G1 X167.74 Y88.39 E3.6468
G1 X167.963 Y89.34 E3.67925
G1 X168.092 Y90.233 E3.70926
G1 X168.145 Y91.006 E3.73503
G1 X168.164 Y91.729 E3.75909
G1 X168.164 Y93.169 E3.80698
G1 X168.146 Y94.166 E3.84015
G1 X168.107 Y95.089 E3.87088
G1 X168.033 Y97.691 E3.95745
G1 X168.033 Y100.203 E4.041
G1 X168.106 Y102.728 E4.12502
G1 X168.138 Y103.428 E4.14833
G1 X168.164 Y104.432 E4.18173
G1 X168.165 Y105.453 E4.21569
G1 X168.151 Y106.482 E4.24992
G1 X168.067 Y109.338 E4.34495
G1 X168.067 Y111.824 E4.42763
G1 X168.139 Y114.155 E4.5052
G1 X168.165 Y115.942 E4.56464
G1 X168.155 Y117.124 E4.60396
G1 X168.051 Y120.581 E4.71899
G1 X168.051 Y123.084 E4.80224
G1 X168.145 Y126.12 E4.90327
G1 X168.165 Y127.53 E4.95017
G1 X168.155 Y128.649 E4.98739
G1 X168.049 Y132.146 E5.10375
G1 X168.049 Y134.681 E5.18807
G1 X168.11 Y136.926 E5.26276
G1 X168.159 Y138.359 E5.31045
G1 X168.164 Y139.976 E5.36423
G1 X168.151 Y140.817 E5.39221
G1 X168.093 Y141.79 E5.42463
G1 X167.947 Y142.753 E5.45702
G1 X167.717 Y143.699 E5.4894
G1 X167.405 Y144.621 E5.52178
G1 X167.044 Y145.448 E5.55179
G1 X166.399 Y146.593 E5.5955
G1 X166.214 Y146.877 E5.60677
G1 X165.65 Y147.669 E5.63911
G1 X165.065 Y148.356 E5.66912
G1 X164.319 Y149.089 E5.70391
G1 X163.564 Y149.706 E5.73634
G1 X162.758 Y150.253 E5.76874
G1 X161.914 Y150.724 E5.80088
G1 X161.132 Y151.083 E5.8295
G1 X160.177 Y151.448 E5.86351
G1 X159.239 Y151.716 E5.89595
G1 X158.267 Y151.899 E5.92885
G1 X156.956 Y152.007 E5.9726
G1 X156.147 Y152.021 E5.99951
G1 X93.337 Y152.013 E8.08858
G1 X91.636 Y151.952 E8.1452
G1 X90.464 Y151.872 E8.18427
G1 X86.967 Y151.556 E8.30105
G1 X84.487 Y151.406 E8.38369
G1 X81.928 Y151.324 E8.46884
G1 X79.438 Y151.315 E8.55166
G1 X76.902 Y151.377 E8.63604
G1 X74.434 Y151.508 E8.71824
G1 X70.751 Y151.826 E8.84119
G1 X70.029 Y151.874 E8.86526
G1 X69.242 Y151.894 E8.89144
G1 X68.38 Y151.875 E8.92012
G1 X68.071 Y151.86 E8.93041
G1 X67.443 Y151.806 E8.95137
G1 X66.974 Y151.751 E8.96708
G1 X66.178 Y151.63 E8.99386
G1 X65.641 Y151.526 E9.01205
G1 X64.77 Y151.321 E9.04181
G1 X64.266 Y151.18 E9.05922
G1 X63.505 Y150.935 E9.08581
G1 X63.073 Y150.778 E9.1011
G1 X62.474 Y150.539 E9.12255
G1 X62.085 Y150.37 E9.13665
G1 X61.515 Y150.103 E9.15759
G1 X61.144 Y149.915 E9.17142
G1 X60.518 Y149.57 E9.19519
G1 X60.169 Y149.363 E9.20869
G1 X59.559 Y148.971 E9.23281
G1 X59.15 Y148.686 E9.24939
G1 X58.484 Y148.192 E9.27697
G1 X57.962 Y147.766 E9.29938
G1 X57.652 Y147.495 E9.31307
G1 X57.136 Y147.016 E9.33649
G1 X56.788 Y146.669 E9.35283
G1 X56.18 Y146.01 E9.38266
G1 X55.787 Y145.547 E9.40285
G1 X55.238 Y144.84 E9.43263
G1 X54.895 Y144.359 E9.45228
G1 X54.403 Y143.6 E9.48236
G1 X54.109 Y143.097 E9.50174
G1 X53.693 Y142.314 E9.53123
G1 X53.447 Y141.799 E9.55021
G1 X53.129 Y141.066 E9.57679
G1 X52.822 Y140.24 E9.60609
G1 X52.685 Y139.83 E9.62047
G1 X52.492 Y139.188 E9.64277
G1 X52.395 Y138.818 E9.65549
G1 X52.234 Y138.115 E9.67948
G1 X52.131 Y137.582 E9.69753
G1 X52.002 Y136.723 E9.72643
G1 X51.943 Y136.185 E9.74443
G1 X51.879 Y135.142 E9.77918
G1 X51.87 Y134.474 E9.8014
G1 X51.897 Y133.558 E9.83188
G1 X51.952 Y132.847 E9.8556
G1 X52.226 Y129.905 E9.95387
G1 X52.382 Y127.408 E10.03709
G1 X52.47 Y124.876 E10.12135
G1 X52.486 Y122.365 E10.20487
G1 X52.43 Y119.821 E10.28951
G1 X52.307 Y117.385 E10.37063
G1 X51.948 Y113.004 E10.51683
G1 X51.92 Y112.564 E10.5315
G1 X51.861 Y111.084 E10.58076
G1 X51.851 Y109.431 E10.63574
G1 X51.902 Y107.862 E10.68795
G1 X52.014 Y106.26 E10.74136
G1 X52.053 Y105.849 E10.7551
G1 X52.255 Y104.12 E10.81299
G1 X52.452 Y102.857 E10.85551
G1 X52.755 Y101.299 E10.9083
G1 X53 Y100.195 E10.94591
G1 X53.114 Y99.737 E10.96161
G1 X53.514 Y98.282 E11.0118
G1 X53.975 Y96.801 E11.06339
G1 X54.105 Y96.413 E11.077
G1 X54.622 Y94.974 E11.12786
G1 X55 Y94.012 E11.16223
G1 X55.169 Y93.616 E11.17655
G1 X55.969 Y91.853 E11.24095
G1 X56.657 Y90.485 E11.29188
G1 X57.354 Y89.203 E11.34041
G1 X57.913 Y88.245 E11.3773
G1 X58.15 Y87.86 E11.39234
G1 X58.976 Y86.588 E11.44278
G1 X60.04 Y85.067 E11.50452
G1 X60.322 Y84.687 E11.52026
G1 X61.021 Y83.793 E11.558
G1 X62.123 Y82.471 E11.61525
G1 X63.22 Y81.255 E11.66972
G1 X64.133 Y80.311 E11.7134
G1 X65.202 Y79.279 E11.76282
G1 X66.477 Y78.14 E11.81968
G0 F6000 X66.732 Y78.448
G1 F1200 X67.874 Y77.501 E11.86902
G1 X69.28 Y76.425 E11.92791
G1 X69.621 Y76.178 E11.94191
G1 X70.831 Y75.343 E11.99081
G1 X72.214 Y74.46 E12.04539
G1 X73.562 Y73.675 E12.09727
G1 X75.049 Y72.883 E12.1533
G1 X76.411 Y72.225 E12.20361
G1 X77.875 Y71.584 E12.25677
G1 X79.454 Y70.963 E12.3132
G1 X80.868 Y70.471 E12.363
G1 X82.418 Y69.99 E12.41698
G1 X82.798 Y69.88 E12.43014
G1 X83.697 Y69.645 E12.46104
G1 X85.365 Y69.263 E12.51795
G1 X86.245 Y69.083 E12.54783
G1 X86.768 Y68.991 E12.56549
G1 X88.365 Y68.754 E12.61919
G1 X89.901 Y68.579 E12.67061
G1 X91.502 Y68.459 E12.72401
G1 X91.901 Y68.437 E12.7373
G1 X93.442 Y68.387 E12.78858
G1 X93.924 Y68.383 E12.80461
G1 X95.099 Y68.403 E12.8437
G1 X96.063 Y68.444 E12.87579
G1 X96.513 Y68.472 E12.89078
G1 X100.819 Y68.84 E13.03453
G1 X103.337 Y68.988 E13.11842
G1 X105.876 Y69.067 E13.20291
G1 X108.387 Y69.074 E13.28642
G1 X110.958 Y69.008 E13.37196
G1 X113.426 Y68.876 E13.45417
G1 X116.091 Y68.657 E13.5431
G1 X116.975 Y68.574 E13.57264
G1 X117.926 Y68.516 E13.60432
G1 X118.774 Y68.508 E13.63253
G1 X119.317 Y68.525 E13.6506
G1 X120.09 Y68.577 E13.67637
G1 X120.533 Y68.624 E13.69118
G1 X121.294 Y68.733 E13.71675
G1 X121.807 Y68.826 E13.73409
G1 X122.606 Y69.003 E13.76131
G1 X123.032 Y69.116 E13.77597
G1 X123.732 Y69.325 E13.80027
G1 X124.55 Y69.614 E13.82912
G1 X125.194 Y69.876 E13.85225
G1 X125.652 Y70.081 E13.86894
G1 X126.174 Y70.332 E13.8882
G1 X128.879 Y71.727 E13.98943
G1 X131.158 Y72.827 E14.0736
G1 X133.442 Y73.848 E14.15681
G1 X135.809 Y74.828 E14.24202
G1 X138.159 Y75.725 E14.32568
G1 X140.563 Y76.565 E14.41038
G1 X142.933 Y77.319 E14.4931
G1 X145.384 Y78.023 E14.57791
G1 X147.844 Y78.655 E14.66239
G1 X150.316 Y79.214 E14.74668
G1 X152.798 Y79.704 E14.83083
G1 X155.263 Y80.118 E14.91396
G1 X158.392 Y80.552 E15.01903
G1 X159.316 Y80.723 E15.05029
G1 X160.22 Y80.975 E15.0815
G1 X161.097 Y81.306 E15.11268
G1 X161.942 Y81.714 E15.14389
G1 X162.749 Y82.195 E15.17513
G1 X163.509 Y82.746 E15.20636
G1 X164.217 Y83.361 E15.23755
G1 X164.87 Y84.037 E15.26881
G1 X165.477 Y84.793 E15.30105
G1 X165.718 Y85.123 E15.31465
G1 X166.238 Y85.905 E15.34588
G1 X166.669 Y86.699 E15.37593
G1 X167.057 Y87.592 E15.40831
G1 X167.351 Y88.482 E15.43949
G1 X167.567 Y89.397 E15.47076
G1 X167.696 Y90.29 E15.50077
G1 X167.745 Y91.017 E15.525
G1 X167.764 Y91.74 E15.54906
G1 X167.764 Y93.162 E15.59635
G1 X167.746 Y94.149 E15.62919
G1 X167.707 Y95.072 E15.65991
G1 X167.633 Y97.68 E15.74669
G1 X167.633 Y100.203 E15.83061
G1 X167.706 Y102.746 E15.91522
G1 X167.738 Y103.438 E15.93826
G1 X167.764 Y104.432 E15.97133
G1 X167.765 Y105.448 E16.00513
G1 X167.751 Y106.47 E16.03912
G1 X167.667 Y109.326 E16.13415
G1 X167.667 Y111.824 E16.21724
G1 X167.739 Y114.161 E16.295
G1 X167.765 Y115.939 E16.35415
G1 X167.755 Y117.112 E16.39316
G1 X167.651 Y120.569 E16.50819
G1 X167.651 Y123.084 E16.59184
G1 X167.745 Y126.126 E16.69307
G1 X167.765 Y127.526 E16.73964
G1 X167.755 Y128.637 E16.77659
G1 X167.649 Y132.134 E16.89295
G1 X167.649 Y134.681 E16.97767
G1 X167.71 Y136.94 E17.05283
G1 X167.759 Y138.36 E17.10009
G1 X167.764 Y139.97 E17.15364
G1 X167.752 Y140.794 E17.18105
G1 X167.697 Y141.731 E17.21226
G1 X167.558 Y142.659 E17.24347
G1 X167.338 Y143.571 E17.27468
G1 X167.038 Y144.461 E17.30592
G1 X166.677 Y145.288 E17.33593
G1 X166.063 Y146.375 E17.37745
G1 X165.888 Y146.645 E17.38815
G1 X165.345 Y147.41 E17.41935
G1 X164.76 Y148.097 E17.44937
G1 X164.065 Y148.78 E17.48178
G1 X163.339 Y149.375 E17.513
G1 X162.563 Y149.904 E17.54423
G1 X161.747 Y150.36 E17.57532
G1 X160.965 Y150.719 E17.60394
G1 X160.067 Y151.064 E17.63594
G1 X159.164 Y151.323 E17.66718
G1 X158.234 Y151.5 E17.69867
G1 X156.923 Y151.608 E17.74242
G1 X156.147 Y151.621 E17.76824
G1 X93.351 Y151.613 E19.85684
G1 X91.663 Y151.553 E19.91302
G1 X90.5 Y151.474 E19.95179
G1 X86.994 Y151.157 E20.06887
G1 X84.5 Y151.006 E20.15198
G1 X81.941 Y150.924 E20.23713
G1 X79.429 Y150.915 E20.32068
G1 X76.892 Y150.977 E20.40509
G1 X74.4 Y151.109 E20.48809
G1 X70.724 Y151.427 E20.61081
G1 X70.019 Y151.474 E20.63431
G1 X69.25 Y151.494 E20.6599
G1 X68.4 Y151.476 E20.68817
G1 X68.105 Y151.461 E20.698
G1 X67.489 Y151.409 E20.71856
G1 X67.034 Y151.356 E20.73379
G1 X66.254 Y151.237 E20.76004
G1 X65.717 Y151.133 E20.77823
G1 X64.878 Y150.936 E20.80689
G1 X64.388 Y150.799 E20.82382
G1 X63.641 Y150.559 E20.84991
G1 X63.221 Y150.407 E20.86477
G1 X62.633 Y150.172 E20.88583
G1 X62.255 Y150.008 E20.89954
G1 X61.695 Y149.746 E20.9201
G1 X61.337 Y149.565 E20.93344
G1 X60.722 Y149.226 E20.9568
G1 X60.385 Y149.026 E20.96983
G1 X59.775 Y148.634 E20.99395
G1 X59.388 Y148.365 E21.00962
G1 X58.737 Y147.882 E21.03659
G1 X58.225 Y147.465 E21.05855
G1 X57.924 Y147.202 E21.07184
G1 X57.418 Y146.732 E21.09481
G1 X57.082 Y146.398 E21.11057
G1 X56.485 Y145.751 E21.13985
G1 X56.103 Y145.301 E21.15948
G1 X55.564 Y144.608 E21.18868
G1 X55.231 Y144.141 E21.20776
G1 X54.739 Y143.382 E21.23784
G1 X54.462 Y142.909 E21.25608
G1 X54.054 Y142.141 E21.285
G1 X53.814 Y141.64 E21.30348
G1 X53.504 Y140.926 E21.32937
G1 X53.201 Y140.113 E21.35822
G1 X53.068 Y139.715 E21.37218
G1 X52.879 Y139.086 E21.39402
G1 X52.785 Y138.729 E21.4063
G1 X52.627 Y138.039 E21.42985
G1 X52.527 Y137.522 E21.44736
G1 X52.4 Y136.679 E21.47572
G1 X52.341 Y136.141 E21.49372
G1 X52.279 Y135.136 E21.52721
G1 X52.27 Y134.486 E21.54883
G1 X52.296 Y133.589 E21.57868
G1 X52.35 Y132.884 E21.60219
G1 X52.624 Y129.942 E21.70047
G1 X52.782 Y127.422 E21.78445
G1 X52.87 Y124.89 E21.86871
G1 X52.886 Y122.368 E21.9526
G1 X52.83 Y119.812 E22.03763
G1 X52.706 Y117.352 E22.11955
G1 X52.347 Y112.979 E22.26549
G1 X52.32 Y112.548 E22.27985
G1 X52.261 Y111.082 E22.32865
G1 X52.251 Y109.444 E22.38313
G1 X52.301 Y107.89 E22.43485
G1 X52.412 Y106.298 E22.48792
G1 X52.45 Y105.895 E22.50139
G1 X52.65 Y104.182 E22.55875
G1 X52.845 Y102.933 E22.60079
G1 X53.145 Y101.386 E22.65321
G1 X53.388 Y100.292 E22.69048
G1 X53.5 Y99.843 E22.70587
G1 X53.896 Y98.401 E22.75561
G1 X54.354 Y96.928 E22.80691
G1 X54.481 Y96.548 E22.82024
G1 X54.994 Y95.12 E22.87071
G1 X55.368 Y94.169 E22.9047
G1 X55.533 Y93.781 E22.91872
G1 X56.326 Y92.033 E22.98256
G1 X57.008 Y90.676 E23.03307
G1 X57.699 Y89.405 E23.08119
G1 X58.254 Y88.454 E23.11781
G1 X58.485 Y88.078 E23.13249
G1 X59.304 Y86.817 E23.1825
G1 X60.361 Y85.305 E23.24386
G1 X60.637 Y84.933 E23.25927
G1 X61.328 Y84.049 E23.29659
G1 X62.42 Y82.739 E23.35331
G1 X63.508 Y81.533 E23.40733
G1 X64.411 Y80.599 E23.45054
G1 X65.469 Y79.577 E23.49947
G1 X66.732 Y78.448 E23.55581
G0 F6000 X66.987 Y78.756
G1 F1200 X68.117 Y77.819 E23.60464
G1 X69.515 Y76.749 E23.66319
G1 X69.848 Y76.507 E23.67688
G1 X71.046 Y75.68 E23.7253
G1 X72.416 Y74.806 E23.77935
G1 X73.75 Y74.028 E23.83071
G1 X75.223 Y73.243 E23.88623
G1 X76.572 Y72.591 E23.93606
G1 X78.021 Y71.956 E23.98868
G1 X79.585 Y71.341 E24.04458
G1 X80.987 Y70.853 E24.09395
G1 X82.529 Y70.374 E24.14765
G1 X82.899 Y70.267 E24.16047
G1 X83.786 Y70.035 E24.19096
G1 X85.445 Y69.655 E24.24757
G1 X86.314 Y69.477 E24.27707
G1 X86.827 Y69.387 E24.29439
G1 X88.424 Y69.15 E24.34809
G1 X89.931 Y68.978 E24.39854
G1 X91.523 Y68.858 E24.45164
G1 X91.914 Y68.837 E24.46466
G1 X93.445 Y68.787 E24.51561
G1 X93.917 Y68.783 E24.53131
G1 X95.082 Y68.803 E24.57006
G1 X96.038 Y68.843 E24.60189
G1 X96.479 Y68.871 E24.61659
G1 X100.785 Y69.238 E24.76032
G1 X103.325 Y69.388 E24.84495
G1 X105.864 Y69.467 E24.92944
G1 X108.396 Y69.474 E25.01366
G1 X110.968 Y69.408 E25.09923
G1 X113.459 Y69.274 E25.1822
G1 X116.124 Y69.055 E25.27114
G1 X116.999 Y68.973 E25.30037
G1 X117.93 Y68.916 E25.33139
G1 X118.762 Y68.908 E25.35906
G1 X119.29 Y68.924 E25.37663
G1 X120.048 Y68.975 E25.4019
G1 X120.476 Y69.02 E25.41621
G1 X121.223 Y69.127 E25.44131
G1 X121.721 Y69.217 E25.45815
G1 X122.504 Y69.39 E25.48482
G1 X122.918 Y69.499 E25.49906
G1 X123.599 Y69.702 E25.52269
G1 X124.399 Y69.985 E25.55091
G1 X125.043 Y70.247 E25.57404
G1 X125.479 Y70.442 E25.58992
G1 X125.991 Y70.688 E25.60882
G1 X128.696 Y72.083 E25.71005
G1 X130.986 Y73.188 E25.79461
G1 X133.289 Y74.218 E25.87852
G1 X135.666 Y75.202 E25.96409
G1 X138.021 Y76.101 E26.04793
G1 X140.431 Y76.943 E26.13284
G1 X142.812 Y77.7 E26.21594
G1 X145.284 Y78.41 E26.30148
G1 X147.756 Y79.045 E26.38637
G1 X150.228 Y79.604 E26.47066
G1 X152.726 Y80.097 E26.55535
G1 X155.208 Y80.514 E26.63906
G1 X158.32 Y80.945 E26.74355
G1 X159.209 Y81.108 E26.77361
G1 X160.079 Y81.349 E26.80364
G1 X160.924 Y81.667 E26.83367
G1 X161.738 Y82.058 E26.8637
G1 X162.515 Y82.519 E26.89375
G1 X163.247 Y83.048 E26.92379
